(Created with svg2gcode_grbl)
(https://github.com/arcadeperfect/svg2gcode_grbl)
(forked from svg2gcode by visphat)
(https://github.com/vishpat/svg2gcode)
F4000
(shape preamble)
G0 X800.001 Y500.000 Z0.000
(start stroke 1)
(probe_depth_adapt)
G0 X800.001 Y500.000 Z0 F10000
G1 Z4 F4000
G4 P1.0
G0 Z0 F10000
(end_probe)
G1 X800.001 Y500.000 Z4.000
G1 X800.001 Y497.767 Z4.000
G1 X800.369 Y491.128 Z4.000
G1 X801.171 Y484.576 Z4.000
G1 X802.394 Y478.130 Z4.000
G1 X804.030 Y471.809 Z4.000
G1 X806.066 Y465.630 Z4.000
G1 X808.493 Y459.612 Z4.000
G1 X811.300 Y453.773 Z4.000
G1 X814.477 Y448.131 Z4.000
G1 X818.013 Y442.705 Z4.000
G1 X821.897 Y437.512 Z4.000
G1 X826.120 Y432.571 Z4.000
G1 X830.670 Y427.900 Z4.000
G1 X835.537 Y423.517 Z4.000
G1 X840.710 Y419.441 Z4.000
G1 X846.179 Y415.690 Z4.000
G1 X851.934 Y412.281 Z4.000
G1 X857.869 Y409.281 Z4.000
G1 X863.944 Y406.699 Z4.000
G1 X870.137 Y404.536 Z4.000
G1 X876.430 Y402.791 Z4.000
G1 X882.799 Y401.466 Z4.000
G1 X889.224 Y400.558 Z4.000
G1 X895.684 Y400.070 Z4.000
G1 X902.159 Y400.000 Z4.000
G1 X908.626 Y400.349 Z4.000
G1 X915.065 Y401.117 Z4.000
G1 X921.456 Y402.303 Z4.000
G1 X927.776 Y403.908 Z4.000
G1 X934.005 Y405.931 Z4.000
G1 X940.122 Y408.374 Z4.000
G1 X946.105 Y411.234 Z4.000
G1 X951.934 Y414.514 Z4.000
G1 X957.500 Y418.153 Z4.000
G1 X962.773 Y422.123 Z4.000
G1 X967.744 Y426.406 Z4.000
G1 X972.400 Y430.983 Z4.000
G1 X976.733 Y435.836 Z4.000
G1 X980.731 Y440.947 Z4.000
G1 X984.385 Y446.297 Z4.000
G1 X987.682 Y451.869 Z4.000
G1 X990.614 Y457.645 Z4.000
G1 X993.169 Y463.605 Z4.000
G1 X995.337 Y469.732 Z4.000
G1 X997.107 Y476.008 Z4.000
G1 X998.469 Y482.414 Z4.000
G1 X999.412 Y488.933 Z4.000
G1 X999.926 Y495.545 Z4.000
G1 X1000.001 Y502.233 Z4.000
G1 X999.632 Y508.873 Z4.000
G1 X998.830 Y515.425 Z4.000
G1 X997.607 Y521.870 Z4.000
G1 X995.972 Y528.192 Z4.000
G1 X993.935 Y534.370 Z4.000
G1 X991.508 Y540.388 Z4.000
G1 X988.701 Y546.227 Z4.000
G1 X985.524 Y551.869 Z4.000
G1 X981.988 Y557.296 Z4.000
G1 X978.104 Y562.489 Z4.000
G1 X973.882 Y567.430 Z4.000
G1 X969.332 Y572.100 Z4.000
G1 X964.465 Y576.483 Z4.000
G1 X959.291 Y580.559 Z4.000
G1 X953.822 Y584.311 Z4.000
G1 X948.067 Y587.719 Z4.000
G1 X942.132 Y590.720 Z4.000
G1 X936.058 Y593.302 Z4.000
G1 X929.864 Y595.465 Z4.000
G1 X923.572 Y597.209 Z4.000
G1 X917.202 Y598.535 Z4.000
G1 X910.777 Y599.442 Z4.000
G1 X904.317 Y599.931 Z4.000
G1 X897.842 Y600.000 Z4.000
G1 X891.375 Y599.651 Z4.000
G1 X884.936 Y598.884 Z4.000
G1 X878.546 Y597.698 Z4.000
G1 X872.225 Y596.093 Z4.000
G1 X865.996 Y594.069 Z4.000
G1 X859.880 Y591.627 Z4.000
G1 X853.896 Y588.766 Z4.000
G1 X848.067 Y585.486 Z4.000
G1 X842.501 Y581.847 Z4.000
G1 X837.228 Y577.877 Z4.000
G1 X832.258 Y573.595 Z4.000
G1 X827.601 Y569.018 Z4.000
G1 X823.268 Y564.165 Z4.000
G1 X819.270 Y559.054 Z4.000
G1 X815.617 Y553.703 Z4.000
G1 X812.319 Y548.131 Z4.000
G1 X809.387 Y542.356 Z4.000
G1 X806.832 Y536.396 Z4.000
G1 X804.665 Y530.268 Z4.000
G1 X802.894 Y523.992 Z4.000
G1 X801.532 Y517.586 Z4.000
G1 X800.589 Y511.068 Z4.000
G1 X800.075 Y504.455 Z4.000
G1 X800.001 Y500.000 Z4.000
G0 X800.001 Y500.000 Z0.000
(shape postamble)
(shape preamble)
G0 X847.271 Y311.988 Z0.000
G1 X847.271 Y311.988 Z4.000
G1 X847.271 Y314.087 Z4.000
G1 X847.691 Y319.355 Z4.000
G1 X848.588 Y323.572 Z4.000
G1 X849.933 Y326.941 Z4.000
G1 X851.603 Y329.526 Z4.000
G1 X853.355 Y331.489 Z4.000
G1 X855.331 Y333.139 Z4.000
G1 X857.507 Y334.489 Z4.000
G1 X859.856 Y335.552 Z4.000
G1 X862.355 Y336.340 Z4.000
G1 X865.858 Y337.026 Z4.000
G1 X871.278 Y337.179 Z4.000
G1 X875.470 Y336.581 Z4.000
G1 X877.877 Y335.923 Z4.000
G1 X880.162 Y335.008 Z4.000
G1 X882.293 Y333.824 Z4.000
G1 X884.239 Y332.359 Z4.000
G1 X885.966 Y330.599 Z4.000
G1 X887.442 Y328.534 Z4.000
G1 X888.590 Y326.294 Z4.000
G1 X889.708 Y323.142 Z4.000
G1 X890.543 Y318.133 Z4.000
G1 X890.782 Y313.028 Z4.000
G1 X890.782 Y309.698 Z4.000
G1 X890.782 Y249.202 Z4.000
G1 X890.572 Y245.534 Z4.000
G1 X889.923 Y241.674 Z4.000
G1 X888.635 Y237.866 Z4.000
G1 X886.622 Y234.507 Z4.000
G1 X884.173 Y231.964 Z4.000
G1 X882.298 Y230.531 Z4.000
G1 X880.081 Y229.240 Z4.000
G1 X877.509 Y228.157 Z4.000
G1 X874.569 Y227.346 Z4.000
G1 X871.250 Y226.872 Z4.000
G1 X867.452 Y226.798 Z4.000
G1 X863.826 Y227.130 Z4.000
G1 X860.662 Y227.820 Z4.000
G1 X857.929 Y228.828 Z4.000
G1 X855.595 Y230.111 Z4.000
G1 X853.630 Y231.627 Z4.000
G1 X852.001 Y233.333 Z4.000
G1 X850.676 Y235.189 Z4.000
G1 X849.289 Y237.809 Z4.000
G1 X848.027 Y241.910 Z4.000
G1 X847.439 Y245.877 Z4.000
G1 X847.271 Y249.374 Z4.000
G1 X847.271 Y251.226 Z4.000
G1 X847.271 Y308.483 Z4.000
G1 X845.464 Y307.313 Z4.000
G1 X845.464 Y311.129 Z4.000
G1 X847.271 Y310.014 Z4.000
G1 X847.271 Y311.988 Z4.000
G0 X847.271 Y311.988 Z0.000
(shape postamble)
(shape preamble)
G0 X883.606 Y305.576 Z0.000
G1 X883.606 Y305.576 Z4.000
G1 X883.606 Y307.637 Z4.000
G1 X883.435 Y313.739 Z4.000
G1 X882.853 Y318.462 Z4.000
G1 X882.241 Y321.060 Z4.000
G1 X881.367 Y323.414 Z4.000
G1 X880.183 Y325.476 Z4.000
G1 X878.568 Y327.256 Z4.000
G1 X876.350 Y328.744 Z4.000
G1 X873.788 Y329.793 Z4.000
G1 X871.011 Y330.375 Z4.000
G1 X868.072 Y330.461 Z4.000
G1 X865.147 Y330.041 Z4.000
G1 X862.490 Y329.145 Z4.000
G1 X860.171 Y327.799 Z4.000
G1 X858.320 Y326.111 Z4.000
G1 X856.989 Y324.344 Z4.000
G1 X856.003 Y322.458 Z4.000
G1 X855.311 Y320.535 Z4.000
G1 X854.723 Y318.038 Z4.000
G1 X854.446 Y314.870 Z4.000
G1 X854.446 Y313.515 Z4.000
G1 X854.446 Y251.569 Z4.000
G1 X854.895 Y245.562 Z4.000
G1 X855.849 Y241.840 Z4.000
G1 X856.695 Y239.986 Z4.000
G1 X857.788 Y238.380 Z4.000
G1 X859.155 Y236.967 Z4.000
G1 X860.859 Y235.691 Z4.000
G1 X862.872 Y234.674 Z4.000
G1 X865.076 Y233.964 Z4.000
G1 X867.442 Y233.573 Z4.000
G1 X870.477 Y233.515 Z4.000
G1 X873.578 Y234.126 Z4.000
G1 X875.257 Y234.775 Z4.000
G1 X877.099 Y235.805 Z4.000
G1 X879.127 Y237.418 Z4.000
G1 X880.690 Y239.287 Z4.000
G1 X881.847 Y241.377 Z4.000
G1 X882.657 Y243.654 Z4.000
G1 X883.179 Y246.084 Z4.000
G1 X883.559 Y249.489 Z4.000
G1 X883.606 Y253.057 Z4.000
G1 X883.606 Y305.576 Z4.000
G0 X883.606 Y305.576 Z0.000
(shape postamble)
(shape preamble)
G0 X944.027 Y335.957 Z0.000
G1 X944.027 Y335.957 Z4.000
G1 X952.424 Y335.957 Z4.000
G1 X929.524 Y293.056 Z4.000
G1 X952.731 Y228.172 Z4.000
G1 X944.791 Y228.172 Z4.000
G1 X924.944 Y284.049 Z4.000
G1 X917.005 Y269.087 Z4.000
G1 X917.005 Y228.172 Z4.000
G1 X909.677 Y228.172 Z4.000
G1 X909.677 Y335.957 Z4.000
G1 X917.158 Y335.957 Z4.000
G1 X917.158 Y283.133 Z4.000
G1 X944.027 Y335.957 Z4.000
G0 X944.027 Y335.957 Z0.000
(shape postamble)
(shape preamble)
G0 X1014.192 Y686.429 Z0.000
G1 X1014.192 Y686.429 Z4.000
G1 X1014.919 Y687.994 Z4.000
G1 X1016.238 Y692.828 Z4.000
G1 X1016.568 Y697.704 Z4.000
G1 X1015.956 Y702.489 Z4.000
G1 X1014.452 Y707.048 Z4.000
G1 X1012.104 Y711.249 Z4.000
G1 X1008.962 Y714.957 Z4.000
G1 X1005.074 Y718.040 Z4.000
G1 X1000.490 Y720.363 Z4.000
G1 X995.655 Y721.682 Z4.000
G1 X990.779 Y722.011 Z4.000
G1 X985.995 Y721.399 Z4.000
G1 X981.435 Y719.895 Z4.000
G1 X977.235 Y717.548 Z4.000
G1 X973.527 Y714.405 Z4.000
G1 X970.444 Y710.518 Z4.000
G1 X968.216 Y706.137 Z4.000
G1 X966.972 Y701.943 Z4.000
G1 X966.484 Y697.701 Z4.000
G1 X966.720 Y693.497 Z4.000
G1 X967.646 Y689.420 Z4.000
G1 X969.231 Y685.557 Z4.000
G1 X971.443 Y681.996 Z4.000
G1 X974.249 Y678.826 Z4.000
G1 X976.465 Y677.001 Z4.000
G1 X961.782 Y632.962 Z4.000
G1 X987.378 Y672.262 Z4.000
G1 X991.620 Y671.919 Z4.000
G1 X995.806 Y672.293 Z4.000
G1 X999.848 Y673.351 Z4.000
G1 X1003.658 Y675.062 Z4.000
G1 X1007.149 Y677.394 Z4.000
G1 X1010.232 Y680.314 Z4.000
G1 X1012.820 Y683.790 Z4.000
G1 X1014.192 Y686.429 Z4.000
G0 X1014.192 Y686.429 Z0.000
(shape postamble)
(shape preamble)
G0 X726.637 Y508.000 Z0.000
G1 X726.637 Y508.000 Z4.000
G1 X726.637 Y507.643 Z4.000
G1 X727.078 Y506.701 Z4.000
G1 X727.946 Y506.090 Z4.000
G1 X728.982 Y506.000 Z4.000
G1 X729.946 Y506.447 Z4.000
G1 X730.542 Y507.299 Z4.000
G1 X730.637 Y508.357 Z4.000
G1 X730.196 Y509.299 Z4.000
G1 X729.328 Y509.911 Z4.000
G1 X728.292 Y510.000 Z4.000
G1 X727.328 Y509.554 Z4.000
G1 X726.732 Y508.701 Z4.000
G1 X726.637 Y508.000 Z4.000
G0 X726.637 Y508.000 Z0.000
(shape postamble)
(shape preamble)
G0 X742.637 Y508.000 Z0.000
G1 X742.637 Y508.000 Z4.000
G1 X742.637 Y507.643 Z4.000
G1 X743.078 Y506.701 Z4.000
G1 X743.946 Y506.090 Z4.000
G1 X744.982 Y506.000 Z4.000
G1 X745.946 Y506.447 Z4.000
G1 X746.542 Y507.299 Z4.000
G1 X746.637 Y508.357 Z4.000
G1 X746.196 Y509.299 Z4.000
G1 X745.328 Y509.911 Z4.000
G1 X744.292 Y510.000 Z4.000
G1 X743.328 Y509.554 Z4.000
G1 X742.732 Y508.701 Z4.000
G1 X742.637 Y508.000 Z4.000
G0 X742.637 Y508.000 Z0.000
(shape postamble)
(shape preamble)
G0 X726.637 Y492.000 Z0.000
G1 X726.637 Y492.000 Z4.000
G1 X726.637 Y491.643 Z4.000
G1 X727.078 Y490.701 Z4.000
G1 X727.946 Y490.090 Z4.000
G1 X728.982 Y490.000 Z4.000
G1 X729.946 Y490.447 Z4.000
G1 X730.542 Y491.299 Z4.000
G1 X730.637 Y492.357 Z4.000
G1 X730.196 Y493.299 Z4.000
G1 X729.328 Y493.911 Z4.000
G1 X728.292 Y494.000 Z4.000
G1 X727.328 Y493.554 Z4.000
G1 X726.732 Y492.701 Z4.000
G1 X726.637 Y492.000 Z4.000
G0 X726.637 Y492.000 Z0.000
(shape postamble)
(shape preamble)
G0 X742.637 Y492.000 Z0.000
G1 X742.637 Y492.000 Z4.000
G1 X742.637 Y491.643 Z4.000
G1 X743.078 Y490.701 Z4.000
G1 X743.946 Y490.090 Z4.000
G1 X744.982 Y490.000 Z4.000
G1 X745.946 Y490.447 Z4.000
G1 X746.542 Y491.299 Z4.000
G1 X746.637 Y492.357 Z4.000
G1 X746.196 Y493.299 Z4.000
G1 X745.328 Y493.911 Z4.000
G1 X744.292 Y494.000 Z4.000
G1 X743.328 Y493.554 Z4.000
G1 X742.732 Y492.701 Z4.000
G1 X742.637 Y492.000 Z4.000
G0 X742.637 Y492.000 Z0.000
(shape postamble)
(shape preamble)
G0 X758.637 Y508.000 Z0.000
G1 X758.637 Y508.000 Z4.000
G1 X758.637 Y507.643 Z4.000
G1 X759.078 Y506.701 Z4.000
G1 X759.946 Y506.090 Z4.000
G1 X760.982 Y506.000 Z4.000
G1 X761.947 Y506.447 Z4.000
G1 X762.542 Y507.299 Z4.000
G1 X762.637 Y508.357 Z4.000
G1 X762.197 Y509.299 Z4.000
G1 X761.328 Y509.911 Z4.000
G1 X760.292 Y510.000 Z4.000
G1 X759.328 Y509.554 Z4.000
G1 X758.732 Y508.701 Z4.000
G1 X758.637 Y508.000 Z4.000
G0 X758.637 Y508.000 Z0.000
(shape postamble)
(shape preamble)
G0 X758.637 Y492.000 Z0.000
G1 X758.637 Y492.000 Z4.000
G1 X758.637 Y491.643 Z4.000
G1 X759.078 Y490.701 Z4.000
G1 X759.946 Y490.090 Z4.000
G1 X760.982 Y490.000 Z4.000
G1 X761.947 Y490.447 Z4.000
G1 X762.542 Y491.299 Z4.000
G1 X762.637 Y492.357 Z4.000
G1 X762.197 Y493.299 Z4.000
G1 X761.328 Y493.911 Z4.000
G1 X760.292 Y494.000 Z4.000
G1 X759.328 Y493.554 Z4.000
G1 X758.732 Y492.701 Z4.000
G1 X758.637 Y492.000 Z4.000
G0 X758.637 Y492.000 Z0.000
(shape postamble)
(shape preamble)
G0 X1042.724 Y551.379 Z0.000
G1 X1042.724 Y551.379 Z4.000
G1 X1042.724 Y470.480 Z4.000
G0 X1042.724 Y470.480 Z0.000
(shape postamble)
(shape preamble)
G0 X1186.545 Y551.379 Z0.000
G1 X1186.545 Y551.379 Z4.000
G1 X1186.545 Y505.906 Z4.000
G0 X1186.545 Y505.906 Z0.000
(shape postamble)
(shape preamble)
G0 X1069.690 Y551.379 Z0.000
G1 X1069.690 Y551.379 Z4.000
G1 X1069.690 Y429.237 Z4.000
G0 X1069.690 Y429.237 Z0.000
(shape postamble)
(shape preamble)
G0 X1107.760 Y579.931 Z0.000
G1 X1107.760 Y579.931 Z4.000
G1 X1107.760 Y449.330 Z4.000
G0 X1107.760 Y449.330 Z0.000
(shape postamble)
(shape preamble)
G0 X1149.532 Y551.379 Z0.000
G1 X1149.532 Y551.379 Z4.000
G1 X1149.532 Y429.237 Z4.000
G0 X1149.532 Y429.237 Z0.000
(shape postamble)
(shape preamble)
G0 X872.173 Y312.995 Z0.000
G1 X872.173 Y312.995 Z4.000
G1 X872.173 Y312.567 Z4.000
G1 X872.447 Y311.342 Z4.000
G1 X873.021 Y310.241 Z4.000
G1 X873.863 Y309.319 Z4.000
G1 X874.939 Y308.632 Z4.000
G1 X876.136 Y308.258 Z4.000
G1 X877.377 Y308.204 Z4.000
G1 X878.596 Y308.472 Z4.000
G1 X879.729 Y309.060 Z4.000
G1 X880.652 Y309.910 Z4.000
G1 X881.319 Y310.957 Z4.000
G1 X881.696 Y312.147 Z4.000
G1 X881.754 Y313.422 Z4.000
G1 X881.479 Y314.647 Z4.000
G1 X880.905 Y315.748 Z4.000
G1 X880.064 Y316.670 Z4.000
G1 X878.988 Y317.357 Z4.000
G1 X877.790 Y317.731 Z4.000
G1 X876.550 Y317.785 Z4.000
G1 X875.331 Y317.517 Z4.000
G1 X874.198 Y316.929 Z4.000
G1 X873.274 Y316.079 Z4.000
G1 X872.608 Y315.032 Z4.000
G1 X872.230 Y313.842 Z4.000
G1 X872.173 Y312.995 Z4.000
G0 X872.173 Y312.995 Z0.000
(shape postamble)

(postamble)
(home)
G0 0
G0 X0 Y0
