
(Created with svg2gcode_grbl)
(https://github.com/arcadeperfect/svg2gcode_grbl)


(forked from svg2gcode by visphat)
(https://github.com/vishpat/svg2gcode)


F4000

(shape preamble)

G0 X2063.384 Y182.033 Z0.000
G1 X2063.384 Y182.033 Z4.000
G1 X2037.984 Y182.033 Z4.000
G1 X2063.384 Y29.633 Z4.000
G1 X2088.784 Y182.033 Z4.000
G1 X2063.384 Y182.033 Z4.000
G0 X2063.384 Y182.033 Z0.000

(shape postamble)


(shape preamble)

G0 X2063.384 Y385.234 Z0.000
G1 X2063.384 Y385.234 Z4.000
G1 X2037.984 Y385.234 Z4.000
G1 X2063.384 Y232.833 Z4.000
G1 X2088.784 Y385.234 Z4.000
G1 X2063.384 Y385.234 Z4.000
G0 X2063.384 Y385.234 Z0.000

(shape postamble)


(shape preamble)

G0 X2063.384 Y588.434 Z0.000
G1 X2063.384 Y588.434 Z4.000
G1 X2037.984 Y588.434 Z4.000
G1 X2063.384 Y436.034 Z4.000
G1 X2088.784 Y588.434 Z4.000
G1 X2063.384 Y588.434 Z4.000
G0 X2063.384 Y588.434 Z0.000

(shape postamble)


(shape preamble)

G0 X2063.384 Y791.634 Z0.000
G1 X2063.384 Y791.634 Z4.000
G1 X2037.984 Y791.634 Z4.000
G1 X2063.384 Y639.234 Z4.000
G1 X2088.784 Y791.634 Z4.000
G1 X2063.384 Y791.634 Z4.000
G0 X2063.384 Y791.634 Z0.000

(shape postamble)


(shape preamble)

G0 X1961.784 Y385.234 Z0.000
G1 X1961.784 Y385.234 Z4.000
G1 X1936.384 Y385.234 Z4.000
G1 X1961.784 Y29.633 Z4.000
G1 X1987.184 Y385.234 Z4.000
G1 X1961.784 Y385.234 Z4.000
G0 X1961.784 Y385.234 Z0.000

(shape postamble)


(shape preamble)

G0 X1961.784 Y791.634 Z0.000
G1 X1961.784 Y791.634 Z4.000
G1 X1936.384 Y791.634 Z4.000
G1 X1961.784 Y436.034 Z4.000
G1 X1987.184 Y791.634 Z4.000
G1 X1961.784 Y791.634 Z4.000
G0 X1961.784 Y791.634 Z0.000

(shape postamble)


(shape preamble)

G0 X2060.391 Y616.827 Z0.000
G1 X2060.391 Y616.827 Z4.000
G1 X2059.137 Y613.820 Z4.000
G1 X2063.370 Y618.053 Z4.000
G1 X2067.603 Y613.820 Z4.000
G1 X2063.370 Y609.587 Z4.000
G1 X2059.137 Y613.820 Z4.000
G0 X2059.137 Y613.820 Z0.000

(shape postamble)


(shape preamble)

G0 X2060.391 Y820.027 Z0.000
G1 X2060.391 Y820.027 Z4.000
G1 X2059.138 Y817.019 Z4.000
G1 X2063.371 Y821.252 Z4.000
G1 X2067.605 Y817.019 Z4.000
G1 X2063.371 Y812.785 Z4.000
G1 X2059.138 Y817.019 Z4.000
G0 X2059.138 Y817.019 Z0.000

(shape postamble)


(shape preamble)

G0 X2060.391 Y1302.628 Z0.000
G1 X2060.391 Y1302.628 Z4.000
G1 X2059.141 Y1299.616 Z4.000
G1 X2063.375 Y1303.849 Z4.000
G1 X2067.608 Y1299.616 Z4.000
G1 X2063.375 Y1295.382 Z4.000
G1 X2059.141 Y1299.616 Z4.000
G0 X2059.141 Y1299.616 Z0.000

(shape postamble)


(shape preamble)

G0 X2060.391 Y1150.227 Z0.000
G1 X2060.391 Y1150.227 Z4.000
G1 X2059.140 Y1147.217 Z4.000
G1 X2063.374 Y1151.450 Z4.000
G1 X2067.607 Y1147.217 Z4.000
G1 X2063.374 Y1142.983 Z4.000
G1 X2059.140 Y1147.217 Z4.000
G0 X2059.140 Y1147.217 Z0.000

(shape postamble)


(shape preamble)

G0 X1958.791 Y1302.628 Z0.000
G1 X1958.791 Y1302.628 Z4.000
G1 X1957.542 Y1299.616 Z4.000
G1 X1961.775 Y1303.850 Z4.000
G1 X1966.009 Y1299.616 Z4.000
G1 X1961.775 Y1295.383 Z4.000
G1 X1957.542 Y1299.616 Z4.000
G0 X1957.542 Y1299.616 Z0.000

(shape postamble)


(shape preamble)

G0 X1958.791 Y1150.227 Z0.000
G1 X1958.791 Y1150.227 Z4.000
G1 X1957.541 Y1147.217 Z4.000
G1 X1961.774 Y1151.451 Z4.000
G1 X1966.008 Y1147.217 Z4.000
G1 X1961.774 Y1142.984 Z4.000
G1 X1957.541 Y1147.217 Z4.000
G0 X1957.541 Y1147.217 Z0.000

(shape postamble)


(shape preamble)

G0 X1857.191 Y1302.628 Z0.000
G1 X1857.191 Y1302.628 Z4.000
G1 X1855.943 Y1299.617 Z4.000
G1 X1860.176 Y1303.850 Z4.000
G1 X1864.409 Y1299.617 Z4.000
G1 X1860.176 Y1295.384 Z4.000
G1 X1855.943 Y1299.617 Z4.000
G0 X1855.943 Y1299.617 Z0.000

(shape postamble)


(shape preamble)

G0 X1857.191 Y1150.227 Z0.000
G1 X1857.191 Y1150.227 Z4.000
G1 X1855.942 Y1147.218 Z4.000
G1 X1860.175 Y1151.451 Z4.000
G1 X1864.408 Y1147.218 Z4.000
G1 X1860.175 Y1142.985 Z4.000
G1 X1855.942 Y1147.218 Z4.000
G0 X1855.942 Y1147.218 Z0.000

(shape postamble)


(shape preamble)

G0 X1755.591 Y1302.628 Z0.000
G1 X1755.591 Y1302.628 Z4.000
G1 X1754.343 Y1299.618 Z4.000
G1 X1758.577 Y1303.851 Z4.000
G1 X1762.810 Y1299.618 Z4.000
G1 X1758.577 Y1295.385 Z4.000
G1 X1754.343 Y1299.618 Z4.000
G0 X1754.343 Y1299.618 Z0.000

(shape postamble)


(shape preamble)

G0 X1755.591 Y1150.227 Z0.000
G1 X1755.591 Y1150.227 Z4.000
G1 X1754.342 Y1147.219 Z4.000
G1 X1758.576 Y1151.452 Z4.000
G1 X1762.809 Y1147.219 Z4.000
G1 X1758.576 Y1142.986 Z4.000
G1 X1754.342 Y1147.219 Z4.000
G0 X1754.342 Y1147.219 Z0.000

(shape postamble)


(shape preamble)

G0 X1653.991 Y1302.628 Z0.000
G1 X1653.991 Y1302.628 Z4.000
G1 X1652.744 Y1299.619 Z4.000
G1 X1656.977 Y1303.852 Z4.000
G1 X1661.211 Y1299.619 Z4.000
G1 X1656.977 Y1295.385 Z4.000
G1 X1652.744 Y1299.619 Z4.000
G0 X1652.744 Y1299.619 Z0.000

(shape postamble)


(shape preamble)

G0 X1653.991 Y1150.227 Z0.000
G1 X1653.991 Y1150.227 Z4.000
G1 X1652.743 Y1147.219 Z4.000
G1 X1656.976 Y1151.453 Z4.000
G1 X1661.210 Y1147.219 Z4.000
G1 X1656.976 Y1142.986 Z4.000
G1 X1652.743 Y1147.219 Z4.000
G0 X1652.743 Y1147.219 Z0.000

(shape postamble)


(shape preamble)

G0 X1552.391 Y1302.628 Z0.000
G1 X1552.391 Y1302.628 Z4.000
G1 X1551.145 Y1299.619 Z4.000
G1 X1555.378 Y1303.852 Z4.000
G1 X1559.611 Y1299.619 Z4.000
G1 X1555.378 Y1295.386 Z4.000
G1 X1551.145 Y1299.619 Z4.000
G0 X1551.145 Y1299.619 Z0.000

(shape postamble)


(shape preamble)

G0 X1552.391 Y1150.227 Z0.000
G1 X1552.391 Y1150.227 Z4.000
G1 X1551.144 Y1147.220 Z4.000
G1 X1555.377 Y1151.453 Z4.000
G1 X1559.610 Y1147.220 Z4.000
G1 X1555.377 Y1142.987 Z4.000
G1 X1551.144 Y1147.220 Z4.000
G0 X1551.144 Y1147.220 Z0.000

(shape postamble)


(shape preamble)

G0 X1450.791 Y1302.628 Z0.000
G1 X1450.791 Y1302.628 Z4.000
G1 X1449.545 Y1299.620 Z4.000
G1 X1453.779 Y1303.853 Z4.000
G1 X1458.012 Y1299.620 Z4.000
G1 X1453.779 Y1295.387 Z4.000
G1 X1449.545 Y1299.620 Z4.000
G0 X1449.545 Y1299.620 Z0.000

(shape postamble)


(shape preamble)

G0 X1450.791 Y1150.227 Z0.000
G1 X1450.791 Y1150.227 Z4.000
G1 X1449.544 Y1147.221 Z4.000
G1 X1453.777 Y1151.454 Z4.000
G1 X1458.011 Y1147.221 Z4.000
G1 X1453.777 Y1142.988 Z4.000
G1 X1449.544 Y1147.221 Z4.000
G0 X1449.544 Y1147.221 Z0.000

(shape postamble)


(shape preamble)

G0 X1349.191 Y1302.628 Z0.000
G1 X1349.191 Y1302.628 Z4.000
G1 X1347.946 Y1299.621 Z4.000
G1 X1352.179 Y1303.854 Z4.000
G1 X1356.412 Y1299.621 Z4.000
G1 X1352.179 Y1295.387 Z4.000
G1 X1347.946 Y1299.621 Z4.000
G0 X1347.946 Y1299.621 Z0.000

(shape postamble)


(shape preamble)

G0 X1349.191 Y1150.227 Z0.000
G1 X1349.191 Y1150.227 Z4.000
G1 X1347.945 Y1147.222 Z4.000
G1 X1352.178 Y1151.455 Z4.000
G1 X1356.411 Y1147.222 Z4.000
G1 X1352.178 Y1142.988 Z4.000
G1 X1347.945 Y1147.222 Z4.000
G0 X1347.945 Y1147.222 Z0.000

(shape postamble)


(shape preamble)

G0 X1247.590 Y1302.628 Z0.000
G1 X1247.590 Y1302.628 Z4.000
G1 X1246.346 Y1299.621 Z4.000
G1 X1250.580 Y1303.855 Z4.000
G1 X1254.813 Y1299.621 Z4.000
G1 X1250.580 Y1295.388 Z4.000
G1 X1246.346 Y1299.621 Z4.000
G0 X1246.346 Y1299.621 Z0.000

(shape postamble)


(shape preamble)

G0 X1247.590 Y1150.227 Z0.000
G1 X1247.590 Y1150.227 Z4.000
G1 X1246.345 Y1147.222 Z4.000
G1 X1250.579 Y1151.455 Z4.000
G1 X1254.812 Y1147.222 Z4.000
G1 X1250.579 Y1142.989 Z4.000
G1 X1246.345 Y1147.222 Z4.000
G0 X1246.345 Y1147.222 Z0.000

(shape postamble)


(shape preamble)

G0 X1145.990 Y1302.628 Z0.000
G1 X1145.990 Y1302.628 Z4.000
G1 X1144.747 Y1299.622 Z4.000
G1 X1148.980 Y1303.855 Z4.000
G1 X1153.214 Y1299.622 Z4.000
G1 X1148.980 Y1295.389 Z4.000
G1 X1144.747 Y1299.622 Z4.000
G0 X1144.747 Y1299.622 Z0.000

(shape postamble)


(shape preamble)

G0 X1145.990 Y1150.227 Z0.000
G1 X1145.990 Y1150.227 Z4.000
G1 X1144.746 Y1147.223 Z4.000
G1 X1148.979 Y1151.456 Z4.000
G1 X1153.213 Y1147.223 Z4.000
G1 X1148.979 Y1142.990 Z4.000
G1 X1144.746 Y1147.223 Z4.000
G0 X1144.746 Y1147.223 Z0.000

(shape postamble)


(shape preamble)

G0 X1958.791 Y820.027 Z0.000
G1 X1958.791 Y820.027 Z4.000
G1 X1957.539 Y817.019 Z4.000
G1 X1961.772 Y821.253 Z4.000
G1 X1966.005 Y817.019 Z4.000
G1 X1961.772 Y812.786 Z4.000
G1 X1957.539 Y817.019 Z4.000
G0 X1957.539 Y817.019 Z0.000

(shape postamble)


(shape preamble)

G0 X1857.191 Y820.027 Z0.000
G1 X1857.191 Y820.027 Z4.000
G1 X1855.939 Y817.020 Z4.000
G1 X1860.173 Y821.253 Z4.000
G1 X1864.406 Y817.020 Z4.000
G1 X1860.173 Y812.787 Z4.000
G1 X1855.939 Y817.020 Z4.000
G0 X1855.939 Y817.020 Z0.000

(shape postamble)


(shape preamble)

G0 X2060.391 Y413.627 Z0.000
G1 X2060.391 Y413.627 Z4.000
G1 X2059.135 Y410.621 Z4.000
G1 X2063.369 Y414.855 Z4.000
G1 X2067.602 Y410.621 Z4.000
G1 X2063.369 Y406.388 Z4.000
G1 X2059.135 Y410.621 Z4.000
G0 X2059.135 Y410.621 Z0.000

(shape postamble)


(shape preamble)

G0 X1958.791 Y413.627 Z0.000
G1 X1958.791 Y413.627 Z4.000
G1 X1957.536 Y410.622 Z4.000
G1 X1961.769 Y414.855 Z4.000
G1 X1966.003 Y410.622 Z4.000
G1 X1961.769 Y406.389 Z4.000
G1 X1957.536 Y410.622 Z4.000
G0 X1957.536 Y410.622 Z0.000

(shape postamble)


(shape preamble)

G0 X2060.391 Y210.427 Z0.000
G1 X2060.391 Y210.427 Z4.000
G1 X2059.134 Y207.423 Z4.000
G1 X2063.367 Y211.656 Z4.000
G1 X2067.601 Y207.423 Z4.000
G1 X2063.367 Y203.189 Z4.000
G1 X2059.134 Y207.423 Z4.000
G0 X2059.134 Y207.423 Z0.000

(shape postamble)


(shape preamble)

G0 X2060.391 Y7.227 Z0.000
G1 X2060.391 Y7.227 Z4.000
G1 X2059.133 Y4.224 Z4.000
G1 X2063.366 Y8.457 Z4.000
G1 X2067.599 Y4.224 Z4.000
G1 X2063.366 Y-0.010 Z4.000
G1 X2059.133 Y4.224 Z4.000
G0 X2059.133 Y4.224 Z0.000

(shape postamble)


(shape preamble)

G0 X1860.184 Y182.033 Z0.000
G1 X1860.184 Y182.033 Z4.000
G1 X1847.484 Y182.033 Z4.000
G1 X1860.184 Y29.633 Z4.000
G1 X1872.884 Y182.033 Z4.000
G1 X1860.184 Y182.033 Z4.000
G0 X1860.184 Y182.033 Z0.000

(shape postamble)


(shape preamble)

G0 X1860.184 Y385.234 Z0.000
G1 X1860.184 Y385.234 Z4.000
G1 X1847.484 Y385.234 Z4.000
G1 X1860.184 Y232.833 Z4.000
G1 X1872.884 Y385.234 Z4.000
G1 X1860.184 Y385.234 Z4.000
G0 X1860.184 Y385.234 Z0.000

(shape postamble)


(shape preamble)

G0 X1860.184 Y588.434 Z0.000
G1 X1860.184 Y588.434 Z4.000
G1 X1847.484 Y588.434 Z4.000
G1 X1860.184 Y436.034 Z4.000
G1 X1872.884 Y588.434 Z4.000
G1 X1860.184 Y588.434 Z4.000
G0 X1860.184 Y588.434 Z0.000

(shape postamble)


(shape preamble)

G0 X1860.184 Y791.634 Z0.000
G1 X1860.184 Y791.634 Z4.000
G1 X1847.484 Y791.634 Z4.000
G1 X1860.184 Y639.234 Z4.000
G1 X1872.884 Y791.634 Z4.000
G1 X1860.184 Y791.634 Z4.000
G0 X1860.184 Y791.634 Z0.000

(shape postamble)


(shape preamble)

G0 X2063.384 Y994.834 Z0.000
G1 X2063.384 Y994.834 Z4.000
G1 X2037.984 Y994.834 Z4.000
G1 X2063.384 Y842.434 Z4.000
G1 X2088.784 Y994.834 Z4.000
G1 X2063.384 Y994.834 Z4.000
G0 X2063.384 Y994.834 Z0.000

(shape postamble)


(shape preamble)

G0 X2060.391 Y1023.227 Z0.000
G1 X2060.391 Y1023.227 Z4.000
G1 X2059.140 Y1020.218 Z4.000
G1 X2063.373 Y1024.451 Z4.000
G1 X2067.606 Y1020.218 Z4.000
G1 X2063.373 Y1015.984 Z4.000
G1 X2059.140 Y1020.218 Z4.000
G0 X2059.140 Y1020.218 Z0.000

(shape postamble)


(shape preamble)

G0 X1857.191 Y1023.227 Z0.000
G1 X1857.191 Y1023.227 Z4.000
G1 X1855.941 Y1020.219 Z4.000
G1 X1860.174 Y1024.452 Z4.000
G1 X1864.407 Y1020.219 Z4.000
G1 X1860.174 Y1015.986 Z4.000
G1 X1855.941 Y1020.219 Z4.000
G0 X1855.941 Y1020.219 Z0.000

(shape postamble)


(shape preamble)

G0 X1860.184 Y994.834 Z0.000
G1 X1860.184 Y994.834 Z4.000
G1 X1847.484 Y994.834 Z4.000
G1 X1860.184 Y842.434 Z4.000
G1 X1872.884 Y994.834 Z4.000
G1 X1860.184 Y994.834 Z4.000
G0 X1860.184 Y994.834 Z0.000

(shape postamble)


(shape preamble)

G0 X1958.791 Y1023.227 Z0.000
G1 X1958.791 Y1023.227 Z4.000
G1 X1957.540 Y1020.218 Z4.000
G1 X1961.773 Y1024.452 Z4.000
G1 X1966.007 Y1020.218 Z4.000
G1 X1961.773 Y1015.985 Z4.000
G1 X1957.540 Y1020.218 Z4.000
G0 X1957.540 Y1020.218 Z0.000

(shape postamble)


(shape preamble)

G0 X1961.784 Y994.834 Z0.000
G1 X1961.784 Y994.834 Z4.000
G1 X1949.084 Y994.834 Z4.000
G1 X1961.784 Y842.434 Z4.000
G1 X1974.484 Y994.834 Z4.000
G1 X1961.784 Y994.834 Z4.000
G0 X1961.784 Y994.834 Z0.000

(shape postamble)


(shape preamble)

G0 X1857.191 Y616.827 Z0.000
G1 X1857.191 Y616.827 Z4.000
G1 X1855.938 Y613.821 Z4.000
G1 X1860.171 Y618.055 Z4.000
G1 X1864.405 Y613.821 Z4.000
G1 X1860.171 Y609.588 Z4.000
G1 X1855.938 Y613.821 Z4.000
G0 X1855.938 Y613.821 Z0.000

(shape postamble)


(shape preamble)

G0 X1755.591 Y794.627 Z0.000
G1 X1755.591 Y794.627 Z4.000
G1 X1754.340 Y791.621 Z4.000
G1 X1758.573 Y795.854 Z4.000
G1 X1762.806 Y791.621 Z4.000
G1 X1758.573 Y787.388 Z4.000
G1 X1754.340 Y791.621 Z4.000
G0 X1754.340 Y791.621 Z0.000

(shape postamble)


(shape preamble)

G0 X1755.591 Y667.627 Z0.000
G1 X1755.591 Y667.627 Z4.000
G1 X1754.339 Y664.622 Z4.000
G1 X1758.572 Y668.855 Z4.000
G1 X1762.806 Y664.622 Z4.000
G1 X1758.572 Y660.388 Z4.000
G1 X1754.339 Y664.622 Z4.000
G0 X1754.339 Y664.622 Z0.000

(shape postamble)


(shape preamble)

G0 X1755.591 Y540.627 Z0.000
G1 X1755.591 Y540.627 Z4.000
G1 X1754.338 Y537.623 Z4.000
G1 X1758.571 Y541.856 Z4.000
G1 X1762.805 Y537.623 Z4.000
G1 X1758.571 Y533.389 Z4.000
G1 X1754.338 Y537.623 Z4.000
G0 X1754.338 Y537.623 Z0.000

(shape postamble)


(shape preamble)

G0 X1755.591 Y413.627 Z0.000
G1 X1755.591 Y413.627 Z4.000
G1 X1754.337 Y410.623 Z4.000
G1 X1758.571 Y414.857 Z4.000
G1 X1762.804 Y410.623 Z4.000
G1 X1758.571 Y406.390 Z4.000
G1 X1754.337 Y410.623 Z4.000
G0 X1754.337 Y410.623 Z0.000

(shape postamble)


(shape preamble)

G0 X1755.591 Y286.627 Z0.000
G1 X1755.591 Y286.627 Z4.000
G1 X1754.336 Y283.624 Z4.000
G1 X1758.570 Y287.857 Z4.000
G1 X1762.803 Y283.624 Z4.000
G1 X1758.570 Y279.391 Z4.000
G1 X1754.336 Y283.624 Z4.000
G0 X1754.336 Y283.624 Z0.000

(shape postamble)


(shape preamble)

G0 X1755.591 Y159.627 Z0.000
G1 X1755.591 Y159.627 Z4.000
G1 X1754.336 Y156.625 Z4.000
G1 X1758.569 Y160.858 Z4.000
G1 X1762.802 Y156.625 Z4.000
G1 X1758.569 Y152.392 Z4.000
G1 X1754.336 Y156.625 Z4.000
G0 X1754.336 Y156.625 Z0.000

(shape postamble)


(shape preamble)

G0 X1755.591 Y32.627 Z0.000
G1 X1755.591 Y32.627 Z4.000
G1 X1754.335 Y29.626 Z4.000
G1 X1758.568 Y33.859 Z4.000
G1 X1762.801 Y29.626 Z4.000
G1 X1758.568 Y25.392 Z4.000
G1 X1754.335 Y29.626 Z4.000
G0 X1754.335 Y29.626 Z0.000

(shape postamble)


(shape preamble)

G0 X1857.191 Y413.627 Z0.000
G1 X1857.191 Y413.627 Z4.000
G1 X1855.937 Y410.623 Z4.000
G1 X1860.170 Y414.856 Z4.000
G1 X1864.403 Y410.623 Z4.000
G1 X1860.170 Y406.389 Z4.000
G1 X1855.937 Y410.623 Z4.000
G0 X1855.937 Y410.623 Z0.000

(shape postamble)


(shape preamble)

G0 X1857.191 Y210.427 Z0.000
G1 X1857.191 Y210.427 Z4.000
G1 X1855.935 Y207.424 Z4.000
G1 X1860.169 Y211.657 Z4.000
G1 X1864.402 Y207.424 Z4.000
G1 X1860.169 Y203.191 Z4.000
G1 X1855.935 Y207.424 Z4.000
G0 X1855.935 Y207.424 Z0.000

(shape postamble)


(shape preamble)

G0 X1857.191 Y7.227 Z0.000
G1 X1857.191 Y7.227 Z4.000
G1 X1855.934 Y4.225 Z4.000
G1 X1860.167 Y8.458 Z4.000
G1 X1864.401 Y4.225 Z4.000
G1 X1860.167 Y-0.008 Z4.000
G1 X1855.934 Y4.225 Z4.000
G0 X1855.934 Y4.225 Z0.000

(shape postamble)


(shape preamble)

G0 X1958.791 Y7.227 Z0.000
G1 X1958.791 Y7.227 Z4.000
G1 X1957.533 Y4.224 Z4.000
G1 X1961.767 Y8.458 Z4.000
G1 X1966.000 Y4.224 Z4.000
G1 X1961.767 Y-0.009 Z4.000
G1 X1957.533 Y4.224 Z4.000
G0 X1957.533 Y4.224 Z0.000

(shape postamble)


(shape preamble)

G0 X1752.234 Y766.234 Z0.000
G1 X1752.234 Y766.234 Z4.000
G1 X1764.934 Y766.234 Z4.000
G1 X1764.934 Y690.034 Z4.000
G1 X1752.234 Y690.034 Z4.000
G1 X1752.234 Y766.234 Z4.000
G0 X1752.234 Y766.234 Z0.000

(shape postamble)


(shape preamble)

G0 X1752.234 Y639.234 Z0.000
G1 X1752.234 Y639.234 Z4.000
G1 X1764.934 Y639.234 Z4.000
G1 X1764.934 Y563.034 Z4.000
G1 X1752.234 Y563.034 Z4.000
G1 X1752.234 Y639.234 Z4.000
G0 X1752.234 Y639.234 Z0.000

(shape postamble)


(shape preamble)

G0 X1752.234 Y512.234 Z0.000
G1 X1752.234 Y512.234 Z4.000
G1 X1764.934 Y512.234 Z4.000
G1 X1764.934 Y436.034 Z4.000
G1 X1752.234 Y436.034 Z4.000
G1 X1752.234 Y512.234 Z4.000
G0 X1752.234 Y512.234 Z0.000

(shape postamble)


(shape preamble)

G0 X1752.234 Y385.234 Z0.000
G1 X1752.234 Y385.234 Z4.000
G1 X1764.934 Y385.234 Z4.000
G1 X1764.934 Y309.034 Z4.000
G1 X1752.234 Y309.034 Z4.000
G1 X1752.234 Y385.234 Z4.000
G0 X1752.234 Y385.234 Z0.000

(shape postamble)


(shape preamble)

G0 X1752.234 Y258.233 Z0.000
G1 X1752.234 Y258.233 Z4.000
G1 X1764.934 Y258.233 Z4.000
G1 X1764.934 Y182.033 Z4.000
G1 X1752.234 Y182.033 Z4.000
G1 X1752.234 Y258.233 Z4.000
G0 X1752.234 Y258.233 Z0.000

(shape postamble)


(shape preamble)

G0 X1752.234 Y131.233 Z0.000
G1 X1752.234 Y131.233 Z4.000
G1 X1764.934 Y131.233 Z4.000
G1 X1764.934 Y55.033 Z4.000
G1 X1752.234 Y55.033 Z4.000
G1 X1752.234 Y131.233 Z4.000
G0 X1752.234 Y131.233 Z0.000

(shape postamble)


(shape preamble)

G0 X1450.791 Y32.627 Z0.000
G1 X1450.791 Y32.627 Z4.000
G1 X1449.537 Y29.628 Z4.000
G1 X1453.770 Y33.861 Z4.000
G1 X1458.003 Y29.628 Z4.000
G1 X1453.770 Y25.394 Z4.000
G1 X1449.537 Y29.628 Z4.000
G0 X1449.537 Y29.628 Z0.000

(shape postamble)


(shape preamble)

G0 X1447.434 Y105.833 Z0.000
G1 X1447.434 Y105.833 Z4.000
G1 X1460.134 Y105.833 Z4.000
G1 X1460.134 Y55.033 Z4.000
G1 X1447.434 Y55.033 Z4.000
G1 X1447.434 Y105.833 Z4.000
G0 X1447.434 Y105.833 Z0.000

(shape postamble)


(shape preamble)

G0 X1653.991 Y794.627 Z0.000
G1 X1653.991 Y794.627 Z4.000
G1 X1652.740 Y791.622 Z4.000
G1 X1656.974 Y795.855 Z4.000
G1 X1661.207 Y791.622 Z4.000
G1 X1656.974 Y787.388 Z4.000
G1 X1652.740 Y791.622 Z4.000
G0 X1652.740 Y791.622 Z0.000

(shape postamble)


(shape preamble)

G0 X1653.991 Y667.627 Z0.000
G1 X1653.991 Y667.627 Z4.000
G1 X1652.740 Y664.622 Z4.000
G1 X1656.973 Y668.856 Z4.000
G1 X1661.206 Y664.622 Z4.000
G1 X1656.973 Y660.389 Z4.000
G1 X1652.740 Y664.622 Z4.000
G0 X1652.740 Y664.622 Z0.000

(shape postamble)


(shape preamble)

G0 X1653.991 Y540.627 Z0.000
G1 X1653.991 Y540.627 Z4.000
G1 X1652.739 Y537.623 Z4.000
G1 X1656.972 Y541.857 Z4.000
G1 X1661.205 Y537.623 Z4.000
G1 X1656.972 Y533.390 Z4.000
G1 X1652.739 Y537.623 Z4.000
G0 X1652.739 Y537.623 Z0.000

(shape postamble)


(shape preamble)

G0 X1653.991 Y413.627 Z0.000
G1 X1653.991 Y413.627 Z4.000
G1 X1652.738 Y410.624 Z4.000
G1 X1656.971 Y414.857 Z4.000
G1 X1661.204 Y410.624 Z4.000
G1 X1656.971 Y406.391 Z4.000
G1 X1652.738 Y410.624 Z4.000
G0 X1652.738 Y410.624 Z0.000

(shape postamble)


(shape preamble)

G0 X1653.991 Y286.627 Z0.000
G1 X1653.991 Y286.627 Z4.000
G1 X1652.737 Y283.625 Z4.000
G1 X1656.970 Y287.858 Z4.000
G1 X1661.204 Y283.625 Z4.000
G1 X1656.970 Y279.391 Z4.000
G1 X1652.737 Y283.625 Z4.000
G0 X1652.737 Y283.625 Z0.000

(shape postamble)


(shape preamble)

G0 X1653.991 Y159.627 Z0.000
G1 X1653.991 Y159.627 Z4.000
G1 X1652.736 Y156.626 Z4.000
G1 X1656.969 Y160.859 Z4.000
G1 X1661.203 Y156.626 Z4.000
G1 X1656.969 Y152.392 Z4.000
G1 X1652.736 Y156.626 Z4.000
G0 X1652.736 Y156.626 Z0.000

(shape postamble)


(shape preamble)

G0 X1653.991 Y32.627 Z0.000
G1 X1653.991 Y32.627 Z4.000
G1 X1652.735 Y29.626 Z4.000
G1 X1656.969 Y33.860 Z4.000
G1 X1661.202 Y29.626 Z4.000
G1 X1656.969 Y25.393 Z4.000
G1 X1652.735 Y29.626 Z4.000
G0 X1652.735 Y29.626 Z0.000

(shape postamble)


(shape preamble)

G0 X1652.222 Y766.234 Z0.000
G1 X1652.222 Y766.234 Z4.000
G1 X1661.747 Y766.234 Z4.000
G1 X1661.747 Y690.034 Z4.000
G1 X1652.222 Y690.034 Z4.000
G1 X1652.222 Y766.234 Z4.000
G0 X1652.222 Y766.234 Z0.000

(shape postamble)


(shape preamble)

G0 X1755.591 Y947.027 Z0.000
G1 X1755.591 Y947.027 Z4.000
G1 X1754.341 Y944.020 Z4.000
G1 X1758.574 Y948.253 Z4.000
G1 X1762.807 Y944.020 Z4.000
G1 X1758.574 Y939.787 Z4.000
G1 X1754.341 Y944.020 Z4.000
G0 X1754.341 Y944.020 Z0.000

(shape postamble)


(shape preamble)

G0 X1752.234 Y918.634 Z0.000
G1 X1752.234 Y918.634 Z4.000
G1 X1764.934 Y918.634 Z4.000
G1 X1764.934 Y842.434 Z4.000
G1 X1752.234 Y842.434 Z4.000
G1 X1752.234 Y918.634 Z4.000
G0 X1752.234 Y918.634 Z0.000

(shape postamble)


(shape preamble)

G0 X1653.991 Y947.027 Z0.000
G1 X1653.991 Y947.027 Z4.000
G1 X1652.742 Y944.021 Z4.000
G1 X1656.975 Y948.254 Z4.000
G1 X1661.208 Y944.021 Z4.000
G1 X1656.975 Y939.787 Z4.000
G1 X1652.742 Y944.021 Z4.000
G0 X1652.742 Y944.021 Z0.000

(shape postamble)


(shape preamble)

G0 X1652.222 Y918.634 Z0.000
G1 X1652.222 Y918.634 Z4.000
G1 X1661.747 Y918.634 Z4.000
G1 X1661.747 Y842.434 Z4.000
G1 X1652.222 Y842.434 Z4.000
G1 X1652.222 Y918.634 Z4.000
G0 X1652.222 Y918.634 Z0.000

(shape postamble)


(shape preamble)

G0 X1755.591 Y1099.427 Z0.000
G1 X1755.591 Y1099.427 Z4.000
G1 X1754.342 Y1096.419 Z4.000
G1 X1758.575 Y1100.652 Z4.000
G1 X1762.809 Y1096.419 Z4.000
G1 X1758.575 Y1092.186 Z4.000
G1 X1754.342 Y1096.419 Z4.000
G0 X1754.342 Y1096.419 Z0.000

(shape postamble)


(shape preamble)

G0 X1752.234 Y1071.034 Z0.000
G1 X1752.234 Y1071.034 Z4.000
G1 X1764.934 Y1071.034 Z4.000
G1 X1764.934 Y994.834 Z4.000
G1 X1752.234 Y994.834 Z4.000
G1 X1752.234 Y1071.034 Z4.000
G0 X1752.234 Y1071.034 Z0.000

(shape postamble)


(shape preamble)

G0 X1653.991 Y1099.427 Z0.000
G1 X1653.991 Y1099.427 Z4.000
G1 X1652.743 Y1096.420 Z4.000
G1 X1656.976 Y1100.653 Z4.000
G1 X1661.209 Y1096.420 Z4.000
G1 X1656.976 Y1092.186 Z4.000
G1 X1652.743 Y1096.420 Z4.000
G0 X1652.743 Y1096.420 Z0.000

(shape postamble)


(shape preamble)

G0 X1652.222 Y1071.034 Z0.000
G1 X1652.222 Y1071.034 Z4.000
G1 X1661.747 Y1071.034 Z4.000
G1 X1661.747 Y994.834 Z4.000
G1 X1652.222 Y994.834 Z4.000
G1 X1652.222 Y1071.034 Z4.000
G0 X1652.222 Y1071.034 Z0.000

(shape postamble)


(shape preamble)

G0 X1652.222 Y639.234 Z0.000
G1 X1652.222 Y639.234 Z4.000
G1 X1661.747 Y639.234 Z4.000
G1 X1661.747 Y563.034 Z4.000
G1 X1652.222 Y563.034 Z4.000
G1 X1652.222 Y639.234 Z4.000
G0 X1652.222 Y639.234 Z0.000

(shape postamble)


(shape preamble)

G0 X1652.222 Y512.234 Z0.000
G1 X1652.222 Y512.234 Z4.000
G1 X1661.747 Y512.234 Z4.000
G1 X1661.747 Y436.034 Z4.000
G1 X1652.222 Y436.034 Z4.000
G1 X1652.222 Y512.234 Z4.000
G0 X1652.222 Y512.234 Z0.000

(shape postamble)


(shape preamble)

G0 X1652.222 Y385.234 Z0.000
G1 X1652.222 Y385.234 Z4.000
G1 X1661.747 Y385.234 Z4.000
G1 X1661.747 Y309.034 Z4.000
G1 X1652.222 Y309.034 Z4.000
G1 X1652.222 Y385.234 Z4.000
G0 X1652.222 Y385.234 Z0.000

(shape postamble)


(shape preamble)

G0 X1652.222 Y258.233 Z0.000
G1 X1652.222 Y258.233 Z4.000
G1 X1661.747 Y258.233 Z4.000
G1 X1661.747 Y182.033 Z4.000
G1 X1652.222 Y182.033 Z4.000
G1 X1652.222 Y258.233 Z4.000
G0 X1652.222 Y258.233 Z0.000

(shape postamble)


(shape preamble)

G0 X1652.222 Y131.233 Z0.000
G1 X1652.222 Y131.233 Z4.000
G1 X1661.747 Y131.233 Z4.000
G1 X1661.747 Y55.033 Z4.000
G1 X1652.222 Y55.033 Z4.000
G1 X1652.222 Y131.233 Z4.000
G0 X1652.222 Y131.233 Z0.000

(shape postamble)


(shape preamble)

G0 X1126.067 Y1259.468 Z0.000
G1 X1126.067 Y1259.468 Z4.000
G1 X1126.067 Y1260.298 Z4.000
G1 X1126.152 Y1262.723 Z4.000
G1 X1126.367 Y1265.064 Z4.000
G1 X1126.745 Y1267.314 Z4.000
G1 X1127.216 Y1269.109 Z4.000
G1 X1127.565 Y1270.154 Z4.000
G1 X1127.974 Y1271.172 Z4.000
G1 X1128.446 Y1272.161 Z4.000
G1 X1128.984 Y1273.122 Z4.000
G1 X1129.594 Y1274.053 Z4.000
G1 X1130.278 Y1274.952 Z4.000
G1 X1131.040 Y1275.820 Z4.000
G1 X1131.974 Y1276.764 Z4.000
G1 X1133.149 Y1277.803 Z4.000
G1 X1134.370 Y1278.708 Z4.000
G1 X1135.627 Y1279.491 Z4.000
G1 X1136.906 Y1280.159 Z4.000
G1 X1138.196 Y1280.722 Z4.000
G1 X1139.484 Y1281.188 Z4.000
G1 X1140.760 Y1281.568 Z4.000
G1 X1142.425 Y1281.965 Z4.000
G1 X1144.771 Y1282.326 Z4.000
G1 X1146.855 Y1282.495 Z4.000
G1 X1148.581 Y1282.543 Z4.000
G1 X1150.159 Y1282.543 Z4.000
G1 X1152.155 Y1282.461 Z4.000
G1 X1154.025 Y1282.286 Z4.000
G1 X1155.773 Y1282.023 Z4.000
G1 X1157.403 Y1281.676 Z4.000
G1 X1158.919 Y1281.252 Z4.000
G1 X1160.326 Y1280.754 Z4.000
G1 X1161.627 Y1280.188 Z4.000
G1 X1162.827 Y1279.559 Z4.000
G1 X1163.930 Y1278.872 Z4.000
G1 X1164.939 Y1278.132 Z4.000
G1 X1165.860 Y1277.344 Z4.000
G1 X1166.695 Y1276.513 Z4.000
G1 X1167.450 Y1275.644 Z4.000
G1 X1168.128 Y1274.742 Z4.000
G1 X1168.733 Y1273.812 Z4.000
G1 X1169.270 Y1272.860 Z4.000
G1 X1169.743 Y1271.890 Z4.000
G1 X1170.289 Y1270.579 Z4.000
G1 X1170.914 Y1268.592 Z4.000
G1 X1171.352 Y1266.621 Z4.000
G1 X1171.637 Y1264.707 Z4.000
G1 X1171.802 Y1262.890 Z4.000
G1 X1171.900 Y1260.659 Z4.000
G1 X1171.900 Y1258.836 Z4.000
G1 X1171.900 Y1192.517 Z4.000
G1 X1171.833 Y1189.450 Z4.000
G1 X1171.699 Y1187.470 Z4.000
G1 X1171.453 Y1185.417 Z4.000
G1 X1171.061 Y1183.327 Z4.000
G1 X1170.490 Y1181.237 Z4.000
G1 X1169.844 Y1179.524 Z4.000
G1 X1169.383 Y1178.517 Z4.000
G1 X1168.857 Y1177.531 Z4.000
G1 X1168.262 Y1176.572 Z4.000
G1 X1167.595 Y1175.643 Z4.000
G1 X1166.851 Y1174.749 Z4.000
G1 X1166.026 Y1173.895 Z4.000
G1 X1165.115 Y1173.086 Z4.000
G1 X1164.115 Y1172.326 Z4.000
G1 X1163.021 Y1171.619 Z4.000
G1 X1161.830 Y1170.971 Z4.000
G1 X1160.536 Y1170.386 Z4.000
G1 X1159.136 Y1169.868 Z4.000
G1 X1157.625 Y1169.422 Z4.000
G1 X1156.000 Y1169.053 Z4.000
G1 X1154.256 Y1168.765 Z4.000
G1 X1152.388 Y1168.563 Z4.000
G1 X1150.394 Y1168.452 Z4.000
G1 X1148.268 Y1168.435 Z4.000
G1 X1146.230 Y1168.512 Z4.000
G1 X1144.321 Y1168.677 Z4.000
G1 X1142.536 Y1168.926 Z4.000
G1 X1140.871 Y1169.256 Z4.000
G1 X1139.323 Y1169.663 Z4.000
G1 X1137.886 Y1170.143 Z4.000
G1 X1136.558 Y1170.692 Z4.000
G1 X1135.332 Y1171.305 Z4.000
G1 X1134.206 Y1171.980 Z4.000
G1 X1133.176 Y1172.712 Z4.000
G1 X1132.236 Y1173.498 Z4.000
G1 X1131.382 Y1174.334 Z4.000
G1 X1130.612 Y1175.215 Z4.000
G1 X1129.919 Y1176.137 Z4.000
G1 X1129.301 Y1177.098 Z4.000
G1 X1128.753 Y1178.093 Z4.000
G1 X1128.270 Y1179.118 Z4.000
G1 X1127.849 Y1180.170 Z4.000
G1 X1127.486 Y1181.243 Z4.000
G1 X1127.074 Y1182.701 Z4.000
G1 X1126.627 Y1184.934 Z4.000
G1 X1126.336 Y1187.189 Z4.000
G1 X1126.168 Y1189.436 Z4.000
G1 X1126.067 Y1192.376 Z4.000
G1 X1126.067 Y1195.145 Z4.000
G1 X1126.067 Y1259.468 Z4.000
G1 X1126.067 Y1259.468 Z4.000
G0 X1126.067 Y1259.468 Z0.000

(shape postamble)


(shape preamble)

G0 X1158.308 Y1259.942 Z0.000
G1 X1158.308 Y1259.942 Z4.000
G1 X1158.308 Y1260.535 Z4.000
G1 X1158.262 Y1262.461 Z4.000
G1 X1158.104 Y1264.128 Z4.000
G1 X1157.938 Y1265.124 Z4.000
G1 X1157.699 Y1266.101 Z4.000
G1 X1157.377 Y1267.045 Z4.000
G1 X1156.958 Y1267.943 Z4.000
G1 X1156.428 Y1268.782 Z4.000
G1 X1155.776 Y1269.545 Z4.000
G1 X1154.989 Y1270.221 Z4.000
G1 X1154.054 Y1270.796 Z4.000
G1 X1152.958 Y1271.254 Z4.000
G1 X1151.689 Y1271.583 Z4.000
G1 X1150.233 Y1271.768 Z4.000
G1 X1148.549 Y1271.796 Z4.000
G1 X1146.952 Y1271.662 Z4.000
G1 X1145.558 Y1271.385 Z4.000
G1 X1144.354 Y1270.979 Z4.000
G1 X1143.326 Y1270.462 Z4.000
G1 X1142.460 Y1269.851 Z4.000
G1 X1141.743 Y1269.162 Z4.000
G1 X1141.159 Y1268.412 Z4.000
G1 X1140.696 Y1267.618 Z4.000
G1 X1140.340 Y1266.795 Z4.000
G1 X1140.076 Y1265.962 Z4.000
G1 X1139.890 Y1265.134 Z4.000
G1 X1139.733 Y1264.062 Z4.000
G1 X1139.659 Y1262.617 Z4.000
G1 X1139.659 Y1261.839 Z4.000
G1 X1139.659 Y1190.324 Z4.000
G1 X1139.695 Y1188.526 Z4.000
G1 X1139.838 Y1186.971 Z4.000
G1 X1139.995 Y1186.042 Z4.000
G1 X1140.223 Y1185.130 Z4.000
G1 X1140.536 Y1184.248 Z4.000
G1 X1140.948 Y1183.410 Z4.000
G1 X1141.472 Y1182.628 Z4.000
G1 X1142.121 Y1181.915 Z4.000
G1 X1142.908 Y1181.284 Z4.000
G1 X1143.848 Y1180.748 Z4.000
G1 X1144.954 Y1180.320 Z4.000
G1 X1146.239 Y1180.013 Z4.000
G1 X1147.716 Y1179.840 Z4.000
G1 X1149.418 Y1179.814 Z4.000
G1 X1151.016 Y1179.948 Z4.000
G1 X1152.409 Y1180.226 Z4.000
G1 X1153.613 Y1180.632 Z4.000
G1 X1154.641 Y1181.151 Z4.000
G1 X1155.507 Y1181.765 Z4.000
G1 X1156.225 Y1182.458 Z4.000
G1 X1156.808 Y1183.213 Z4.000
G1 X1157.271 Y1184.015 Z4.000
G1 X1157.628 Y1184.846 Z4.000
G1 X1157.892 Y1185.691 Z4.000
G1 X1158.077 Y1186.532 Z4.000
G1 X1158.234 Y1187.626 Z4.000
G1 X1158.308 Y1189.114 Z4.000
G1 X1158.308 Y1189.929 Z4.000
G1 X1158.308 Y1259.942 Z4.000
G0 X1158.308 Y1259.942 Z0.000

(shape postamble)


(shape preamble)

G0 X1237.387 Y1264.684 Z0.000
G1 X1237.387 Y1264.684 Z4.000
G1 X1237.950 Y1264.743 Z4.000
G1 X1239.569 Y1264.993 Z4.000
G1 X1241.103 Y1265.332 Z4.000
G1 X1242.554 Y1265.763 Z4.000
G1 X1243.924 Y1266.290 Z4.000
G1 X1245.212 Y1266.914 Z4.000
G1 X1246.420 Y1267.640 Z4.000
G1 X1247.548 Y1268.470 Z4.000
G1 X1248.598 Y1269.408 Z4.000
G1 X1249.571 Y1270.456 Z4.000
G1 X1250.467 Y1271.617 Z4.000
G1 X1251.288 Y1272.894 Z4.000
G1 X1252.033 Y1274.290 Z4.000
G1 X1252.705 Y1275.809 Z4.000
G1 X1253.305 Y1277.454 Z4.000
G1 X1253.832 Y1279.226 Z4.000
G1 X1254.140 Y1280.488 Z4.000
G1 X1263.781 Y1280.488 Z4.000
G1 X1263.781 Y1169.541 Z4.000
G1 X1249.715 Y1169.541 Z4.000
G1 X1249.715 Y1253.779 Z4.000
G1 X1237.387 Y1253.779 Z4.000
G1 X1237.387 Y1264.684 Z4.000
G0 X1237.387 Y1264.684 Z0.000

(shape postamble)


(shape preamble)

G0 X1329.663 Y1261.049 Z0.000
G1 X1329.663 Y1261.049 Z4.000
G1 X1329.663 Y1261.918 Z4.000
G1 X1329.727 Y1264.474 Z4.000
G1 X1329.857 Y1266.126 Z4.000
G1 X1330.095 Y1267.841 Z4.000
G1 X1330.473 Y1269.588 Z4.000
G1 X1331.024 Y1271.337 Z4.000
G1 X1331.648 Y1272.771 Z4.000
G1 X1332.093 Y1273.615 Z4.000
G1 X1332.601 Y1274.440 Z4.000
G1 X1333.175 Y1275.245 Z4.000
G1 X1333.819 Y1276.023 Z4.000
G1 X1334.538 Y1276.772 Z4.000
G1 X1335.335 Y1277.488 Z4.000
G1 X1336.214 Y1278.167 Z4.000
G1 X1337.179 Y1278.804 Z4.000
G1 X1338.235 Y1279.397 Z4.000
G1 X1339.386 Y1279.941 Z4.000
G1 X1340.635 Y1280.432 Z4.000
G1 X1341.987 Y1280.866 Z4.000
G1 X1343.446 Y1281.240 Z4.000
G1 X1345.015 Y1281.550 Z4.000
G1 X1346.699 Y1281.792 Z4.000
G1 X1348.502 Y1281.961 Z4.000
G1 X1350.428 Y1282.055 Z4.000
G1 X1352.381 Y1282.069 Z4.000
G1 X1354.316 Y1282.018 Z4.000
G1 X1356.394 Y1281.869 Z4.000
G1 X1358.567 Y1281.580 Z4.000
G1 X1360.787 Y1281.111 Z4.000
G1 X1362.637 Y1280.542 Z4.000
G1 X1363.735 Y1280.123 Z4.000
G1 X1364.816 Y1279.635 Z4.000
G1 X1365.875 Y1279.073 Z4.000
G1 X1366.906 Y1278.432 Z4.000
G1 X1367.902 Y1277.707 Z4.000
G1 X1368.887 Y1276.863 Z4.000
G1 X1369.819 Y1275.918 Z4.000
G1 X1370.632 Y1274.934 Z4.000
G1 X1371.334 Y1273.907 Z4.000
G1 X1371.934 Y1272.829 Z4.000
G1 X1372.439 Y1271.694 Z4.000
G1 X1372.858 Y1270.496 Z4.000
G1 X1373.198 Y1269.229 Z4.000
G1 X1373.468 Y1267.887 Z4.000
G1 X1373.676 Y1266.463 Z4.000
G1 X1373.879 Y1264.441 Z4.000
G1 X1374.030 Y1261.062 Z4.000
G1 X1374.073 Y1257.248 Z4.000
G1 X1374.073 Y1252.021 Z4.000
G1 X1374.032 Y1247.053 Z4.000
G1 X1373.951 Y1244.437 Z4.000
G1 X1373.801 Y1242.061 Z4.000
G1 X1373.564 Y1239.869 Z4.000
G1 X1373.217 Y1237.808 Z4.000
G1 X1372.742 Y1235.824 Z4.000
G1 X1372.117 Y1233.863 Z4.000
G1 X1371.323 Y1231.871 Z4.000
G1 X1370.338 Y1229.794 Z4.000
G1 X1369.143 Y1227.578 Z4.000
G1 X1367.717 Y1225.170 Z4.000
G1 X1366.039 Y1222.515 Z4.000
G1 X1363.425 Y1218.555 Z4.000
G1 X1359.256 Y1212.490 Z4.000
G1 X1356.628 Y1208.681 Z4.000
G1 X1354.151 Y1204.939 Z4.000
G1 X1352.235 Y1201.827 Z4.000
G1 X1351.152 Y1199.946 Z4.000
G1 X1350.127 Y1198.046 Z4.000
G1 X1349.164 Y1196.119 Z4.000
G1 X1348.269 Y1194.159 Z4.000
G1 X1347.445 Y1192.156 Z4.000
G1 X1346.696 Y1190.104 Z4.000
G1 X1346.028 Y1187.994 Z4.000
G1 X1345.444 Y1185.820 Z4.000
G1 X1344.950 Y1183.573 Z4.000
G1 X1344.677 Y1182.027 Z4.000
G1 X1374.705 Y1182.027 Z4.000
G1 X1374.705 Y1169.541 Z4.000
G1 X1330.295 Y1170.816 Z4.000
G1 X1330.351 Y1174.438 Z4.000
G1 X1330.492 Y1177.857 Z4.000
G1 X1330.737 Y1181.110 Z4.000
G1 X1331.107 Y1184.236 Z4.000
G1 X1331.621 Y1187.275 Z4.000
G1 X1332.297 Y1190.264 Z4.000
G1 X1333.156 Y1193.242 Z4.000
G1 X1334.216 Y1196.248 Z4.000
G1 X1335.498 Y1199.321 Z4.000
G1 X1337.021 Y1202.499 Z4.000
G1 X1338.804 Y1205.821 Z4.000
G1 X1340.866 Y1209.326 Z4.000
G1 X1343.228 Y1213.052 Z4.000
G1 X1345.908 Y1217.037 Z4.000
G1 X1348.927 Y1221.322 Z4.000
G1 X1352.026 Y1225.588 Z4.000
G1 X1354.273 Y1228.745 Z4.000
G1 X1355.819 Y1231.069 Z4.000
G1 X1356.629 Y1232.392 Z4.000
G1 X1357.348 Y1233.682 Z4.000
G1 X1357.978 Y1234.961 Z4.000
G1 X1358.525 Y1236.253 Z4.000
G1 X1358.992 Y1237.580 Z4.000
G1 X1359.382 Y1238.966 Z4.000
G1 X1359.700 Y1240.433 Z4.000
G1 X1359.948 Y1242.004 Z4.000
G1 X1360.131 Y1243.702 Z4.000
G1 X1360.252 Y1245.550 Z4.000
G1 X1360.315 Y1247.571 Z4.000
G1 X1360.323 Y1249.037 Z4.000
G1 X1360.323 Y1260.575 Z4.000
G1 X1360.291 Y1262.227 Z4.000
G1 X1360.160 Y1263.733 Z4.000
G1 X1360.017 Y1264.655 Z4.000
G1 X1359.808 Y1265.573 Z4.000
G1 X1359.522 Y1266.474 Z4.000
G1 X1359.145 Y1267.341 Z4.000
G1 X1358.667 Y1268.158 Z4.000
G1 X1358.074 Y1268.910 Z4.000
G1 X1357.354 Y1269.580 Z4.000
G1 X1356.495 Y1270.154 Z4.000
G1 X1355.485 Y1270.614 Z4.000
G1 X1354.311 Y1270.947 Z4.000
G1 X1352.961 Y1271.135 Z4.000
G1 X1351.404 Y1271.164 Z4.000
G1 X1349.939 Y1271.053 Z4.000
G1 X1348.662 Y1270.822 Z4.000
G1 X1347.558 Y1270.482 Z4.000
G1 X1346.616 Y1270.045 Z4.000
G1 X1345.822 Y1269.523 Z4.000
G1 X1345.164 Y1268.928 Z4.000
G1 X1344.629 Y1268.272 Z4.000
G1 X1344.205 Y1267.568 Z4.000
G1 X1343.878 Y1266.827 Z4.000
G1 X1343.636 Y1266.061 Z4.000
G1 X1343.466 Y1265.283 Z4.000
G1 X1343.322 Y1264.244 Z4.000
G1 X1343.254 Y1262.745 Z4.000
G1 X1343.254 Y1261.839 Z4.000
G1 X1343.254 Y1244.138 Z4.000
G1 X1329.663 Y1244.138 Z4.000
G1 X1329.663 Y1261.049 Z4.000
G1 X1329.663 Y1261.049 Z4.000
G0 X1329.663 Y1261.049 Z0.000

(shape postamble)


(shape preamble)

G0 X1431.737 Y1263.736 Z0.000
G1 X1431.737 Y1263.736 Z4.000
G1 X1431.737 Y1264.269 Z4.000
G1 X1431.799 Y1266.172 Z4.000
G1 X1431.924 Y1267.509 Z4.000
G1 X1432.154 Y1268.965 Z4.000
G1 X1432.518 Y1270.505 Z4.000
G1 X1433.050 Y1272.092 Z4.000
G1 X1433.779 Y1273.689 Z4.000
G1 X1434.571 Y1275.000 Z4.000
G1 X1435.124 Y1275.769 Z4.000
G1 X1435.745 Y1276.521 Z4.000
G1 X1436.438 Y1277.248 Z4.000
G1 X1437.206 Y1277.949 Z4.000
G1 X1438.054 Y1278.617 Z4.000
G1 X1438.985 Y1279.248 Z4.000
G1 X1440.004 Y1279.839 Z4.000
G1 X1441.113 Y1280.383 Z4.000
G1 X1442.318 Y1280.877 Z4.000
G1 X1443.621 Y1281.316 Z4.000
G1 X1445.028 Y1281.695 Z4.000
G1 X1446.541 Y1282.011 Z4.000
G1 X1448.165 Y1282.258 Z4.000
G1 X1449.903 Y1282.432 Z4.000
G1 X1451.760 Y1282.528 Z4.000
G1 X1453.710 Y1282.543 Z4.000
G1 X1455.523 Y1282.486 Z4.000
G1 X1457.222 Y1282.364 Z4.000
G1 X1458.809 Y1282.180 Z4.000
G1 X1460.290 Y1281.937 Z4.000
G1 X1461.668 Y1281.639 Z4.000
G1 X1462.946 Y1281.289 Z4.000
G1 X1464.128 Y1280.889 Z4.000
G1 X1465.218 Y1280.443 Z4.000
G1 X1466.220 Y1279.955 Z4.000
G1 X1467.137 Y1279.427 Z4.000
G1 X1467.973 Y1278.863 Z4.000
G1 X1468.732 Y1278.266 Z4.000
G1 X1469.418 Y1277.640 Z4.000
G1 X1470.034 Y1276.986 Z4.000
G1 X1470.584 Y1276.309 Z4.000
G1 X1471.231 Y1275.379 Z4.000
G1 X1471.997 Y1273.927 Z4.000
G1 X1472.565 Y1272.437 Z4.000
G1 X1472.963 Y1270.935 Z4.000
G1 X1473.222 Y1269.447 Z4.000
G1 X1473.371 Y1267.997 Z4.000
G1 X1473.461 Y1266.156 Z4.000
G1 X1473.461 Y1264.526 Z4.000
G1 X1473.461 Y1246.963 Z4.000
G1 X1473.401 Y1245.152 Z4.000
G1 X1473.267 Y1243.507 Z4.000
G1 X1473.057 Y1242.017 Z4.000
G1 X1472.767 Y1240.673 Z4.000
G1 X1472.394 Y1239.466 Z4.000
G1 X1471.936 Y1238.386 Z4.000
G1 X1471.391 Y1237.423 Z4.000
G1 X1470.754 Y1236.569 Z4.000
G1 X1470.024 Y1235.814 Z4.000
G1 X1469.198 Y1235.148 Z4.000
G1 X1468.272 Y1234.561 Z4.000
G1 X1467.245 Y1234.045 Z4.000
G1 X1466.113 Y1233.589 Z4.000
G1 X1464.874 Y1233.185 Z4.000
G1 X1463.524 Y1232.822 Z4.000
G1 X1463.227 Y1232.472 Z4.000
G1 X1465.084 Y1232.015 Z4.000
G1 X1466.760 Y1231.466 Z4.000
G1 X1468.263 Y1230.820 Z4.000
G1 X1469.601 Y1230.075 Z4.000
G1 X1470.782 Y1229.224 Z4.000
G1 X1471.815 Y1228.263 Z4.000
G1 X1472.709 Y1227.187 Z4.000
G1 X1473.470 Y1225.993 Z4.000
G1 X1474.109 Y1224.674 Z4.000
G1 X1474.633 Y1223.227 Z4.000
G1 X1475.050 Y1221.648 Z4.000
G1 X1475.369 Y1219.930 Z4.000
G1 X1475.599 Y1218.070 Z4.000
G1 X1475.747 Y1216.064 Z4.000
G1 X1475.821 Y1213.905 Z4.000
G1 X1475.831 Y1212.371 Z4.000
G1 X1475.831 Y1191.806 Z4.000
G1 X1475.766 Y1188.402 Z4.000
G1 X1475.637 Y1186.320 Z4.000
G1 X1475.399 Y1184.234 Z4.000
G1 X1475.021 Y1182.171 Z4.000
G1 X1474.470 Y1180.157 Z4.000
G1 X1473.846 Y1178.540 Z4.000
G1 X1473.400 Y1177.599 Z4.000
G1 X1472.892 Y1176.687 Z4.000
G1 X1472.319 Y1175.805 Z4.000
G1 X1471.674 Y1174.959 Z4.000
G1 X1470.956 Y1174.150 Z4.000
G1 X1470.159 Y1173.382 Z4.000
G1 X1469.280 Y1172.659 Z4.000
G1 X1468.314 Y1171.983 Z4.000
G1 X1467.258 Y1171.359 Z4.000
G1 X1466.108 Y1170.789 Z4.000
G1 X1464.859 Y1170.278 Z4.000
G1 X1463.507 Y1169.827 Z4.000
G1 X1462.048 Y1169.441 Z4.000
G1 X1460.479 Y1169.122 Z4.000
G1 X1458.795 Y1168.875 Z4.000
G1 X1456.992 Y1168.702 Z4.000
G1 X1455.066 Y1168.607 Z4.000
G1 X1453.018 Y1168.593 Z4.000
G1 X1451.065 Y1168.662 Z4.000
G1 X1449.235 Y1168.809 Z4.000
G1 X1447.524 Y1169.030 Z4.000
G1 X1445.928 Y1169.321 Z4.000
G1 X1444.444 Y1169.677 Z4.000
G1 X1443.067 Y1170.094 Z4.000
G1 X1441.793 Y1170.567 Z4.000
G1 X1440.619 Y1171.092 Z4.000
G1 X1439.539 Y1171.665 Z4.000
G1 X1438.551 Y1172.281 Z4.000
G1 X1437.650 Y1172.936 Z4.000
G1 X1436.832 Y1173.625 Z4.000
G1 X1436.093 Y1174.345 Z4.000
G1 X1435.430 Y1175.090 Z4.000
G1 X1434.837 Y1175.856 Z4.000
G1 X1434.311 Y1176.639 Z4.000
G1 X1433.849 Y1177.434 Z4.000
G1 X1433.314 Y1178.505 Z4.000
G1 X1432.702 Y1180.119 Z4.000
G1 X1432.273 Y1181.706 Z4.000
G1 X1431.994 Y1183.232 Z4.000
G1 X1431.833 Y1184.660 Z4.000
G1 X1431.737 Y1186.380 Z4.000
G1 X1431.737 Y1187.716 Z4.000
G1 X1431.737 Y1203.363 Z4.000
G1 X1445.171 Y1203.363 Z4.000
G1 X1445.171 Y1188.744 Z4.000
G1 X1445.203 Y1187.360 Z4.000
G1 X1445.334 Y1186.093 Z4.000
G1 X1445.478 Y1185.317 Z4.000
G1 X1445.686 Y1184.542 Z4.000
G1 X1445.972 Y1183.781 Z4.000
G1 X1446.349 Y1183.049 Z4.000
G1 X1446.827 Y1182.359 Z4.000
G1 X1447.420 Y1181.723 Z4.000
G1 X1448.140 Y1181.155 Z4.000
G1 X1448.999 Y1180.670 Z4.000
G1 X1450.009 Y1180.280 Z4.000
G1 X1451.183 Y1179.998 Z4.000
G1 X1452.533 Y1179.838 Z4.000
G1 X1454.080 Y1179.814 Z4.000
G1 X1455.521 Y1179.933 Z4.000
G1 X1456.781 Y1180.183 Z4.000
G1 X1457.873 Y1180.549 Z4.000
G1 X1458.809 Y1181.018 Z4.000
G1 X1459.601 Y1181.578 Z4.000
G1 X1460.261 Y1182.214 Z4.000
G1 X1460.800 Y1182.913 Z4.000
G1 X1461.232 Y1183.662 Z4.000
G1 X1461.567 Y1184.447 Z4.000
G1 X1461.819 Y1185.255 Z4.000
G1 X1461.998 Y1186.072 Z4.000
G1 X1462.155 Y1187.156 Z4.000
G1 X1462.237 Y1188.699 Z4.000
G1 X1462.239 Y1189.613 Z4.000
G1 X1462.239 Y1211.601 Z4.000
G1 X1462.124 Y1213.798 Z4.000
G1 X1461.867 Y1215.732 Z4.000
G1 X1461.465 Y1217.418 Z4.000
G1 X1460.914 Y1218.871 Z4.000
G1 X1460.332 Y1219.909 Z4.000
G1 X1459.936 Y1220.468 Z4.000
G1 X1459.500 Y1220.979 Z4.000
G1 X1459.024 Y1221.443 Z4.000
G1 X1458.335 Y1222.000 Z4.000
G1 X1457.155 Y1222.686 Z4.000
G1 X1455.809 Y1223.220 Z4.000
G1 X1454.293 Y1223.617 Z4.000
G1 X1452.605 Y1223.894 Z4.000
G1 X1450.740 Y1224.067 Z4.000
G1 X1448.695 Y1224.152 Z4.000
G1 X1445.714 Y1224.165 Z4.000
G1 X1442.326 Y1224.067 Z4.000
G1 X1443.106 Y1237.145 Z4.000
G1 X1445.306 Y1237.095 Z4.000
G1 X1447.340 Y1237.132 Z4.000
G1 X1449.210 Y1237.259 Z4.000
G1 X1450.920 Y1237.480 Z4.000
G1 X1452.473 Y1237.799 Z4.000
G1 X1453.871 Y1238.219 Z4.000
G1 X1455.118 Y1238.744 Z4.000
G1 X1456.216 Y1239.377 Z4.000
G1 X1457.170 Y1240.123 Z4.000
G1 X1457.981 Y1240.985 Z4.000
G1 X1458.652 Y1241.966 Z4.000
G1 X1459.188 Y1243.071 Z4.000
G1 X1459.590 Y1244.304 Z4.000
G1 X1459.862 Y1245.667 Z4.000
G1 X1460.006 Y1247.165 Z4.000
G1 X1460.027 Y1248.247 Z4.000
G1 X1460.027 Y1264.901 Z4.000
G1 X1459.977 Y1266.115 Z4.000
G1 X1459.800 Y1267.372 Z4.000
G1 X1459.490 Y1268.399 Z4.000
G1 X1459.223 Y1268.990 Z4.000
G1 X1458.881 Y1269.551 Z4.000
G1 X1458.454 Y1270.074 Z4.000
G1 X1457.934 Y1270.551 Z4.000
G1 X1457.310 Y1270.973 Z4.000
G1 X1456.574 Y1271.331 Z4.000
G1 X1455.717 Y1271.617 Z4.000
G1 X1454.729 Y1271.821 Z4.000
G1 X1453.600 Y1271.937 Z4.000
G1 X1452.283 Y1271.954 Z4.000
G1 X1451.005 Y1271.853 Z4.000
G1 X1449.890 Y1271.641 Z4.000
G1 X1448.927 Y1271.331 Z4.000
G1 X1448.104 Y1270.933 Z4.000
G1 X1447.412 Y1270.459 Z4.000
G1 X1446.838 Y1269.921 Z4.000
G1 X1446.371 Y1269.331 Z4.000
G1 X1446.001 Y1268.699 Z4.000
G1 X1445.715 Y1268.038 Z4.000
G1 X1445.504 Y1267.359 Z4.000
G1 X1445.356 Y1266.674 Z4.000
G1 X1445.230 Y1265.768 Z4.000
G1 X1445.171 Y1264.486 Z4.000
G1 X1445.171 Y1263.736 Z4.000
G1 X1445.171 Y1253.779 Z4.000
G1 X1431.737 Y1253.779 Z4.000
G1 X1431.737 Y1263.736 Z4.000
G1 X1431.737 Y1263.736 Z4.000
G0 X1431.737 Y1263.736 Z0.000

(shape postamble)


(shape preamble)

G0 X1553.013 Y1280.488 Z0.000
G1 X1553.013 Y1280.488 Z4.000
G1 X1573.401 Y1280.488 Z4.000
G1 X1573.401 Y1207.156 Z4.000
G1 X1581.303 Y1207.156 Z4.000
G1 X1581.303 Y1195.302 Z4.000
G1 X1573.401 Y1195.302 Z4.000
G1 X1573.401 Y1169.541 Z4.000
G1 X1560.126 Y1169.541 Z4.000
G1 X1560.126 Y1195.302 Z4.000
G1 X1529.465 Y1195.302 Z4.000
G1 X1529.465 Y1206.840 Z4.000
G1 X1553.013 Y1280.488 Z4.000
G0 X1553.013 Y1280.488 Z0.000

(shape postamble)


(shape preamble)

G0 X1560.126 Y1265.632 Z0.000
G1 X1560.126 Y1265.632 Z4.000
G1 X1542.108 Y1207.156 Z4.000
G1 X1560.126 Y1207.156 Z4.000
G1 X1560.126 Y1265.632 Z4.000
G0 X1560.126 Y1265.632 Z0.000

(shape postamble)


(shape preamble)

G0 X1635.806 Y1280.488 Z0.000
G1 X1635.806 Y1280.488 Z4.000
G1 X1675.791 Y1280.488 Z4.000
G1 X1675.791 Y1267.687 Z4.000
G1 X1648.292 Y1267.687 Z4.000
G1 X1648.529 Y1243.862 Z4.000
G1 X1649.383 Y1244.548 Z4.000
G1 X1650.430 Y1245.299 Z4.000
G1 X1651.692 Y1246.062 Z4.000
G1 X1653.191 Y1246.785 Z4.000
G1 X1654.949 Y1247.418 Z4.000
G1 X1656.641 Y1247.830 Z4.000
G1 X1657.748 Y1248.021 Z4.000
G1 X1658.933 Y1248.158 Z4.000
G1 X1660.199 Y1248.236 Z4.000
G1 X1661.636 Y1248.247 Z4.000
G1 X1663.185 Y1248.186 Z4.000
G1 X1664.638 Y1248.055 Z4.000
G1 X1665.999 Y1247.857 Z4.000
G1 X1667.271 Y1247.597 Z4.000
G1 X1668.457 Y1247.278 Z4.000
G1 X1669.560 Y1246.904 Z4.000
G1 X1670.583 Y1246.479 Z4.000
G1 X1671.529 Y1246.005 Z4.000
G1 X1672.401 Y1245.488 Z4.000
G1 X1673.202 Y1244.931 Z4.000
G1 X1673.935 Y1244.338 Z4.000
G1 X1674.603 Y1243.711 Z4.000
G1 X1675.209 Y1243.056 Z4.000
G1 X1675.935 Y1242.148 Z4.000
G1 X1676.829 Y1240.713 Z4.000
G1 X1677.526 Y1239.227 Z4.000
G1 X1678.052 Y1237.721 Z4.000
G1 X1678.431 Y1236.222 Z4.000
G1 X1678.686 Y1234.762 Z4.000
G1 X1678.841 Y1233.371 Z4.000
G1 X1678.945 Y1231.653 Z4.000
G1 X1678.952 Y1230.230 Z4.000
G1 X1678.952 Y1188.289 Z4.000
G1 X1678.889 Y1186.013 Z4.000
G1 X1678.761 Y1184.464 Z4.000
G1 X1678.527 Y1182.805 Z4.000
G1 X1678.154 Y1181.075 Z4.000
G1 X1677.611 Y1179.310 Z4.000
G1 X1676.996 Y1177.841 Z4.000
G1 X1676.556 Y1176.970 Z4.000
G1 X1676.056 Y1176.111 Z4.000
G1 X1675.490 Y1175.271 Z4.000
G1 X1674.855 Y1174.452 Z4.000
G1 X1674.147 Y1173.661 Z4.000
G1 X1673.361 Y1172.902 Z4.000
G1 X1672.495 Y1172.179 Z4.000
G1 X1671.543 Y1171.497 Z4.000
G1 X1670.502 Y1170.861 Z4.000
G1 X1669.368 Y1170.275 Z4.000
G1 X1668.137 Y1169.744 Z4.000
G1 X1666.804 Y1169.273 Z4.000
G1 X1665.366 Y1168.866 Z4.000
G1 X1663.820 Y1168.529 Z4.000
G1 X1662.160 Y1168.264 Z4.000
G1 X1660.382 Y1168.079 Z4.000
G1 X1658.484 Y1167.976 Z4.000
G1 X1656.589 Y1167.961 Z4.000
G1 X1654.827 Y1168.007 Z4.000
G1 X1652.966 Y1168.135 Z4.000
G1 X1651.033 Y1168.372 Z4.000
G1 X1649.052 Y1168.746 Z4.000
G1 X1647.051 Y1169.285 Z4.000
G1 X1645.054 Y1170.017 Z4.000
G1 X1643.415 Y1170.803 Z4.000
G1 X1642.447 Y1171.350 Z4.000
G1 X1641.417 Y1172.021 Z4.000
G1 X1640.343 Y1172.854 Z4.000
G1 X1639.396 Y1173.723 Z4.000
G1 X1638.567 Y1174.624 Z4.000
G1 X1637.850 Y1175.555 Z4.000
G1 X1637.235 Y1176.512 Z4.000
G1 X1636.715 Y1177.490 Z4.000
G1 X1636.283 Y1178.488 Z4.000
G1 X1635.930 Y1179.501 Z4.000
G1 X1635.648 Y1180.525 Z4.000
G1 X1635.360 Y1181.903 Z4.000
G1 X1635.117 Y1183.981 Z4.000
G1 X1635.023 Y1186.047 Z4.000
G1 X1635.016 Y1187.400 Z4.000
G1 X1635.016 Y1203.837 Z4.000
G1 X1648.450 Y1203.837 Z4.000
G1 X1648.450 Y1188.388 Z4.000
G1 X1648.482 Y1186.920 Z4.000
G1 X1648.610 Y1185.611 Z4.000
G1 X1648.751 Y1184.819 Z4.000
G1 X1648.955 Y1184.034 Z4.000
G1 X1649.236 Y1183.268 Z4.000
G1 X1649.605 Y1182.535 Z4.000
G1 X1650.075 Y1181.848 Z4.000
G1 X1650.657 Y1181.217 Z4.000
G1 X1651.363 Y1180.656 Z4.000
G1 X1652.206 Y1180.178 Z4.000
G1 X1653.197 Y1179.795 Z4.000
G1 X1654.349 Y1179.519 Z4.000
G1 X1655.673 Y1179.363 Z4.000
G1 X1657.211 Y1179.340 Z4.000
G1 X1658.676 Y1179.471 Z4.000
G1 X1659.953 Y1179.748 Z4.000
G1 X1661.057 Y1180.157 Z4.000
G1 X1661.999 Y1180.685 Z4.000
G1 X1662.793 Y1181.319 Z4.000
G1 X1663.450 Y1182.045 Z4.000
G1 X1663.985 Y1182.851 Z4.000
G1 X1664.410 Y1183.723 Z4.000
G1 X1664.736 Y1184.648 Z4.000
G1 X1664.978 Y1185.613 Z4.000
G1 X1665.148 Y1186.605 Z4.000
G1 X1665.292 Y1187.945 Z4.000
G1 X1665.360 Y1189.937 Z4.000
G1 X1665.360 Y1191.193 Z4.000
G1 X1665.360 Y1227.642 Z4.000
G1 X1665.302 Y1228.810 Z4.000
G1 X1665.173 Y1229.888 Z4.000
G1 X1664.976 Y1230.878 Z4.000
G1 X1664.710 Y1231.781 Z4.000
G1 X1664.375 Y1232.600 Z4.000
G1 X1663.972 Y1233.336 Z4.000
G1 X1663.502 Y1233.991 Z4.000
G1 X1662.965 Y1234.567 Z4.000
G1 X1662.361 Y1235.065 Z4.000
G1 X1661.692 Y1235.489 Z4.000
G1 X1660.956 Y1235.839 Z4.000
G1 X1660.156 Y1236.117 Z4.000
G1 X1659.291 Y1236.326 Z4.000
G1 X1658.362 Y1236.467 Z4.000
G1 X1657.369 Y1236.541 Z4.000
G1 X1656.105 Y1236.552 Z4.000
G1 X1654.588 Y1236.438 Z4.000
G1 X1653.264 Y1236.194 Z4.000
G1 X1652.120 Y1235.829 Z4.000
G1 X1651.143 Y1235.352 Z4.000
G1 X1650.321 Y1234.772 Z4.000
G1 X1649.639 Y1234.097 Z4.000
G1 X1649.085 Y1233.335 Z4.000
G1 X1648.645 Y1232.495 Z4.000
G1 X1648.306 Y1231.585 Z4.000
G1 X1648.055 Y1230.615 Z4.000
G1 X1647.879 Y1229.593 Z4.000
G1 X1647.730 Y1228.170 Z4.000
G1 X1647.659 Y1225.921 Z4.000
G1 X1647.659 Y1224.383 Z4.000
G1 X1635.806 Y1224.383 Z4.000
G1 X1635.806 Y1280.488 Z4.000
G1 X1635.806 Y1280.488 Z4.000
G0 X1635.806 Y1280.488 Z0.000

(shape postamble)


(shape preamble)

G0 X1736.379 Y1258.362 Z0.000
G1 X1736.379 Y1258.362 Z4.000
G1 X1736.379 Y1259.251 Z4.000
G1 X1736.402 Y1261.877 Z4.000
G1 X1736.516 Y1264.444 Z4.000
G1 X1736.739 Y1266.527 Z4.000
G1 X1736.938 Y1267.752 Z4.000
G1 X1737.201 Y1268.956 Z4.000
G1 X1737.535 Y1270.137 Z4.000
G1 X1737.949 Y1271.294 Z4.000
G1 X1738.452 Y1272.426 Z4.000
G1 X1739.051 Y1273.531 Z4.000
G1 X1739.757 Y1274.607 Z4.000
G1 X1740.576 Y1275.654 Z4.000
G1 X1741.518 Y1276.670 Z4.000
G1 X1742.543 Y1277.614 Z4.000
G1 X1743.523 Y1278.398 Z4.000
G1 X1744.538 Y1279.095 Z4.000
G1 X1745.581 Y1279.712 Z4.000
G1 X1746.648 Y1280.252 Z4.000
G1 X1747.734 Y1280.720 Z4.000
G1 X1748.833 Y1281.122 Z4.000
G1 X1749.941 Y1281.462 Z4.000
G1 X1751.423 Y1281.836 Z4.000
G1 X1753.632 Y1282.219 Z4.000
G1 X1755.786 Y1282.438 Z4.000
G1 X1757.846 Y1282.533 Z4.000
G1 X1759.799 Y1282.543 Z4.000
G1 X1761.682 Y1282.467 Z4.000
G1 X1763.447 Y1282.305 Z4.000
G1 X1765.096 Y1282.061 Z4.000
G1 X1766.634 Y1281.739 Z4.000
G1 X1768.065 Y1281.344 Z4.000
G1 X1769.393 Y1280.881 Z4.000
G1 X1770.621 Y1280.355 Z4.000
G1 X1771.753 Y1279.769 Z4.000
G1 X1772.794 Y1279.128 Z4.000
G1 X1773.746 Y1278.437 Z4.000
G1 X1774.615 Y1277.700 Z4.000
G1 X1775.404 Y1276.922 Z4.000
G1 X1776.116 Y1276.108 Z4.000
G1 X1776.756 Y1275.262 Z4.000
G1 X1777.327 Y1274.388 Z4.000
G1 X1777.834 Y1273.491 Z4.000
G1 X1778.280 Y1272.576 Z4.000
G1 X1778.795 Y1271.336 Z4.000
G1 X1779.385 Y1269.451 Z4.000
G1 X1779.798 Y1267.570 Z4.000
G1 X1780.067 Y1265.731 Z4.000
G1 X1780.222 Y1263.970 Z4.000
G1 X1780.316 Y1261.782 Z4.000
G1 X1780.316 Y1259.942 Z4.000
G1 X1780.316 Y1248.721 Z4.000
G1 X1767.356 Y1248.721 Z4.000
G1 X1767.356 Y1261.493 Z4.000
G1 X1767.249 Y1263.126 Z4.000
G1 X1767.024 Y1264.561 Z4.000
G1 X1766.695 Y1265.811 Z4.000
G1 X1766.272 Y1266.888 Z4.000
G1 X1765.768 Y1267.806 Z4.000
G1 X1765.194 Y1268.577 Z4.000
G1 X1764.564 Y1269.214 Z4.000
G1 X1763.889 Y1269.729 Z4.000
G1 X1763.180 Y1270.135 Z4.000
G1 X1762.451 Y1270.446 Z4.000
G1 X1761.712 Y1270.673 Z4.000
G1 X1760.733 Y1270.879 Z4.000
G1 X1759.335 Y1270.998 Z4.000
G1 X1757.962 Y1271.006 Z4.000
G1 X1756.498 Y1270.877 Z4.000
G1 X1755.220 Y1270.606 Z4.000
G1 X1754.117 Y1270.206 Z4.000
G1 X1753.174 Y1269.689 Z4.000
G1 X1752.381 Y1269.068 Z4.000
G1 X1751.723 Y1268.355 Z4.000
G1 X1751.188 Y1267.564 Z4.000
G1 X1750.763 Y1266.706 Z4.000
G1 X1750.437 Y1265.796 Z4.000
G1 X1750.195 Y1264.845 Z4.000
G1 X1750.025 Y1263.867 Z4.000
G1 X1749.881 Y1262.542 Z4.000
G1 X1749.813 Y1260.565 Z4.000
G1 X1749.813 Y1259.310 Z4.000
G1 X1750.099 Y1231.544 Z4.000
G1 X1750.970 Y1232.544 Z4.000
G1 X1751.852 Y1233.433 Z4.000
G1 X1752.742 Y1234.219 Z4.000
G1 X1753.638 Y1234.907 Z4.000
G1 X1754.537 Y1235.503 Z4.000
G1 X1755.435 Y1236.014 Z4.000
G1 X1756.331 Y1236.447 Z4.000
G1 X1757.221 Y1236.806 Z4.000
G1 X1758.103 Y1237.100 Z4.000
G1 X1759.263 Y1237.407 Z4.000
G1 X1760.950 Y1237.684 Z4.000
G1 X1762.555 Y1237.804 Z4.000
G1 X1764.101 Y1237.816 Z4.000
G1 X1765.633 Y1237.745 Z4.000
G1 X1767.068 Y1237.590 Z4.000
G1 X1768.410 Y1237.358 Z4.000
G1 X1769.661 Y1237.052 Z4.000
G1 X1770.825 Y1236.676 Z4.000
G1 X1771.905 Y1236.234 Z4.000
G1 X1772.904 Y1235.732 Z4.000
G1 X1773.825 Y1235.172 Z4.000
G1 X1774.671 Y1234.560 Z4.000
G1 X1775.446 Y1233.899 Z4.000
G1 X1776.153 Y1233.194 Z4.000
G1 X1776.794 Y1232.449 Z4.000
G1 X1777.373 Y1231.668 Z4.000
G1 X1777.894 Y1230.855 Z4.000
G1 X1778.359 Y1230.015 Z4.000
G1 X1778.905 Y1228.862 Z4.000
G1 X1779.553 Y1227.072 Z4.000
G1 X1780.033 Y1225.245 Z4.000
G1 X1780.369 Y1223.416 Z4.000
G1 X1780.588 Y1221.618 Z4.000
G1 X1780.714 Y1219.885 Z4.000
G1 X1780.790 Y1217.713 Z4.000
G1 X1780.790 Y1215.848 Z4.000
G1 X1780.790 Y1189.179 Z4.000
G1 X1780.691 Y1186.567 Z4.000
G1 X1780.530 Y1184.895 Z4.000
G1 X1780.256 Y1183.168 Z4.000
G1 X1779.839 Y1181.413 Z4.000
G1 X1779.249 Y1179.657 Z4.000
G1 X1778.594 Y1178.217 Z4.000
G1 X1778.132 Y1177.368 Z4.000
G1 X1777.649 Y1176.634 Z4.000
G1 X1776.950 Y1175.717 Z4.000
G1 X1776.041 Y1174.690 Z4.000
G1 X1775.353 Y1174.010 Z4.000
G1 X1774.538 Y1173.298 Z4.000
G1 X1773.588 Y1172.572 Z4.000
G1 X1772.495 Y1171.850 Z4.000
G1 X1771.248 Y1171.152 Z4.000
G1 X1769.839 Y1170.494 Z4.000
G1 X1768.259 Y1169.896 Z4.000
G1 X1766.499 Y1169.375 Z4.000
G1 X1764.550 Y1168.951 Z4.000
G1 X1762.403 Y1168.640 Z4.000
G1 X1760.048 Y1168.462 Z4.000
G1 X1757.715 Y1168.435 Z4.000
G1 X1755.833 Y1168.513 Z4.000
G1 X1753.976 Y1168.694 Z4.000
G1 X1752.151 Y1168.991 Z4.000
G1 X1750.366 Y1169.413 Z4.000
G1 X1748.627 Y1169.972 Z4.000
G1 X1746.943 Y1170.680 Z4.000
G1 X1745.321 Y1171.547 Z4.000
G1 X1743.787 Y1172.564 Z4.000
G1 X1742.456 Y1173.622 Z4.000
G1 X1741.295 Y1174.735 Z4.000
G1 X1740.291 Y1175.895 Z4.000
G1 X1739.435 Y1177.099 Z4.000
G1 X1738.713 Y1178.337 Z4.000
G1 X1738.115 Y1179.606 Z4.000
G1 X1737.629 Y1180.898 Z4.000
G1 X1737.243 Y1182.207 Z4.000
G1 X1736.946 Y1183.527 Z4.000
G1 X1736.726 Y1184.852 Z4.000
G1 X1736.572 Y1186.175 Z4.000
G1 X1736.441 Y1187.928 Z4.000
G1 X1736.379 Y1190.497 Z4.000
G1 X1736.379 Y1192.142 Z4.000
G1 X1736.379 Y1258.362 Z4.000
G0 X1736.379 Y1258.362 Z0.000

(shape postamble)


(shape preamble)

G0 X1767.514 Y1215.374 Z0.000
G1 X1767.514 Y1215.374 Z4.000
G1 X1767.514 Y1215.888 Z4.000
G1 X1767.480 Y1217.579 Z4.000
G1 X1767.344 Y1219.059 Z4.000
G1 X1767.195 Y1219.946 Z4.000
G1 X1766.979 Y1220.821 Z4.000
G1 X1766.682 Y1221.668 Z4.000
G1 X1766.291 Y1222.476 Z4.000
G1 X1765.795 Y1223.232 Z4.000
G1 X1765.179 Y1223.922 Z4.000
G1 X1764.432 Y1224.534 Z4.000
G1 X1763.541 Y1225.054 Z4.000
G1 X1762.493 Y1225.470 Z4.000
G1 X1761.275 Y1225.769 Z4.000
G1 X1759.874 Y1225.938 Z4.000
G1 X1758.259 Y1225.963 Z4.000
G1 X1756.741 Y1225.827 Z4.000
G1 X1755.417 Y1225.541 Z4.000
G1 X1754.273 Y1225.123 Z4.000
G1 X1753.297 Y1224.589 Z4.000
G1 X1752.474 Y1223.954 Z4.000
G1 X1751.792 Y1223.236 Z4.000
G1 X1751.238 Y1222.450 Z4.000
G1 X1750.798 Y1221.612 Z4.000
G1 X1750.459 Y1220.739 Z4.000
G1 X1750.209 Y1219.847 Z4.000
G1 X1750.033 Y1218.951 Z4.000
G1 X1749.883 Y1217.777 Z4.000
G1 X1749.813 Y1216.145 Z4.000
G1 X1749.813 Y1215.216 Z4.000
G1 X1749.813 Y1189.791 Z4.000
G1 X1749.848 Y1188.186 Z4.000
G1 X1749.989 Y1186.709 Z4.000
G1 X1750.143 Y1185.802 Z4.000
G1 X1750.367 Y1184.895 Z4.000
G1 X1750.675 Y1184.004 Z4.000
G1 X1751.080 Y1183.145 Z4.000
G1 X1751.594 Y1182.334 Z4.000
G1 X1752.232 Y1181.587 Z4.000
G1 X1753.006 Y1180.920 Z4.000
G1 X1753.930 Y1180.348 Z4.000
G1 X1755.017 Y1179.888 Z4.000
G1 X1756.279 Y1179.556 Z4.000
G1 X1757.731 Y1179.368 Z4.000
G1 X1759.365 Y1179.340 Z4.000
G1 X1760.829 Y1179.473 Z4.000
G1 X1762.107 Y1179.752 Z4.000
G1 X1763.210 Y1180.158 Z4.000
G1 X1764.152 Y1180.677 Z4.000
G1 X1764.946 Y1181.290 Z4.000
G1 X1765.604 Y1181.983 Z4.000
G1 X1766.138 Y1182.739 Z4.000
G1 X1766.563 Y1183.540 Z4.000
G1 X1766.890 Y1184.372 Z4.000
G1 X1767.132 Y1185.216 Z4.000
G1 X1767.301 Y1186.058 Z4.000
G1 X1767.446 Y1187.152 Z4.000
G1 X1767.514 Y1188.640 Z4.000
G1 X1767.514 Y1189.455 Z4.000
G1 X1767.514 Y1215.374 Z4.000
G0 X1767.514 Y1215.374 Z0.000

(shape postamble)


(shape preamble)

G0 X1839.244 Y1280.014 Z0.000
G1 X1839.244 Y1280.014 Z4.000
G1 X1881.125 Y1280.014 Z4.000
G1 X1880.671 Y1266.995 Z4.000
G1 X1879.159 Y1263.555 Z4.000
G1 X1877.501 Y1259.552 Z4.000
G1 X1875.733 Y1254.920 Z4.000
G1 X1873.890 Y1249.591 Z4.000
G1 X1872.320 Y1244.536 Z4.000
G1 X1871.375 Y1241.252 Z4.000
G1 X1870.432 Y1237.755 Z4.000
G1 X1869.494 Y1234.036 Z4.000
G1 X1868.568 Y1230.088 Z4.000
G1 X1867.656 Y1225.901 Z4.000
G1 X1866.753 Y1221.439 Z4.000
G1 X1865.919 Y1217.014 Z4.000
G1 X1865.180 Y1212.752 Z4.000
G1 X1864.530 Y1208.650 Z4.000
G1 X1863.779 Y1203.401 Z4.000
G1 X1862.917 Y1196.082 Z4.000
G1 X1862.303 Y1189.361 Z4.000
G1 X1861.887 Y1183.219 Z4.000
G1 X1861.620 Y1177.635 Z4.000
G1 X1861.451 Y1172.589 Z4.000
G1 X1861.369 Y1169.541 Z4.000
G1 X1845.407 Y1171.813 Z4.000
G1 X1845.915 Y1178.418 Z4.000
G1 X1846.479 Y1184.800 Z4.000
G1 X1847.116 Y1190.995 Z4.000
G1 X1847.843 Y1197.034 Z4.000
G1 X1848.678 Y1202.952 Z4.000
G1 X1849.638 Y1208.783 Z4.000
G1 X1850.740 Y1214.559 Z4.000
G1 X1852.000 Y1220.315 Z4.000
G1 X1853.437 Y1226.084 Z4.000
G1 X1855.067 Y1231.900 Z4.000
G1 X1856.908 Y1237.796 Z4.000
G1 X1858.975 Y1243.805 Z4.000
G1 X1861.288 Y1249.962 Z4.000
G1 X1863.862 Y1256.300 Z4.000
G1 X1866.715 Y1262.852 Z4.000
G1 X1868.798 Y1267.370 Z4.000
G1 X1839.244 Y1267.370 Z4.000
G1 X1839.244 Y1280.014 Z4.000
G1 X1839.244 Y1280.014 Z4.000
G0 X1839.244 Y1280.014 Z0.000

(shape postamble)


(shape preamble)

G0 X1940.686 Y1259.627 Z0.000
G1 X1940.686 Y1259.627 Z4.000
G1 X1940.686 Y1260.278 Z4.000
G1 X1940.749 Y1262.537 Z4.000
G1 X1940.876 Y1264.107 Z4.000
G1 X1941.108 Y1265.807 Z4.000
G1 X1941.478 Y1267.596 Z4.000
G1 X1942.018 Y1269.433 Z4.000
G1 X1942.628 Y1270.970 Z4.000
G1 X1943.064 Y1271.885 Z4.000
G1 X1943.561 Y1272.787 Z4.000
G1 X1944.123 Y1273.673 Z4.000
G1 X1944.753 Y1274.536 Z4.000
G1 X1945.456 Y1275.373 Z4.000
G1 X1946.236 Y1276.177 Z4.000
G1 X1947.096 Y1276.943 Z4.000
G1 X1948.041 Y1277.667 Z4.000
G1 X1949.075 Y1278.343 Z4.000
G1 X1950.200 Y1278.967 Z4.000
G1 X1951.423 Y1279.532 Z4.000
G1 X1952.746 Y1280.034 Z4.000
G1 X1954.173 Y1280.468 Z4.000
G1 X1955.709 Y1280.829 Z4.000
G1 X1957.356 Y1281.111 Z4.000
G1 X1959.121 Y1281.310 Z4.000
G1 X1961.005 Y1281.420 Z4.000
G1 X1963.014 Y1281.436 Z4.000
G1 X1964.939 Y1281.363 Z4.000
G1 X1966.743 Y1281.205 Z4.000
G1 X1968.429 Y1280.967 Z4.000
G1 X1970.002 Y1280.652 Z4.000
G1 X1971.465 Y1280.265 Z4.000
G1 X1972.822 Y1279.810 Z4.000
G1 X1974.078 Y1279.291 Z4.000
G1 X1975.235 Y1278.711 Z4.000
G1 X1976.299 Y1278.076 Z4.000
G1 X1977.273 Y1277.388 Z4.000
G1 X1978.161 Y1276.653 Z4.000
G1 X1978.967 Y1275.874 Z4.000
G1 X1979.695 Y1275.055 Z4.000
G1 X1980.350 Y1274.200 Z4.000
G1 X1980.934 Y1273.313 Z4.000
G1 X1981.452 Y1272.398 Z4.000
G1 X1981.908 Y1271.460 Z4.000
G1 X1982.435 Y1270.182 Z4.000
G1 X1983.038 Y1268.216 Z4.000
G1 X1983.460 Y1266.225 Z4.000
G1 X1983.735 Y1264.242 Z4.000
G1 X1983.894 Y1262.299 Z4.000
G1 X1983.989 Y1259.812 Z4.000
G1 X1983.989 Y1257.572 Z4.000
G1 X1983.989 Y1247.477 Z4.000
G1 X1983.878 Y1244.262 Z4.000
G1 X1983.739 Y1242.463 Z4.000
G1 X1983.530 Y1240.768 Z4.000
G1 X1983.239 Y1239.175 Z4.000
G1 X1982.856 Y1237.679 Z4.000
G1 X1982.369 Y1236.281 Z4.000
G1 X1981.767 Y1234.976 Z4.000
G1 X1981.039 Y1233.764 Z4.000
G1 X1980.174 Y1232.641 Z4.000
G1 X1979.161 Y1231.605 Z4.000
G1 X1977.988 Y1230.654 Z4.000
G1 X1976.646 Y1229.785 Z4.000
G1 X1975.121 Y1228.997 Z4.000
G1 X1973.404 Y1228.287 Z4.000
G1 X1972.887 Y1227.712 Z4.000
G1 X1974.916 Y1227.162 Z4.000
G1 X1976.693 Y1226.493 Z4.000
G1 X1978.235 Y1225.712 Z4.000
G1 X1979.559 Y1224.828 Z4.000
G1 X1980.681 Y1223.849 Z4.000
G1 X1981.618 Y1222.782 Z4.000
G1 X1982.386 Y1221.635 Z4.000
G1 X1983.002 Y1220.417 Z4.000
G1 X1983.483 Y1219.134 Z4.000
G1 X1983.845 Y1217.795 Z4.000
G1 X1984.106 Y1216.408 Z4.000
G1 X1984.281 Y1214.980 Z4.000
G1 X1984.388 Y1213.520 Z4.000
G1 X1984.459 Y1211.539 Z4.000
G1 X1984.464 Y1209.527 Z4.000
G1 X1984.464 Y1189.001 Z4.000
G1 X1984.373 Y1186.673 Z4.000
G1 X1984.127 Y1184.351 Z4.000
G1 X1983.757 Y1182.440 Z4.000
G1 X1983.459 Y1181.309 Z4.000
G1 X1983.093 Y1180.195 Z4.000
G1 X1982.653 Y1179.100 Z4.000
G1 X1982.132 Y1178.028 Z4.000
G1 X1981.525 Y1176.982 Z4.000
G1 X1980.824 Y1175.966 Z4.000
G1 X1980.024 Y1174.982 Z4.000
G1 X1979.119 Y1174.034 Z4.000
G1 X1978.102 Y1173.124 Z4.000
G1 X1976.798 Y1172.129 Z4.000
G1 X1975.066 Y1171.053 Z4.000
G1 X1973.250 Y1170.167 Z4.000
G1 X1971.353 Y1169.459 Z4.000
G1 X1969.380 Y1168.914 Z4.000
G1 X1967.334 Y1168.521 Z4.000
G1 X1965.219 Y1168.266 Z4.000
G1 X1963.039 Y1168.136 Z4.000
G1 X1960.846 Y1168.119 Z4.000
G1 X1958.850 Y1168.204 Z4.000
G1 X1956.980 Y1168.387 Z4.000
G1 X1955.232 Y1168.661 Z4.000
G1 X1953.602 Y1169.022 Z4.000
G1 X1952.086 Y1169.462 Z4.000
G1 X1950.679 Y1169.978 Z4.000
G1 X1949.378 Y1170.564 Z4.000
G1 X1948.178 Y1171.213 Z4.000
G1 X1947.075 Y1171.921 Z4.000
G1 X1946.066 Y1172.681 Z4.000
G1 X1945.145 Y1173.489 Z4.000
G1 X1944.310 Y1174.338 Z4.000
G1 X1943.555 Y1175.224 Z4.000
G1 X1942.877 Y1176.140 Z4.000
G1 X1942.272 Y1177.081 Z4.000
G1 X1941.735 Y1178.041 Z4.000
G1 X1941.262 Y1179.016 Z4.000
G1 X1940.716 Y1180.326 Z4.000
G1 X1940.091 Y1182.294 Z4.000
G1 X1939.653 Y1184.220 Z4.000
G1 X1939.368 Y1186.062 Z4.000
G1 X1939.204 Y1187.774 Z4.000
G1 X1939.105 Y1189.813 Z4.000
G1 X1939.105 Y1191.352 Z4.000
G1 X1939.105 Y1205.753 Z4.000
G1 X1939.145 Y1208.454 Z4.000
G1 X1939.244 Y1210.924 Z4.000
G1 X1939.412 Y1213.174 Z4.000
G1 X1939.659 Y1215.217 Z4.000
G1 X1939.995 Y1217.064 Z4.000
G1 X1940.431 Y1218.729 Z4.000
G1 X1940.978 Y1220.224 Z4.000
G1 X1941.646 Y1221.560 Z4.000
G1 X1942.445 Y1222.750 Z4.000
G1 X1943.385 Y1223.807 Z4.000
G1 X1944.478 Y1224.742 Z4.000
G1 X1945.733 Y1225.569 Z4.000
G1 X1947.161 Y1226.298 Z4.000
G1 X1948.773 Y1226.943 Z4.000
G1 X1950.578 Y1227.515 Z4.000
G1 X1951.343 Y1228.077 Z4.000
G1 X1949.785 Y1228.731 Z4.000
G1 X1948.376 Y1229.395 Z4.000
G1 X1947.112 Y1230.076 Z4.000
G1 X1945.984 Y1230.780 Z4.000
G1 X1944.987 Y1231.516 Z4.000
G1 X1944.112 Y1232.290 Z4.000
G1 X1943.355 Y1233.109 Z4.000
G1 X1942.708 Y1233.981 Z4.000
G1 X1942.164 Y1234.913 Z4.000
G1 X1941.717 Y1235.912 Z4.000
G1 X1941.359 Y1236.985 Z4.000
G1 X1941.085 Y1238.139 Z4.000
G1 X1940.887 Y1239.382 Z4.000
G1 X1940.759 Y1240.721 Z4.000
G1 X1940.694 Y1242.162 Z4.000
G1 X1940.686 Y1243.190 Z4.000
G1 X1940.686 Y1259.627 Z4.000
G0 X1940.686 Y1259.627 Z0.000

(shape postamble)


(shape preamble)

G0 X1971.030 Y1211.581 Z0.000
G1 X1971.030 Y1211.581 Z4.000
G1 X1971.030 Y1212.273 Z4.000
G1 X1970.931 Y1214.259 Z4.000
G1 X1970.699 Y1215.797 Z4.000
G1 X1970.484 Y1216.665 Z4.000
G1 X1970.197 Y1217.482 Z4.000
G1 X1969.829 Y1218.243 Z4.000
G1 X1969.371 Y1218.943 Z4.000
G1 X1968.813 Y1219.576 Z4.000
G1 X1968.147 Y1220.137 Z4.000
G1 X1967.363 Y1220.621 Z4.000
G1 X1966.452 Y1221.023 Z4.000
G1 X1965.404 Y1221.336 Z4.000
G1 X1964.211 Y1221.556 Z4.000
G1 X1962.862 Y1221.678 Z4.000
G1 X1961.280 Y1221.696 Z4.000
G1 X1959.710 Y1221.572 Z4.000
G1 X1958.339 Y1221.305 Z4.000
G1 X1957.155 Y1220.902 Z4.000
G1 X1956.145 Y1220.371 Z4.000
G1 X1955.293 Y1219.718 Z4.000
G1 X1954.588 Y1218.950 Z4.000
G1 X1954.014 Y1218.075 Z4.000
G1 X1953.559 Y1217.098 Z4.000
G1 X1953.208 Y1216.027 Z4.000
G1 X1952.949 Y1214.870 Z4.000
G1 X1952.766 Y1213.632 Z4.000
G1 X1952.612 Y1211.880 Z4.000
G1 X1952.539 Y1209.025 Z4.000
G1 X1952.539 Y1206.998 Z4.000
G1 X1952.539 Y1189.850 Z4.000
G1 X1952.575 Y1188.355 Z4.000
G1 X1952.718 Y1186.915 Z4.000
G1 X1952.874 Y1186.014 Z4.000
G1 X1953.103 Y1185.102 Z4.000
G1 X1953.416 Y1184.196 Z4.000
G1 X1953.828 Y1183.316 Z4.000
G1 X1954.351 Y1182.478 Z4.000
G1 X1955.001 Y1181.702 Z4.000
G1 X1955.788 Y1181.005 Z4.000
G1 X1956.728 Y1180.406 Z4.000
G1 X1957.834 Y1179.921 Z4.000
G1 X1959.118 Y1179.570 Z4.000
G1 X1960.595 Y1179.370 Z4.000
G1 X1962.288 Y1179.340 Z4.000
G1 X1963.859 Y1179.475 Z4.000
G1 X1965.229 Y1179.764 Z4.000
G1 X1966.413 Y1180.196 Z4.000
G1 X1967.424 Y1180.760 Z4.000
G1 X1968.275 Y1181.447 Z4.000
G1 X1968.981 Y1182.246 Z4.000
G1 X1969.555 Y1183.147 Z4.000
G1 X1970.010 Y1184.141 Z4.000
G1 X1970.361 Y1185.216 Z4.000
G1 X1970.620 Y1186.363 Z4.000
G1 X1970.802 Y1187.571 Z4.000
G1 X1970.957 Y1189.252 Z4.000
G1 X1971.030 Y1191.907 Z4.000
G1 X1971.030 Y1193.722 Z4.000
G1 X1971.030 Y1211.581 Z4.000
G0 X1971.030 Y1211.581 Z0.000

(shape postamble)


(shape preamble)

G0 X1954.119 Y1242.716 Z0.000
G1 X1954.119 Y1242.716 Z4.000
G1 X1954.119 Y1242.320 Z4.000
G1 X1954.150 Y1240.959 Z4.000
G1 X1954.271 Y1239.726 Z4.000
G1 X1954.403 Y1238.975 Z4.000
G1 X1954.596 Y1238.228 Z4.000
G1 X1954.860 Y1237.496 Z4.000
G1 X1955.208 Y1236.794 Z4.000
G1 X1955.651 Y1236.133 Z4.000
G1 X1956.199 Y1235.525 Z4.000
G1 X1956.864 Y1234.983 Z4.000
G1 X1957.659 Y1234.521 Z4.000
G1 X1958.592 Y1234.149 Z4.000
G1 X1959.678 Y1233.881 Z4.000
G1 X1960.925 Y1233.730 Z4.000
G1 X1962.397 Y1233.707 Z4.000
G1 X1963.837 Y1233.830 Z4.000
G1 X1965.098 Y1234.087 Z4.000
G1 X1966.190 Y1234.469 Z4.000
G1 X1967.126 Y1234.961 Z4.000
G1 X1967.917 Y1235.552 Z4.000
G1 X1968.577 Y1236.229 Z4.000
G1 X1969.117 Y1236.981 Z4.000
G1 X1969.548 Y1237.794 Z4.000
G1 X1969.884 Y1238.657 Z4.000
G1 X1970.135 Y1239.557 Z4.000
G1 X1970.315 Y1240.483 Z4.000
G1 X1970.472 Y1241.734 Z4.000
G1 X1970.553 Y1243.595 Z4.000
G1 X1970.556 Y1244.770 Z4.000
G1 X1970.556 Y1259.824 Z4.000
G1 X1970.514 Y1261.874 Z4.000
G1 X1970.373 Y1263.555 Z4.000
G1 X1970.226 Y1264.534 Z4.000
G1 X1970.015 Y1265.476 Z4.000
G1 X1969.730 Y1266.372 Z4.000
G1 X1969.361 Y1267.213 Z4.000
G1 X1968.894 Y1267.986 Z4.000
G1 X1968.321 Y1268.684 Z4.000
G1 X1967.629 Y1269.294 Z4.000
G1 X1966.807 Y1269.808 Z4.000
G1 X1965.845 Y1270.214 Z4.000
G1 X1964.730 Y1270.504 Z4.000
G1 X1963.453 Y1270.665 Z4.000
G1 X1961.972 Y1270.689 Z4.000
G1 X1960.561 Y1270.568 Z4.000
G1 X1959.330 Y1270.312 Z4.000
G1 X1958.267 Y1269.938 Z4.000
G1 X1957.359 Y1269.457 Z4.000
G1 X1956.594 Y1268.885 Z4.000
G1 X1955.960 Y1268.235 Z4.000
G1 X1955.444 Y1267.522 Z4.000
G1 X1955.035 Y1266.758 Z4.000
G1 X1954.721 Y1265.958 Z4.000
G1 X1954.487 Y1265.136 Z4.000
G1 X1954.324 Y1264.306 Z4.000
G1 X1954.185 Y1263.207 Z4.000
G1 X1954.119 Y1261.649 Z4.000
G1 X1954.119 Y1260.733 Z4.000
G1 X1954.119 Y1242.716 Z4.000
G0 X1954.119 Y1242.716 Z0.000

(shape postamble)


(shape preamble)

G0 X2085.669 Y1192.616 Z0.000
G1 X2085.669 Y1192.616 Z4.000
G1 X2085.669 Y1191.470 Z4.000
G1 X2085.602 Y1188.310 Z4.000
G1 X2085.467 Y1186.334 Z4.000
G1 X2085.221 Y1184.325 Z4.000
G1 X2084.829 Y1182.313 Z4.000
G1 X2084.359 Y1180.657 Z4.000
G1 X2084.014 Y1179.680 Z4.000
G1 X2083.613 Y1178.719 Z4.000
G1 X2083.151 Y1177.779 Z4.000
G1 X2082.625 Y1176.863 Z4.000
G1 X2082.031 Y1175.976 Z4.000
G1 X2081.363 Y1175.120 Z4.000
G1 X2080.619 Y1174.300 Z4.000
G1 X2079.794 Y1173.519 Z4.000
G1 X2078.883 Y1172.782 Z4.000
G1 X2077.883 Y1172.091 Z4.000
G1 X2076.790 Y1171.451 Z4.000
G1 X2075.598 Y1170.866 Z4.000
G1 X2074.304 Y1170.339 Z4.000
G1 X2072.904 Y1169.873 Z4.000
G1 X2071.393 Y1169.474 Z4.000
G1 X2069.768 Y1169.144 Z4.000
G1 X2068.024 Y1168.887 Z4.000
G1 X2066.156 Y1168.707 Z4.000
G1 X2064.162 Y1168.608 Z4.000
G1 X2062.090 Y1168.593 Z4.000
G1 X2060.207 Y1168.668 Z4.000
G1 X2058.442 Y1168.829 Z4.000
G1 X2056.793 Y1169.071 Z4.000
G1 X2055.255 Y1169.389 Z4.000
G1 X2053.824 Y1169.780 Z4.000
G1 X2052.497 Y1170.238 Z4.000
G1 X2051.269 Y1170.760 Z4.000
G1 X2050.136 Y1171.341 Z4.000
G1 X2049.096 Y1171.976 Z4.000
G1 X2048.143 Y1172.660 Z4.000
G1 X2047.274 Y1173.390 Z4.000
G1 X2046.486 Y1174.161 Z4.000
G1 X2045.774 Y1174.969 Z4.000
G1 X2045.134 Y1175.808 Z4.000
G1 X2044.563 Y1176.674 Z4.000
G1 X2044.056 Y1177.563 Z4.000
G1 X2043.610 Y1178.471 Z4.000
G1 X2043.094 Y1179.701 Z4.000
G1 X2042.505 Y1181.572 Z4.000
G1 X2042.091 Y1183.440 Z4.000
G1 X2041.822 Y1185.267 Z4.000
G1 X2041.667 Y1187.019 Z4.000
G1 X2041.574 Y1189.198 Z4.000
G1 X2041.574 Y1191.035 Z4.000
G1 X2041.574 Y1202.415 Z4.000
G1 X2054.534 Y1202.415 Z4.000
G1 X2054.534 Y1189.495 Z4.000
G1 X2054.641 Y1187.888 Z4.000
G1 X2054.865 Y1186.477 Z4.000
G1 X2055.195 Y1185.247 Z4.000
G1 X2055.618 Y1184.186 Z4.000
G1 X2056.122 Y1183.283 Z4.000
G1 X2056.695 Y1182.524 Z4.000
G1 X2057.326 Y1181.897 Z4.000
G1 X2058.001 Y1181.390 Z4.000
G1 X2058.709 Y1180.989 Z4.000
G1 X2059.439 Y1180.683 Z4.000
G1 X2060.177 Y1180.459 Z4.000
G1 X2061.157 Y1180.256 Z4.000
G1 X2062.555 Y1180.138 Z4.000
G1 X2063.928 Y1180.130 Z4.000
G1 X2065.395 Y1180.256 Z4.000
G1 X2066.679 Y1180.521 Z4.000
G1 X2067.791 Y1180.914 Z4.000
G1 X2068.744 Y1181.422 Z4.000
G1 X2069.550 Y1182.033 Z4.000
G1 X2070.222 Y1182.736 Z4.000
G1 X2070.771 Y1183.518 Z4.000
G1 X2071.210 Y1184.368 Z4.000
G1 X2071.552 Y1185.273 Z4.000
G1 X2071.808 Y1186.221 Z4.000
G1 X2071.990 Y1187.200 Z4.000
G1 X2072.150 Y1188.531 Z4.000
G1 X2072.232 Y1190.537 Z4.000
G1 X2072.235 Y1191.826 Z4.000
G1 X2071.939 Y1219.434 Z4.000
G1 X2071.044 Y1218.434 Z4.000
G1 X2070.145 Y1217.544 Z4.000
G1 X2069.242 Y1216.759 Z4.000
G1 X2068.338 Y1216.071 Z4.000
G1 X2067.435 Y1215.475 Z4.000
G1 X2066.534 Y1214.963 Z4.000
G1 X2065.638 Y1214.531 Z4.000
G1 X2064.748 Y1214.171 Z4.000
G1 X2063.865 Y1213.878 Z4.000
G1 X2062.703 Y1213.571 Z4.000
G1 X2061.004 Y1213.294 Z4.000
G1 X2059.369 Y1213.174 Z4.000
G1 X2057.789 Y1213.161 Z4.000
G1 X2056.257 Y1213.233 Z4.000
G1 X2054.822 Y1213.385 Z4.000
G1 X2053.480 Y1213.615 Z4.000
G1 X2052.229 Y1213.919 Z4.000
G1 X2051.065 Y1214.291 Z4.000
G1 X2049.985 Y1214.729 Z4.000
G1 X2048.986 Y1215.227 Z4.000
G1 X2048.065 Y1215.782 Z4.000
G1 X2047.219 Y1216.389 Z4.000
G1 X2046.444 Y1217.045 Z4.000
G1 X2045.737 Y1217.746 Z4.000
G1 X2045.096 Y1218.486 Z4.000
G1 X2044.516 Y1219.262 Z4.000
G1 X2043.996 Y1220.071 Z4.000
G1 X2043.531 Y1220.907 Z4.000
G1 X2042.984 Y1222.054 Z4.000
G1 X2042.337 Y1223.839 Z4.000
G1 X2041.857 Y1225.662 Z4.000
G1 X2041.521 Y1227.492 Z4.000
G1 X2041.302 Y1229.295 Z4.000
G1 X2041.176 Y1231.038 Z4.000
G1 X2041.100 Y1233.231 Z4.000
G1 X2041.100 Y1235.130 Z4.000
G1 X2041.100 Y1261.681 Z4.000
G1 X2041.166 Y1263.900 Z4.000
G1 X2041.297 Y1265.450 Z4.000
G1 X2041.538 Y1267.132 Z4.000
G1 X2041.922 Y1268.907 Z4.000
G1 X2042.481 Y1270.732 Z4.000
G1 X2043.114 Y1272.261 Z4.000
G1 X2043.566 Y1273.171 Z4.000
G1 X2044.081 Y1274.070 Z4.000
G1 X2044.663 Y1274.952 Z4.000
G1 X2045.316 Y1275.813 Z4.000
G1 X2046.045 Y1276.647 Z4.000
G1 X2046.853 Y1277.449 Z4.000
G1 X2047.745 Y1278.213 Z4.000
G1 X2048.724 Y1278.936 Z4.000
G1 X2049.795 Y1279.611 Z4.000
G1 X2050.962 Y1280.233 Z4.000
G1 X2052.229 Y1280.798 Z4.000
G1 X2053.601 Y1281.300 Z4.000
G1 X2055.080 Y1281.733 Z4.000
G1 X2056.672 Y1282.094 Z4.000
G1 X2058.380 Y1282.376 Z4.000
G1 X2060.208 Y1282.575 Z4.000
G1 X2062.161 Y1282.685 Z4.000
G1 X2063.977 Y1282.701 Z4.000
G1 X2065.464 Y1282.655 Z4.000
G1 X2067.128 Y1282.527 Z4.000
G1 X2068.926 Y1282.290 Z4.000
G1 X2070.813 Y1281.916 Z4.000
G1 X2072.744 Y1281.377 Z4.000
G1 X2074.354 Y1280.773 Z4.000
G1 X2075.309 Y1280.344 Z4.000
G1 X2076.249 Y1279.858 Z4.000
G1 X2077.169 Y1279.312 Z4.000
G1 X2078.260 Y1278.572 Z4.000
G1 X2079.591 Y1277.514 Z4.000
G1 X2080.753 Y1276.401 Z4.000
G1 X2081.756 Y1275.239 Z4.000
G1 X2082.613 Y1274.034 Z4.000
G1 X2083.334 Y1272.793 Z4.000
G1 X2083.932 Y1271.520 Z4.000
G1 X2084.419 Y1270.223 Z4.000
G1 X2084.804 Y1268.907 Z4.000
G1 X2085.101 Y1267.578 Z4.000
G1 X2085.321 Y1266.242 Z4.000
G1 X2085.476 Y1264.905 Z4.000
G1 X2085.607 Y1263.131 Z4.000
G1 X2085.669 Y1260.518 Z4.000
G1 X2085.669 Y1258.836 Z4.000
G1 X2085.669 Y1192.616 Z4.000
G1 X2085.669 Y1192.616 Z4.000
G0 X2085.669 Y1192.616 Z0.000

(shape postamble)


(shape preamble)

G0 X2054.376 Y1235.604 Z0.000
G1 X2054.376 Y1235.604 Z4.000
G1 X2054.376 Y1235.090 Z4.000
G1 X2054.410 Y1233.399 Z4.000
G1 X2054.546 Y1231.919 Z4.000
G1 X2054.694 Y1231.032 Z4.000
G1 X2054.911 Y1230.157 Z4.000
G1 X2055.208 Y1229.310 Z4.000
G1 X2055.598 Y1228.502 Z4.000
G1 X2056.095 Y1227.746 Z4.000
G1 X2056.710 Y1227.056 Z4.000
G1 X2057.457 Y1226.444 Z4.000
G1 X2058.349 Y1225.923 Z4.000
G1 X2059.397 Y1225.507 Z4.000
G1 X2060.615 Y1225.209 Z4.000
G1 X2062.016 Y1225.040 Z4.000
G1 X2063.641 Y1225.015 Z4.000
G1 X2065.185 Y1225.151 Z4.000
G1 X2066.533 Y1225.437 Z4.000
G1 X2067.696 Y1225.855 Z4.000
G1 X2068.690 Y1226.389 Z4.000
G1 X2069.527 Y1227.023 Z4.000
G1 X2070.221 Y1227.742 Z4.000
G1 X2070.785 Y1228.528 Z4.000
G1 X2071.232 Y1229.366 Z4.000
G1 X2071.577 Y1230.239 Z4.000
G1 X2071.832 Y1231.131 Z4.000
G1 X2072.011 Y1232.026 Z4.000
G1 X2072.163 Y1233.201 Z4.000
G1 X2072.235 Y1234.833 Z4.000
G1 X2072.235 Y1235.762 Z4.000
G1 X2072.235 Y1261.266 Z4.000
G1 X2072.200 Y1263.028 Z4.000
G1 X2072.059 Y1264.571 Z4.000
G1 X2071.905 Y1265.498 Z4.000
G1 X2071.681 Y1266.412 Z4.000
G1 X2071.373 Y1267.298 Z4.000
G1 X2070.968 Y1268.143 Z4.000
G1 X2070.453 Y1268.934 Z4.000
G1 X2069.815 Y1269.657 Z4.000
G1 X2069.041 Y1270.298 Z4.000
G1 X2068.118 Y1270.843 Z4.000
G1 X2067.031 Y1271.279 Z4.000
G1 X2065.769 Y1271.592 Z4.000
G1 X2064.317 Y1271.769 Z4.000
G1 X2062.673 Y1271.796 Z4.000
G1 X2061.182 Y1271.674 Z4.000
G1 X2059.881 Y1271.418 Z4.000
G1 X2058.758 Y1271.042 Z4.000
G1 X2057.799 Y1270.560 Z4.000
G1 X2056.990 Y1269.986 Z4.000
G1 X2056.321 Y1269.332 Z4.000
G1 X2055.776 Y1268.613 Z4.000
G1 X2055.344 Y1267.842 Z4.000
G1 X2055.011 Y1267.033 Z4.000
G1 X2054.765 Y1266.200 Z4.000
G1 X2054.592 Y1265.356 Z4.000
G1 X2054.445 Y1264.236 Z4.000
G1 X2054.376 Y1262.634 Z4.000
G1 X2054.376 Y1261.681 Z4.000
G1 X2054.376 Y1235.604 Z4.000
G1 X2054.376 Y1235.604 Z4.000
G0 X2054.376 Y1235.604 Z0.000

(shape postamble)


(shape preamble)

G0 X1721.898 Y1121.834 Z0.000
G1 X1721.898 Y1121.834 Z4.000
G1 X1727.733 Y1121.834 Z4.000
G1 X1728.257 Y1121.651 Z4.000
G1 X1728.665 Y1121.292 Z4.000
G1 X1728.911 Y1120.802 Z4.000
G1 X1728.951 Y1120.421 Z4.000
G1 X1728.951 Y1118.819 Z4.000
G1 X1728.768 Y1118.295 Z4.000
G1 X1728.409 Y1117.887 Z4.000
G1 X1727.919 Y1117.640 Z4.000
G1 X1727.537 Y1117.601 Z4.000
G1 X1721.702 Y1117.601 Z4.000
G1 X1721.178 Y1117.418 Z4.000
G1 X1720.770 Y1117.059 Z4.000
G1 X1720.524 Y1116.568 Z4.000
G1 X1720.484 Y1116.187 Z4.000
G1 X1720.484 Y1114.586 Z4.000
G1 X1720.667 Y1114.061 Z4.000
G1 X1721.026 Y1113.653 Z4.000
G1 X1721.516 Y1113.407 Z4.000
G1 X1721.898 Y1113.367 Z4.000
G1 X1731.966 Y1113.367 Z4.000
G1 X1732.490 Y1113.550 Z4.000
G1 X1732.898 Y1113.909 Z4.000
G1 X1733.145 Y1114.400 Z4.000
G1 X1733.184 Y1114.781 Z4.000
G1 X1733.184 Y1124.849 Z4.000
G1 X1733.002 Y1125.373 Z4.000
G1 X1732.642 Y1125.781 Z4.000
G1 X1732.152 Y1126.028 Z4.000
G1 X1731.771 Y1126.067 Z4.000
G1 X1725.936 Y1126.067 Z4.000
G1 X1725.412 Y1126.250 Z4.000
G1 X1725.004 Y1126.609 Z4.000
G1 X1724.757 Y1127.100 Z4.000
G1 X1724.718 Y1127.481 Z4.000
G1 X1724.718 Y1129.083 Z4.000
G1 X1724.900 Y1129.607 Z4.000
G1 X1725.259 Y1130.015 Z4.000
G1 X1725.750 Y1130.261 Z4.000
G1 X1726.131 Y1130.301 Z4.000
G1 X1731.966 Y1130.301 Z4.000
G1 X1732.490 Y1130.483 Z4.000
G1 X1732.898 Y1130.843 Z4.000
G1 X1733.145 Y1131.333 Z4.000
G1 X1733.184 Y1131.714 Z4.000
G1 X1733.184 Y1133.316 Z4.000
G1 X1733.002 Y1133.840 Z4.000
G1 X1732.642 Y1134.248 Z4.000
G1 X1732.152 Y1134.495 Z4.000
G1 X1731.771 Y1134.534 Z4.000
G1 X1721.702 Y1134.534 Z4.000
G1 X1721.178 Y1134.351 Z4.000
G1 X1720.770 Y1133.992 Z4.000
G1 X1720.524 Y1133.502 Z4.000
G1 X1720.484 Y1133.121 Z4.000
G1 X1720.484 Y1123.052 Z4.000
G1 X1720.667 Y1122.528 Z4.000
G1 X1721.026 Y1122.120 Z4.000
G1 X1721.516 Y1121.874 Z4.000
G1 X1721.898 Y1121.834 Z4.000
G0 X1721.898 Y1121.834 Z0.000

(shape postamble)


(shape preamble)

G0 X1788.218 Y1133.121 Z0.000
G1 X1788.218 Y1133.121 Z4.000
G1 X1788.218 Y1131.519 Z4.000
G1 X1788.400 Y1130.995 Z4.000
G1 X1788.759 Y1130.587 Z4.000
G1 X1789.250 Y1130.340 Z4.000
G1 X1789.631 Y1130.301 Z4.000
G1 X1791.233 Y1130.301 Z4.000
G1 X1791.757 Y1130.118 Z4.000
G1 X1792.165 Y1129.759 Z4.000
G1 X1792.411 Y1129.268 Z4.000
G1 X1792.451 Y1128.887 Z4.000
G1 X1792.451 Y1114.586 Z4.000
G1 X1792.633 Y1114.061 Z4.000
G1 X1792.993 Y1113.653 Z4.000
G1 X1793.483 Y1113.407 Z4.000
G1 X1793.864 Y1113.367 Z4.000
G1 X1795.466 Y1113.367 Z4.000
G1 X1795.990 Y1113.550 Z4.000
G1 X1796.398 Y1113.909 Z4.000
G1 X1796.645 Y1114.400 Z4.000
G1 X1796.684 Y1114.781 Z4.000
G1 X1796.684 Y1129.083 Z4.000
G1 X1796.867 Y1129.607 Z4.000
G1 X1797.226 Y1130.015 Z4.000
G1 X1797.716 Y1130.261 Z4.000
G1 X1798.098 Y1130.301 Z4.000
G1 X1799.699 Y1130.301 Z4.000
G1 X1800.223 Y1130.483 Z4.000
G1 X1800.631 Y1130.843 Z4.000
G1 X1800.878 Y1131.333 Z4.000
G1 X1800.917 Y1131.714 Z4.000
G1 X1800.917 Y1133.316 Z4.000
G1 X1800.735 Y1133.840 Z4.000
G1 X1800.376 Y1134.248 Z4.000
G1 X1799.885 Y1134.495 Z4.000
G1 X1799.504 Y1134.534 Z4.000
G1 X1789.436 Y1134.534 Z4.000
G1 X1788.912 Y1134.351 Z4.000
G1 X1788.504 Y1133.992 Z4.000
G1 X1788.257 Y1133.502 Z4.000
G1 X1788.218 Y1133.121 Z4.000
G0 X1788.218 Y1133.121 Z0.000

(shape postamble)


(shape preamble)

G0 X1740.238 Y1134.534 Z0.000
G1 X1740.238 Y1134.534 Z4.000
G1 X1738.636 Y1134.534 Z4.000
G1 X1738.112 Y1134.351 Z4.000
G1 X1737.704 Y1133.992 Z4.000
G1 X1737.457 Y1133.502 Z4.000
G1 X1737.418 Y1133.121 Z4.000
G1 X1737.418 Y1117.601 Z4.000
G1 X1737.418 Y1114.586 Z4.000
G1 X1737.600 Y1114.061 Z4.000
G1 X1737.959 Y1113.653 Z4.000
G1 X1738.450 Y1113.407 Z4.000
G1 X1738.831 Y1113.367 Z4.000
G1 X1741.651 Y1113.367 Z4.000
G1 X1748.899 Y1113.367 Z4.000
G1 X1749.423 Y1113.550 Z4.000
G1 X1749.832 Y1113.909 Z4.000
G1 X1750.078 Y1114.400 Z4.000
G1 X1750.118 Y1114.781 Z4.000
G1 X1750.118 Y1116.383 Z4.000
G1 X1749.935 Y1116.907 Z4.000
G1 X1749.576 Y1117.315 Z4.000
G1 X1749.085 Y1117.561 Z4.000
G1 X1748.704 Y1117.601 Z4.000
G1 X1742.869 Y1117.601 Z4.000
G1 X1742.345 Y1117.783 Z4.000
G1 X1741.937 Y1118.143 Z4.000
G1 X1741.690 Y1118.633 Z4.000
G1 X1741.651 Y1119.014 Z4.000
G1 X1741.651 Y1133.316 Z4.000
G1 X1741.468 Y1133.840 Z4.000
G1 X1741.109 Y1134.248 Z4.000
G1 X1740.619 Y1134.495 Z4.000
G1 X1740.238 Y1134.534 Z4.000
G0 X1740.238 Y1134.534 Z0.000

(shape postamble)


(shape preamble)

G0 X1755.764 Y1134.534 Z0.000
G1 X1755.764 Y1134.534 Z4.000
G1 X1755.569 Y1134.534 Z4.000
G1 X1755.045 Y1134.351 Z4.000
G1 X1754.637 Y1133.992 Z4.000
G1 X1754.390 Y1133.502 Z4.000
G1 X1754.351 Y1133.121 Z4.000
G1 X1754.351 Y1130.301 Z4.000
G1 X1754.351 Y1126.067 Z4.000
G1 X1754.351 Y1121.834 Z4.000
G1 X1754.351 Y1117.601 Z4.000
G1 X1754.351 Y1114.586 Z4.000
G1 X1754.533 Y1114.061 Z4.000
G1 X1754.893 Y1113.653 Z4.000
G1 X1755.383 Y1113.407 Z4.000
G1 X1755.764 Y1113.367 Z4.000
G1 X1758.584 Y1113.367 Z4.000
G1 X1765.833 Y1113.367 Z4.000
G1 X1766.357 Y1113.550 Z4.000
G1 X1766.765 Y1113.909 Z4.000
G1 X1767.011 Y1114.400 Z4.000
G1 X1767.051 Y1114.781 Z4.000
G1 X1767.051 Y1116.383 Z4.000
G1 X1766.868 Y1116.907 Z4.000
G1 X1766.509 Y1117.315 Z4.000
G1 X1766.019 Y1117.561 Z4.000
G1 X1765.638 Y1117.601 Z4.000
G1 X1759.802 Y1117.601 Z4.000
G1 X1759.278 Y1117.783 Z4.000
G1 X1758.870 Y1118.143 Z4.000
G1 X1758.624 Y1118.633 Z4.000
G1 X1758.584 Y1119.014 Z4.000
G1 X1758.584 Y1120.616 Z4.000
G1 X1758.767 Y1121.140 Z4.000
G1 X1759.126 Y1121.548 Z4.000
G1 X1759.617 Y1121.794 Z4.000
G1 X1759.998 Y1121.834 Z4.000
G1 X1765.833 Y1121.834 Z4.000
G1 X1766.357 Y1122.017 Z4.000
G1 X1766.765 Y1122.376 Z4.000
G1 X1767.011 Y1122.866 Z4.000
G1 X1767.051 Y1123.247 Z4.000
G1 X1767.051 Y1124.849 Z4.000
G1 X1766.868 Y1125.373 Z4.000
G1 X1766.509 Y1125.781 Z4.000
G1 X1766.019 Y1126.028 Z4.000
G1 X1765.638 Y1126.067 Z4.000
G1 X1759.802 Y1126.067 Z4.000
G1 X1759.278 Y1126.250 Z4.000
G1 X1758.870 Y1126.609 Z4.000
G1 X1758.624 Y1127.100 Z4.000
G1 X1758.584 Y1127.481 Z4.000
G1 X1758.584 Y1129.083 Z4.000
G1 X1758.767 Y1129.607 Z4.000
G1 X1759.126 Y1130.015 Z4.000
G1 X1759.617 Y1130.261 Z4.000
G1 X1759.998 Y1130.301 Z4.000
G1 X1765.833 Y1130.301 Z4.000
G1 X1766.357 Y1130.483 Z4.000
G1 X1766.765 Y1130.843 Z4.000
G1 X1767.011 Y1131.333 Z4.000
G1 X1767.051 Y1131.714 Z4.000
G1 X1767.051 Y1133.316 Z4.000
G1 X1766.868 Y1133.840 Z4.000
G1 X1766.509 Y1134.248 Z4.000
G1 X1766.019 Y1134.495 Z4.000
G1 X1765.638 Y1134.534 Z4.000
G1 X1758.584 Y1134.534 Z4.000
G1 X1755.764 Y1134.534 Z4.000
G1 X1755.764 Y1134.534 Z4.000
G0 X1755.764 Y1134.534 Z0.000

(shape postamble)


(shape preamble)

G0 X1772.698 Y1134.534 Z0.000
G1 X1772.698 Y1134.534 Z4.000
G1 X1772.502 Y1134.534 Z4.000
G1 X1771.978 Y1134.351 Z4.000
G1 X1771.570 Y1133.992 Z4.000
G1 X1771.324 Y1133.502 Z4.000
G1 X1771.284 Y1133.121 Z4.000
G1 X1771.284 Y1130.301 Z4.000
G1 X1771.284 Y1126.067 Z4.000
G1 X1771.284 Y1121.834 Z4.000
G1 X1771.284 Y1117.601 Z4.000
G1 X1771.284 Y1114.586 Z4.000
G1 X1771.467 Y1114.061 Z4.000
G1 X1771.826 Y1113.653 Z4.000
G1 X1772.316 Y1113.407 Z4.000
G1 X1772.698 Y1113.367 Z4.000
G1 X1775.518 Y1113.367 Z4.000
G1 X1782.766 Y1113.367 Z4.000
G1 X1783.290 Y1113.550 Z4.000
G1 X1783.698 Y1113.909 Z4.000
G1 X1783.945 Y1114.400 Z4.000
G1 X1783.984 Y1114.781 Z4.000
G1 X1783.984 Y1116.383 Z4.000
G1 X1783.802 Y1116.907 Z4.000
G1 X1783.442 Y1117.315 Z4.000
G1 X1782.952 Y1117.561 Z4.000
G1 X1782.571 Y1117.601 Z4.000
G1 X1776.736 Y1117.601 Z4.000
G1 X1776.212 Y1117.783 Z4.000
G1 X1775.804 Y1118.143 Z4.000
G1 X1775.557 Y1118.633 Z4.000
G1 X1775.518 Y1119.014 Z4.000
G1 X1775.518 Y1120.616 Z4.000
G1 X1775.700 Y1121.140 Z4.000
G1 X1776.059 Y1121.548 Z4.000
G1 X1776.550 Y1121.794 Z4.000
G1 X1776.931 Y1121.834 Z4.000
G1 X1782.766 Y1121.834 Z4.000
G1 X1783.290 Y1122.017 Z4.000
G1 X1783.698 Y1122.376 Z4.000
G1 X1783.945 Y1122.866 Z4.000
G1 X1783.984 Y1123.247 Z4.000
G1 X1783.984 Y1124.849 Z4.000
G1 X1783.802 Y1125.373 Z4.000
G1 X1783.442 Y1125.781 Z4.000
G1 X1782.952 Y1126.028 Z4.000
G1 X1782.571 Y1126.067 Z4.000
G1 X1776.736 Y1126.067 Z4.000
G1 X1776.212 Y1126.250 Z4.000
G1 X1775.804 Y1126.609 Z4.000
G1 X1775.557 Y1127.100 Z4.000
G1 X1775.518 Y1127.481 Z4.000
G1 X1775.518 Y1129.083 Z4.000
G1 X1775.700 Y1129.607 Z4.000
G1 X1776.059 Y1130.015 Z4.000
G1 X1776.550 Y1130.261 Z4.000
G1 X1776.931 Y1130.301 Z4.000
G1 X1782.766 Y1130.301 Z4.000
G1 X1783.290 Y1130.483 Z4.000
G1 X1783.698 Y1130.843 Z4.000
G1 X1783.945 Y1131.333 Z4.000
G1 X1783.984 Y1131.714 Z4.000
G1 X1783.984 Y1133.316 Z4.000
G1 X1783.802 Y1133.840 Z4.000
G1 X1783.442 Y1134.248 Z4.000
G1 X1782.952 Y1134.495 Z4.000
G1 X1782.571 Y1134.534 Z4.000
G1 X1775.518 Y1134.534 Z4.000
G1 X1772.698 Y1134.534 Z4.000
G1 X1772.698 Y1134.534 Z4.000
G0 X1772.698 Y1134.534 Z0.000

(shape postamble)


(shape preamble)

G0 X1552.391 Y134.227 Z0.000
G1 X1552.391 Y134.227 Z4.000
G1 X1551.137 Y131.226 Z4.000
G1 X1555.370 Y135.460 Z4.000
G1 X1559.603 Y131.226 Z4.000
G1 X1555.370 Y126.993 Z4.000
G1 X1551.137 Y131.226 Z4.000
G0 X1551.137 Y131.226 Z0.000

(shape postamble)


(shape preamble)

G0 X1552.391 Y32.627 Z0.000
G1 X1552.391 Y32.627 Z4.000
G1 X1551.136 Y29.627 Z4.000
G1 X1555.369 Y33.860 Z4.000
G1 X1559.603 Y29.627 Z4.000
G1 X1555.369 Y25.394 Z4.000
G1 X1551.136 Y29.627 Z4.000
G0 X1551.136 Y29.627 Z0.000

(shape postamble)


(shape preamble)

G0 X1450.791 Y134.227 Z0.000
G1 X1450.791 Y134.227 Z4.000
G1 X1449.537 Y131.227 Z4.000
G1 X1453.771 Y135.460 Z4.000
G1 X1458.004 Y131.227 Z4.000
G1 X1453.771 Y126.994 Z4.000
G1 X1449.537 Y131.227 Z4.000
G0 X1449.537 Y131.227 Z0.000

(shape postamble)


(shape preamble)

G0 X1447.434 Y207.433 Z0.000
G1 X1447.434 Y207.433 Z4.000
G1 X1460.134 Y207.433 Z4.000
G1 X1460.134 Y156.633 Z4.000
G1 X1447.434 Y156.633 Z4.000
G1 X1447.434 Y207.433 Z4.000
G0 X1447.434 Y207.433 Z0.000

(shape postamble)


(shape preamble)

G0 X1450.791 Y235.827 Z0.000
G1 X1450.791 Y235.827 Z4.000
G1 X1449.538 Y232.826 Z4.000
G1 X1453.771 Y237.060 Z4.000
G1 X1458.005 Y232.826 Z4.000
G1 X1453.771 Y228.593 Z4.000
G1 X1449.538 Y232.826 Z4.000
G0 X1449.538 Y232.826 Z0.000

(shape postamble)


(shape preamble)

G0 X1447.434 Y309.034 Z0.000
G1 X1447.434 Y309.034 Z4.000
G1 X1460.134 Y309.034 Z4.000
G1 X1460.134 Y258.233 Z4.000
G1 X1447.434 Y258.233 Z4.000
G1 X1447.434 Y309.034 Z4.000
G0 X1447.434 Y309.034 Z0.000

(shape postamble)


(shape preamble)

G0 X1450.791 Y337.427 Z0.000
G1 X1450.791 Y337.427 Z4.000
G1 X1449.539 Y334.426 Z4.000
G1 X1453.772 Y338.659 Z4.000
G1 X1458.005 Y334.426 Z4.000
G1 X1453.772 Y330.193 Z4.000
G1 X1449.539 Y334.426 Z4.000
G0 X1449.539 Y334.426 Z0.000

(shape postamble)


(shape preamble)

G0 X1447.434 Y410.634 Z0.000
G1 X1447.434 Y410.634 Z4.000
G1 X1460.134 Y410.634 Z4.000
G1 X1460.134 Y359.834 Z4.000
G1 X1447.434 Y359.834 Z4.000
G1 X1447.434 Y410.634 Z4.000
G0 X1447.434 Y410.634 Z0.000

(shape postamble)


(shape preamble)

G0 X1450.791 Y439.027 Z0.000
G1 X1450.791 Y439.027 Z4.000
G1 X1449.539 Y436.025 Z4.000
G1 X1453.773 Y440.259 Z4.000
G1 X1458.006 Y436.025 Z4.000
G1 X1453.773 Y431.792 Z4.000
G1 X1449.539 Y436.025 Z4.000
G0 X1449.539 Y436.025 Z0.000

(shape postamble)


(shape preamble)

G0 X1447.434 Y512.234 Z0.000
G1 X1447.434 Y512.234 Z4.000
G1 X1460.134 Y512.234 Z4.000
G1 X1460.134 Y461.434 Z4.000
G1 X1447.434 Y461.434 Z4.000
G1 X1447.434 Y512.234 Z4.000
G0 X1447.434 Y512.234 Z0.000

(shape postamble)


(shape preamble)

G0 X1450.791 Y540.627 Z0.000
G1 X1450.791 Y540.627 Z4.000
G1 X1449.540 Y537.625 Z4.000
G1 X1453.773 Y541.858 Z4.000
G1 X1458.007 Y537.625 Z4.000
G1 X1453.773 Y533.391 Z4.000
G1 X1449.540 Y537.625 Z4.000
G0 X1449.540 Y537.625 Z0.000

(shape postamble)


(shape preamble)

G0 X1447.434 Y613.834 Z0.000
G1 X1447.434 Y613.834 Z4.000
G1 X1460.134 Y613.834 Z4.000
G1 X1460.134 Y563.034 Z4.000
G1 X1447.434 Y563.034 Z4.000
G1 X1447.434 Y613.834 Z4.000
G0 X1447.434 Y613.834 Z0.000

(shape postamble)


(shape preamble)

G0 X1450.791 Y642.227 Z0.000
G1 X1450.791 Y642.227 Z4.000
G1 X1449.541 Y639.224 Z4.000
G1 X1453.774 Y643.457 Z4.000
G1 X1458.007 Y639.224 Z4.000
G1 X1453.774 Y634.991 Z4.000
G1 X1449.541 Y639.224 Z4.000
G0 X1449.541 Y639.224 Z0.000

(shape postamble)


(shape preamble)

G0 X1447.434 Y715.434 Z0.000
G1 X1447.434 Y715.434 Z4.000
G1 X1460.134 Y715.434 Z4.000
G1 X1460.134 Y664.634 Z4.000
G1 X1447.434 Y664.634 Z4.000
G1 X1447.434 Y715.434 Z4.000
G0 X1447.434 Y715.434 Z0.000

(shape postamble)


(shape preamble)

G0 X1450.791 Y743.827 Z0.000
G1 X1450.791 Y743.827 Z4.000
G1 X1449.541 Y740.823 Z4.000
G1 X1453.775 Y745.057 Z4.000
G1 X1458.008 Y740.823 Z4.000
G1 X1453.775 Y736.590 Z4.000
G1 X1449.541 Y740.823 Z4.000
G0 X1449.541 Y740.823 Z0.000

(shape postamble)


(shape preamble)

G0 X1447.434 Y817.034 Z0.000
G1 X1447.434 Y817.034 Z4.000
G1 X1460.134 Y817.034 Z4.000
G1 X1460.134 Y766.234 Z4.000
G1 X1447.434 Y766.234 Z4.000
G1 X1447.434 Y817.034 Z4.000
G0 X1447.434 Y817.034 Z0.000

(shape postamble)


(shape preamble)

G0 X1450.791 Y845.427 Z0.000
G1 X1450.791 Y845.427 Z4.000
G1 X1449.542 Y842.423 Z4.000
G1 X1453.775 Y846.656 Z4.000
G1 X1458.009 Y842.423 Z4.000
G1 X1453.775 Y838.189 Z4.000
G1 X1449.542 Y842.423 Z4.000
G0 X1449.542 Y842.423 Z0.000

(shape postamble)


(shape preamble)

G0 X1447.434 Y918.634 Z0.000
G1 X1447.434 Y918.634 Z4.000
G1 X1460.134 Y918.634 Z4.000
G1 X1460.134 Y867.834 Z4.000
G1 X1447.434 Y867.834 Z4.000
G1 X1447.434 Y918.634 Z4.000
G0 X1447.434 Y918.634 Z0.000

(shape postamble)


(shape preamble)

G0 X1450.791 Y947.027 Z0.000
G1 X1450.791 Y947.027 Z4.000
G1 X1449.543 Y944.022 Z4.000
G1 X1453.776 Y948.255 Z4.000
G1 X1458.009 Y944.022 Z4.000
G1 X1453.776 Y939.789 Z4.000
G1 X1449.543 Y944.022 Z4.000
G0 X1449.543 Y944.022 Z0.000

(shape postamble)


(shape preamble)

G0 X1447.434 Y1020.234 Z0.000
G1 X1447.434 Y1020.234 Z4.000
G1 X1460.134 Y1020.234 Z4.000
G1 X1460.134 Y969.434 Z4.000
G1 X1447.434 Y969.434 Z4.000
G1 X1447.434 Y1020.234 Z4.000
G0 X1447.434 Y1020.234 Z0.000

(shape postamble)


(shape preamble)

G0 X1450.791 Y1048.627 Z0.000
G1 X1450.791 Y1048.627 Z4.000
G1 X1449.543 Y1045.621 Z4.000
G1 X1453.777 Y1049.855 Z4.000
G1 X1458.010 Y1045.621 Z4.000
G1 X1453.777 Y1041.388 Z4.000
G1 X1449.543 Y1045.621 Z4.000
G0 X1449.543 Y1045.621 Z0.000

(shape postamble)


(shape preamble)

G0 X1447.434 Y1121.834 Z0.000
G1 X1447.434 Y1121.834 Z4.000
G1 X1460.134 Y1121.834 Z4.000
G1 X1460.134 Y1071.034 Z4.000
G1 X1447.434 Y1071.034 Z4.000
G1 X1447.434 Y1121.834 Z4.000
G0 X1447.434 Y1121.834 Z0.000

(shape postamble)


(shape preamble)

G0 X1326.784 Y1096.434 Z0.000
G1 X1326.784 Y1096.434 Z4.000
G1 X1326.784 Y1095.867 Z4.000
G1 X1326.878 Y1094.180 Z4.000
G1 X1327.081 Y1092.516 Z4.000
G1 X1327.392 Y1090.879 Z4.000
G1 X1327.807 Y1089.273 Z4.000
G1 X1328.325 Y1087.704 Z4.000
G1 X1328.941 Y1086.175 Z4.000
G1 X1329.654 Y1084.692 Z4.000
G1 X1330.461 Y1083.259 Z4.000
G1 X1331.359 Y1081.881 Z4.000
G1 X1332.346 Y1080.562 Z4.000
G1 X1333.418 Y1079.307 Z4.000
G1 X1334.574 Y1078.121 Z4.000
G1 X1335.810 Y1077.007 Z4.000
G1 X1337.124 Y1075.972 Z4.000
G1 X1338.513 Y1075.019 Z4.000
G1 X1339.975 Y1074.153 Z4.000
G1 X1341.482 Y1073.391 Z4.000
G1 X1343.025 Y1072.735 Z4.000
G1 X1344.599 Y1072.186 Z4.000
G1 X1346.197 Y1071.743 Z4.000
G1 X1347.815 Y1071.406 Z4.000
G1 X1349.447 Y1071.176 Z4.000
G1 X1351.088 Y1071.052 Z4.000
G1 X1352.732 Y1071.034 Z4.000
G1 X1354.375 Y1071.123 Z4.000
G1 X1356.010 Y1071.318 Z4.000
G1 X1357.634 Y1071.619 Z4.000
G1 X1359.239 Y1072.027 Z4.000
G1 X1360.821 Y1072.541 Z4.000
G1 X1362.375 Y1073.161 Z4.000
G1 X1363.894 Y1073.888 Z4.000
G1 X1365.375 Y1074.721 Z4.000
G1 X1366.789 Y1075.645 Z4.000
G1 X1368.128 Y1076.653 Z4.000
G1 X1369.391 Y1077.741 Z4.000
G1 X1370.574 Y1078.904 Z4.000
G1 X1371.674 Y1080.136 Z4.000
G1 X1372.690 Y1081.434 Z4.000
G1 X1373.618 Y1082.793 Z4.000
G1 X1374.455 Y1084.209 Z4.000
G1 X1375.200 Y1085.676 Z4.000
G1 X1375.849 Y1087.190 Z4.000
G1 X1376.399 Y1088.746 Z4.000
G1 X1376.849 Y1090.340 Z4.000
G1 X1377.195 Y1091.967 Z4.000
G1 X1377.434 Y1093.623 Z4.000
G1 X1377.565 Y1095.302 Z4.000
G1 X1377.584 Y1097.001 Z4.000
G1 X1377.490 Y1098.688 Z4.000
G1 X1377.287 Y1100.352 Z4.000
G1 X1376.976 Y1101.989 Z4.000
G1 X1376.561 Y1103.595 Z4.000
G1 X1376.043 Y1105.164 Z4.000
G1 X1375.427 Y1106.693 Z4.000
G1 X1374.714 Y1108.176 Z4.000
G1 X1373.907 Y1109.609 Z4.000
G1 X1373.009 Y1110.987 Z4.000
G1 X1372.022 Y1112.306 Z4.000
G1 X1370.950 Y1113.561 Z4.000
G1 X1369.794 Y1114.747 Z4.000
G1 X1368.558 Y1115.861 Z4.000
G1 X1367.244 Y1116.896 Z4.000
G1 X1365.855 Y1117.849 Z4.000
G1 X1364.393 Y1118.715 Z4.000
G1 X1362.885 Y1119.477 Z4.000
G1 X1361.342 Y1120.133 Z4.000
G1 X1359.769 Y1120.682 Z4.000
G1 X1358.171 Y1121.125 Z4.000
G1 X1356.553 Y1121.462 Z4.000
G1 X1354.921 Y1121.692 Z4.000
G1 X1353.280 Y1121.816 Z4.000
G1 X1351.636 Y1121.834 Z4.000
G1 X1349.993 Y1121.745 Z4.000
G1 X1348.358 Y1121.550 Z4.000
G1 X1346.734 Y1121.249 Z4.000
G1 X1345.129 Y1120.842 Z4.000
G1 X1343.547 Y1120.328 Z4.000
G1 X1341.993 Y1119.707 Z4.000
G1 X1340.473 Y1118.981 Z4.000
G1 X1338.993 Y1118.148 Z4.000
G1 X1337.579 Y1117.223 Z4.000
G1 X1336.240 Y1116.215 Z4.000
G1 X1334.977 Y1115.127 Z4.000
G1 X1333.794 Y1113.964 Z4.000
G1 X1332.694 Y1112.732 Z4.000
G1 X1331.678 Y1111.434 Z4.000
G1 X1330.750 Y1110.075 Z4.000
G1 X1329.913 Y1108.659 Z4.000
G1 X1329.168 Y1107.192 Z4.000
G1 X1328.519 Y1105.678 Z4.000
G1 X1327.969 Y1104.122 Z4.000
G1 X1327.519 Y1102.528 Z4.000
G1 X1327.173 Y1100.901 Z4.000
G1 X1326.933 Y1099.245 Z4.000
G1 X1326.803 Y1097.566 Z4.000
G1 X1326.784 Y1096.434 Z4.000
G0 X1326.784 Y1096.434 Z0.000

(shape postamble)


(shape preamble)

G0 X1326.784 Y1020.234 Z0.000
G1 X1326.784 Y1020.234 Z4.000
G1 X1326.784 Y1019.667 Z4.000
G1 X1326.878 Y1017.980 Z4.000
G1 X1327.081 Y1016.316 Z4.000
G1 X1327.392 Y1014.679 Z4.000
G1 X1327.807 Y1013.073 Z4.000
G1 X1328.325 Y1011.504 Z4.000
G1 X1328.941 Y1009.975 Z4.000
G1 X1329.654 Y1008.492 Z4.000
G1 X1330.461 Y1007.059 Z4.000
G1 X1331.359 Y1005.681 Z4.000
G1 X1332.346 Y1004.362 Z4.000
G1 X1333.418 Y1003.107 Z4.000
G1 X1334.574 Y1001.921 Z4.000
G1 X1335.810 Y1000.807 Z4.000
G1 X1337.124 Y999.772 Z4.000
G1 X1338.513 Y998.819 Z4.000
G1 X1339.975 Y997.953 Z4.000
G1 X1341.482 Y997.191 Z4.000
G1 X1343.025 Y996.535 Z4.000
G1 X1344.599 Y995.986 Z4.000
G1 X1346.197 Y995.543 Z4.000
G1 X1347.815 Y995.206 Z4.000
G1 X1349.447 Y994.976 Z4.000
G1 X1351.088 Y994.852 Z4.000
G1 X1352.732 Y994.834 Z4.000
G1 X1354.375 Y994.923 Z4.000
G1 X1356.010 Y995.118 Z4.000
G1 X1357.634 Y995.419 Z4.000
G1 X1359.239 Y995.826 Z4.000
G1 X1360.821 Y996.340 Z4.000
G1 X1362.375 Y996.961 Z4.000
G1 X1363.894 Y997.687 Z4.000
G1 X1365.375 Y998.520 Z4.000
G1 X1366.789 Y999.445 Z4.000
G1 X1368.128 Y1000.453 Z4.000
G1 X1369.391 Y1001.541 Z4.000
G1 X1370.574 Y1002.704 Z4.000
G1 X1371.674 Y1003.936 Z4.000
G1 X1372.690 Y1005.234 Z4.000
G1 X1373.618 Y1006.593 Z4.000
G1 X1374.455 Y1008.009 Z4.000
G1 X1375.200 Y1009.476 Z4.000
G1 X1375.849 Y1010.990 Z4.000
G1 X1376.399 Y1012.546 Z4.000
G1 X1376.849 Y1014.140 Z4.000
G1 X1377.195 Y1015.767 Z4.000
G1 X1377.434 Y1017.423 Z4.000
G1 X1377.565 Y1019.102 Z4.000
G1 X1377.584 Y1020.801 Z4.000
G1 X1377.490 Y1022.488 Z4.000
G1 X1377.287 Y1024.152 Z4.000
G1 X1376.976 Y1025.789 Z4.000
G1 X1376.561 Y1027.395 Z4.000
G1 X1376.043 Y1028.964 Z4.000
G1 X1375.427 Y1030.493 Z4.000
G1 X1374.714 Y1031.976 Z4.000
G1 X1373.907 Y1033.409 Z4.000
G1 X1373.009 Y1034.787 Z4.000
G1 X1372.022 Y1036.106 Z4.000
G1 X1370.950 Y1037.361 Z4.000
G1 X1369.794 Y1038.547 Z4.000
G1 X1368.558 Y1039.661 Z4.000
G1 X1367.244 Y1040.696 Z4.000
G1 X1365.855 Y1041.649 Z4.000
G1 X1364.393 Y1042.515 Z4.000
G1 X1362.885 Y1043.277 Z4.000
G1 X1361.342 Y1043.933 Z4.000
G1 X1359.769 Y1044.482 Z4.000
G1 X1358.171 Y1044.925 Z4.000
G1 X1356.553 Y1045.262 Z4.000
G1 X1354.921 Y1045.492 Z4.000
G1 X1353.280 Y1045.616 Z4.000
G1 X1351.636 Y1045.634 Z4.000
G1 X1349.993 Y1045.545 Z4.000
G1 X1348.358 Y1045.350 Z4.000
G1 X1346.734 Y1045.049 Z4.000
G1 X1345.129 Y1044.641 Z4.000
G1 X1343.547 Y1044.127 Z4.000
G1 X1341.993 Y1043.507 Z4.000
G1 X1340.473 Y1042.780 Z4.000
G1 X1338.993 Y1041.947 Z4.000
G1 X1337.579 Y1041.023 Z4.000
G1 X1336.240 Y1040.015 Z4.000
G1 X1334.977 Y1038.927 Z4.000
G1 X1333.794 Y1037.764 Z4.000
G1 X1332.694 Y1036.532 Z4.000
G1 X1331.678 Y1035.234 Z4.000
G1 X1330.750 Y1033.875 Z4.000
G1 X1329.913 Y1032.459 Z4.000
G1 X1329.168 Y1030.992 Z4.000
G1 X1328.519 Y1029.478 Z4.000
G1 X1327.969 Y1027.922 Z4.000
G1 X1327.519 Y1026.328 Z4.000
G1 X1327.173 Y1024.701 Z4.000
G1 X1326.933 Y1023.045 Z4.000
G1 X1326.803 Y1021.366 Z4.000
G1 X1326.784 Y1020.234 Z4.000
G0 X1326.784 Y1020.234 Z0.000

(shape postamble)


(shape preamble)

G0 X1326.784 Y944.034 Z0.000
G1 X1326.784 Y944.034 Z4.000
G1 X1326.784 Y943.467 Z4.000
G1 X1326.878 Y941.780 Z4.000
G1 X1327.081 Y940.116 Z4.000
G1 X1327.392 Y938.479 Z4.000
G1 X1327.807 Y936.873 Z4.000
G1 X1328.325 Y935.304 Z4.000
G1 X1328.941 Y933.775 Z4.000
G1 X1329.654 Y932.292 Z4.000
G1 X1330.461 Y930.859 Z4.000
G1 X1331.359 Y929.481 Z4.000
G1 X1332.346 Y928.162 Z4.000
G1 X1333.418 Y926.907 Z4.000
G1 X1334.574 Y925.720 Z4.000
G1 X1335.810 Y924.607 Z4.000
G1 X1337.124 Y923.572 Z4.000
G1 X1338.513 Y922.619 Z4.000
G1 X1339.975 Y921.753 Z4.000
G1 X1341.482 Y920.991 Z4.000
G1 X1343.025 Y920.335 Z4.000
G1 X1344.599 Y919.786 Z4.000
G1 X1346.197 Y919.343 Z4.000
G1 X1347.815 Y919.006 Z4.000
G1 X1349.447 Y918.776 Z4.000
G1 X1351.088 Y918.652 Z4.000
G1 X1352.732 Y918.634 Z4.000
G1 X1354.375 Y918.723 Z4.000
G1 X1356.010 Y918.917 Z4.000
G1 X1357.634 Y919.219 Z4.000
G1 X1359.239 Y919.626 Z4.000
G1 X1360.821 Y920.140 Z4.000
G1 X1362.375 Y920.761 Z4.000
G1 X1363.894 Y921.487 Z4.000
G1 X1365.375 Y922.320 Z4.000
G1 X1366.789 Y923.245 Z4.000
G1 X1368.128 Y924.253 Z4.000
G1 X1369.391 Y925.341 Z4.000
G1 X1370.574 Y926.503 Z4.000
G1 X1371.674 Y927.736 Z4.000
G1 X1372.690 Y929.034 Z4.000
G1 X1373.618 Y930.393 Z4.000
G1 X1374.455 Y931.809 Z4.000
G1 X1375.200 Y933.276 Z4.000
G1 X1375.849 Y934.790 Z4.000
G1 X1376.399 Y936.346 Z4.000
G1 X1376.849 Y937.940 Z4.000
G1 X1377.195 Y939.567 Z4.000
G1 X1377.434 Y941.223 Z4.000
G1 X1377.565 Y942.902 Z4.000
G1 X1377.584 Y944.601 Z4.000
G1 X1377.490 Y946.288 Z4.000
G1 X1377.287 Y947.952 Z4.000
G1 X1376.976 Y949.589 Z4.000
G1 X1376.561 Y951.195 Z4.000
G1 X1376.043 Y952.764 Z4.000
G1 X1375.427 Y954.293 Z4.000
G1 X1374.714 Y955.776 Z4.000
G1 X1373.907 Y957.209 Z4.000
G1 X1373.009 Y958.587 Z4.000
G1 X1372.022 Y959.906 Z4.000
G1 X1370.950 Y961.161 Z4.000
G1 X1369.794 Y962.347 Z4.000
G1 X1368.558 Y963.461 Z4.000
G1 X1367.244 Y964.496 Z4.000
G1 X1365.855 Y965.449 Z4.000
G1 X1364.393 Y966.315 Z4.000
G1 X1362.885 Y967.077 Z4.000
G1 X1361.342 Y967.732 Z4.000
G1 X1359.769 Y968.282 Z4.000
G1 X1358.171 Y968.725 Z4.000
G1 X1356.553 Y969.062 Z4.000
G1 X1354.921 Y969.292 Z4.000
G1 X1353.280 Y969.416 Z4.000
G1 X1351.636 Y969.434 Z4.000
G1 X1349.993 Y969.345 Z4.000
G1 X1348.358 Y969.150 Z4.000
G1 X1346.734 Y968.849 Z4.000
G1 X1345.129 Y968.441 Z4.000
G1 X1343.547 Y967.927 Z4.000
G1 X1341.993 Y967.307 Z4.000
G1 X1340.473 Y966.580 Z4.000
G1 X1338.993 Y965.747 Z4.000
G1 X1337.579 Y964.823 Z4.000
G1 X1336.240 Y963.815 Z4.000
G1 X1334.977 Y962.727 Z4.000
G1 X1333.794 Y961.564 Z4.000
G1 X1332.694 Y960.332 Z4.000
G1 X1331.678 Y959.034 Z4.000
G1 X1330.750 Y957.675 Z4.000
G1 X1329.913 Y956.259 Z4.000
G1 X1329.168 Y954.792 Z4.000
G1 X1328.519 Y953.278 Z4.000
G1 X1327.969 Y951.722 Z4.000
G1 X1327.519 Y950.128 Z4.000
G1 X1327.173 Y948.501 Z4.000
G1 X1326.933 Y946.845 Z4.000
G1 X1326.803 Y945.166 Z4.000
G1 X1326.784 Y944.034 Z4.000
G0 X1326.784 Y944.034 Z0.000

(shape postamble)


(shape preamble)

G0 X1326.784 Y867.834 Z0.000
G1 X1326.784 Y867.834 Z4.000
G1 X1326.784 Y867.267 Z4.000
G1 X1326.878 Y865.580 Z4.000
G1 X1327.081 Y863.916 Z4.000
G1 X1327.392 Y862.279 Z4.000
G1 X1327.807 Y860.673 Z4.000
G1 X1328.325 Y859.104 Z4.000
G1 X1328.941 Y857.575 Z4.000
G1 X1329.654 Y856.092 Z4.000
G1 X1330.461 Y854.659 Z4.000
G1 X1331.359 Y853.281 Z4.000
G1 X1332.346 Y851.962 Z4.000
G1 X1333.418 Y850.707 Z4.000
G1 X1334.574 Y849.520 Z4.000
G1 X1335.810 Y848.407 Z4.000
G1 X1337.124 Y847.372 Z4.000
G1 X1338.513 Y846.419 Z4.000
G1 X1339.975 Y845.553 Z4.000
G1 X1341.482 Y844.791 Z4.000
G1 X1343.025 Y844.135 Z4.000
G1 X1344.599 Y843.586 Z4.000
G1 X1346.197 Y843.143 Z4.000
G1 X1347.815 Y842.806 Z4.000
G1 X1349.447 Y842.576 Z4.000
G1 X1351.088 Y842.452 Z4.000
G1 X1352.732 Y842.434 Z4.000
G1 X1354.375 Y842.522 Z4.000
G1 X1356.010 Y842.717 Z4.000
G1 X1357.634 Y843.019 Z4.000
G1 X1359.239 Y843.426 Z4.000
G1 X1360.821 Y843.940 Z4.000
G1 X1362.375 Y844.561 Z4.000
G1 X1363.894 Y845.287 Z4.000
G1 X1365.375 Y846.120 Z4.000
G1 X1366.789 Y847.045 Z4.000
G1 X1368.128 Y848.053 Z4.000
G1 X1369.391 Y849.141 Z4.000
G1 X1370.574 Y850.303 Z4.000
G1 X1371.674 Y851.536 Z4.000
G1 X1372.690 Y852.834 Z4.000
G1 X1373.618 Y854.193 Z4.000
G1 X1374.455 Y855.609 Z4.000
G1 X1375.200 Y857.076 Z4.000
G1 X1375.849 Y858.589 Z4.000
G1 X1376.399 Y860.146 Z4.000
G1 X1376.849 Y861.740 Z4.000
G1 X1377.195 Y863.367 Z4.000
G1 X1377.434 Y865.023 Z4.000
G1 X1377.565 Y866.702 Z4.000
G1 X1377.584 Y868.401 Z4.000
G1 X1377.490 Y870.088 Z4.000
G1 X1377.287 Y871.752 Z4.000
G1 X1376.976 Y873.389 Z4.000
G1 X1376.561 Y874.994 Z4.000
G1 X1376.043 Y876.564 Z4.000
G1 X1375.427 Y878.092 Z4.000
G1 X1374.714 Y879.576 Z4.000
G1 X1373.907 Y881.009 Z4.000
G1 X1373.009 Y882.387 Z4.000
G1 X1372.022 Y883.706 Z4.000
G1 X1370.950 Y884.961 Z4.000
G1 X1369.794 Y886.147 Z4.000
G1 X1368.558 Y887.261 Z4.000
G1 X1367.244 Y888.296 Z4.000
G1 X1365.855 Y889.249 Z4.000
G1 X1364.393 Y890.115 Z4.000
G1 X1362.885 Y890.877 Z4.000
G1 X1361.342 Y891.532 Z4.000
G1 X1359.769 Y892.082 Z4.000
G1 X1358.171 Y892.525 Z4.000
G1 X1356.553 Y892.862 Z4.000
G1 X1354.921 Y893.092 Z4.000
G1 X1353.280 Y893.216 Z4.000
G1 X1351.636 Y893.234 Z4.000
G1 X1349.993 Y893.145 Z4.000
G1 X1348.358 Y892.950 Z4.000
G1 X1346.734 Y892.649 Z4.000
G1 X1345.129 Y892.241 Z4.000
G1 X1343.547 Y891.727 Z4.000
G1 X1341.993 Y891.107 Z4.000
G1 X1340.473 Y890.380 Z4.000
G1 X1338.993 Y889.547 Z4.000
G1 X1337.579 Y888.623 Z4.000
G1 X1336.240 Y887.615 Z4.000
G1 X1334.977 Y886.527 Z4.000
G1 X1333.794 Y885.364 Z4.000
G1 X1332.694 Y884.132 Z4.000
G1 X1331.678 Y882.834 Z4.000
G1 X1330.750 Y881.474 Z4.000
G1 X1329.913 Y880.059 Z4.000
G1 X1329.168 Y878.592 Z4.000
G1 X1328.519 Y877.078 Z4.000
G1 X1327.969 Y875.522 Z4.000
G1 X1327.519 Y873.928 Z4.000
G1 X1327.173 Y872.301 Z4.000
G1 X1326.933 Y870.645 Z4.000
G1 X1326.803 Y868.966 Z4.000
G1 X1326.784 Y867.834 Z4.000
G0 X1326.784 Y867.834 Z0.000

(shape postamble)


(shape preamble)

G0 X1326.784 Y791.634 Z0.000
G1 X1326.784 Y791.634 Z4.000
G1 X1326.784 Y791.067 Z4.000
G1 X1326.878 Y789.380 Z4.000
G1 X1327.081 Y787.716 Z4.000
G1 X1327.392 Y786.079 Z4.000
G1 X1327.807 Y784.473 Z4.000
G1 X1328.325 Y782.904 Z4.000
G1 X1328.941 Y781.375 Z4.000
G1 X1329.654 Y779.892 Z4.000
G1 X1330.461 Y778.459 Z4.000
G1 X1331.359 Y777.081 Z4.000
G1 X1332.346 Y775.762 Z4.000
G1 X1333.418 Y774.507 Z4.000
G1 X1334.574 Y773.320 Z4.000
G1 X1335.810 Y772.207 Z4.000
G1 X1337.124 Y771.172 Z4.000
G1 X1338.513 Y770.219 Z4.000
G1 X1339.975 Y769.353 Z4.000
G1 X1341.482 Y768.591 Z4.000
G1 X1343.025 Y767.935 Z4.000
G1 X1344.599 Y767.386 Z4.000
G1 X1346.197 Y766.943 Z4.000
G1 X1347.815 Y766.606 Z4.000
G1 X1349.447 Y766.376 Z4.000
G1 X1351.088 Y766.252 Z4.000
G1 X1352.732 Y766.234 Z4.000
G1 X1354.375 Y766.322 Z4.000
G1 X1356.010 Y766.517 Z4.000
G1 X1357.634 Y766.819 Z4.000
G1 X1359.239 Y767.226 Z4.000
G1 X1360.821 Y767.740 Z4.000
G1 X1362.375 Y768.361 Z4.000
G1 X1363.894 Y769.087 Z4.000
G1 X1365.375 Y769.920 Z4.000
G1 X1366.789 Y770.845 Z4.000
G1 X1368.128 Y771.853 Z4.000
G1 X1369.391 Y772.941 Z4.000
G1 X1370.574 Y774.103 Z4.000
G1 X1371.674 Y775.336 Z4.000
G1 X1372.690 Y776.634 Z4.000
G1 X1373.618 Y777.993 Z4.000
G1 X1374.455 Y779.409 Z4.000
G1 X1375.200 Y780.875 Z4.000
G1 X1375.849 Y782.389 Z4.000
G1 X1376.399 Y783.946 Z4.000
G1 X1376.849 Y785.540 Z4.000
G1 X1377.195 Y787.167 Z4.000
G1 X1377.434 Y788.823 Z4.000
G1 X1377.565 Y790.502 Z4.000
G1 X1377.584 Y792.201 Z4.000
G1 X1377.490 Y793.887 Z4.000
G1 X1377.287 Y795.552 Z4.000
G1 X1376.976 Y797.189 Z4.000
G1 X1376.561 Y798.794 Z4.000
G1 X1376.043 Y800.364 Z4.000
G1 X1375.427 Y801.892 Z4.000
G1 X1374.714 Y803.376 Z4.000
G1 X1373.907 Y804.809 Z4.000
G1 X1373.009 Y806.187 Z4.000
G1 X1372.022 Y807.506 Z4.000
G1 X1370.950 Y808.761 Z4.000
G1 X1369.794 Y809.947 Z4.000
G1 X1368.558 Y811.060 Z4.000
G1 X1367.244 Y812.096 Z4.000
G1 X1365.855 Y813.049 Z4.000
G1 X1364.393 Y813.914 Z4.000
G1 X1362.885 Y814.677 Z4.000
G1 X1361.342 Y815.332 Z4.000
G1 X1359.769 Y815.882 Z4.000
G1 X1358.171 Y816.325 Z4.000
G1 X1356.553 Y816.662 Z4.000
G1 X1354.921 Y816.892 Z4.000
G1 X1353.280 Y817.016 Z4.000
G1 X1351.636 Y817.034 Z4.000
G1 X1349.993 Y816.945 Z4.000
G1 X1348.358 Y816.750 Z4.000
G1 X1346.734 Y816.449 Z4.000
G1 X1345.129 Y816.041 Z4.000
G1 X1343.547 Y815.527 Z4.000
G1 X1341.993 Y814.907 Z4.000
G1 X1340.473 Y814.180 Z4.000
G1 X1338.993 Y813.347 Z4.000
G1 X1337.579 Y812.423 Z4.000
G1 X1336.240 Y811.415 Z4.000
G1 X1334.977 Y810.327 Z4.000
G1 X1333.794 Y809.164 Z4.000
G1 X1332.694 Y807.932 Z4.000
G1 X1331.678 Y806.633 Z4.000
G1 X1330.750 Y805.274 Z4.000
G1 X1329.913 Y803.859 Z4.000
G1 X1329.168 Y802.392 Z4.000
G1 X1328.519 Y800.878 Z4.000
G1 X1327.969 Y799.322 Z4.000
G1 X1327.519 Y797.728 Z4.000
G1 X1327.173 Y796.101 Z4.000
G1 X1326.933 Y794.445 Z4.000
G1 X1326.803 Y792.765 Z4.000
G1 X1326.784 Y791.634 Z4.000
G0 X1326.784 Y791.634 Z0.000

(shape postamble)


(shape preamble)

G0 X1326.784 Y715.434 Z0.000
G1 X1326.784 Y715.434 Z4.000
G1 X1326.784 Y714.867 Z4.000
G1 X1326.878 Y713.180 Z4.000
G1 X1327.081 Y711.516 Z4.000
G1 X1327.392 Y709.879 Z4.000
G1 X1327.807 Y708.273 Z4.000
G1 X1328.325 Y706.704 Z4.000
G1 X1328.941 Y705.175 Z4.000
G1 X1329.654 Y703.692 Z4.000
G1 X1330.461 Y702.259 Z4.000
G1 X1331.359 Y700.881 Z4.000
G1 X1332.346 Y699.562 Z4.000
G1 X1333.418 Y698.307 Z4.000
G1 X1334.574 Y697.120 Z4.000
G1 X1335.810 Y696.007 Z4.000
G1 X1337.124 Y694.972 Z4.000
G1 X1338.513 Y694.019 Z4.000
G1 X1339.975 Y693.153 Z4.000
G1 X1341.482 Y692.391 Z4.000
G1 X1343.025 Y691.735 Z4.000
G1 X1344.599 Y691.186 Z4.000
G1 X1346.197 Y690.743 Z4.000
G1 X1347.815 Y690.406 Z4.000
G1 X1349.447 Y690.176 Z4.000
G1 X1351.088 Y690.051 Z4.000
G1 X1352.732 Y690.034 Z4.000
G1 X1354.375 Y690.122 Z4.000
G1 X1356.010 Y690.317 Z4.000
G1 X1357.634 Y690.619 Z4.000
G1 X1359.239 Y691.026 Z4.000
G1 X1360.821 Y691.540 Z4.000
G1 X1362.375 Y692.161 Z4.000
G1 X1363.894 Y692.887 Z4.000
G1 X1365.375 Y693.720 Z4.000
G1 X1366.789 Y694.645 Z4.000
G1 X1368.128 Y695.653 Z4.000
G1 X1369.391 Y696.741 Z4.000
G1 X1370.574 Y697.903 Z4.000
G1 X1371.674 Y699.136 Z4.000
G1 X1372.690 Y700.434 Z4.000
G1 X1373.618 Y701.793 Z4.000
G1 X1374.455 Y703.208 Z4.000
G1 X1375.200 Y704.675 Z4.000
G1 X1375.849 Y706.189 Z4.000
G1 X1376.399 Y707.746 Z4.000
G1 X1376.849 Y709.340 Z4.000
G1 X1377.195 Y710.967 Z4.000
G1 X1377.434 Y712.623 Z4.000
G1 X1377.565 Y714.302 Z4.000
G1 X1377.584 Y716.001 Z4.000
G1 X1377.490 Y717.687 Z4.000
G1 X1377.287 Y719.352 Z4.000
G1 X1376.976 Y720.989 Z4.000
G1 X1376.561 Y722.594 Z4.000
