(Created with svg2gcode_grbl)
(https://github.com/arcadeperfect/svg2gcode_grbl)
(forked from svg2gcode by visphat)
(https://github.com/vishpat/svg2gcode)
F4000
(shape preamble)
G0 X692.433 Y518.584 Z0.000
(start stroke 1)
(probe_depth_adapt)
G0 X692.433 Y518.584 Z0 F18000
G1 Z4 F8000
G4 P2.4
G0 Z0 F18000
(end_probe)
G1 X692.433 Y518.584 Z4.000
G1 X663.187 Y619.584 Z4.000
G1 X717.233 Y609.988 Z4.000
G1 X687.247 Y569.983 Z4.000
G1 X735.860 Y556.507 Z4.000
G1 X692.433 Y518.584 Z4.000
(stop stroke 1)
G0 X692.433 Y518.584 Z0.000
(shape postamble)
(shape preamble)
G0 X746.831 Y528.638 Z0.000
(start stroke 2)
G1 X746.831 Y528.638 Z4.000
(pause)
G4 P0.2
(end_pause)
G1 X740.904 Y641.985 Z4.000
G1 X769.691 Y644.278 Z4.000
G1 X791.634 Y511.740 Z4.000
(stop stroke 2)
G0 X791.634 Y511.740 Z0.000
(shape postamble)
(shape preamble)
G0 X778.616 Y590.303 Z0.000
(start stroke 3)
G1 X778.616 Y590.303 Z4.000
(pause)
G4 P0.2
(end_pause)
G1 X743.727 Y588.081 Z4.000
(stop stroke 3)
G0 X743.727 Y588.081 Z0.000
(shape postamble)
(shape preamble)
G0 X837.283 Y633.025 Z0.000
(start stroke 4)
(probe_depth_adapt)
G0 X837.283 Y633.025 Z0 F18000
G1 Z4 F8000
G4 P2.4
G0 Z0 F18000
(end_probe)
G1 X837.283 Y633.025 Z4.000
G1 X799.219 Y630.873 Z4.000
G1 X800.347 Y603.391 Z4.000
G1 X835.131 Y607.025 Z4.000
G1 X839.435 Y566.597 Z4.000
G1 X801.335 Y564.021 Z4.000
(stop stroke 4)
G0 X801.335 Y564.021 Z0.000
(shape postamble)
(shape preamble)
G0 X864.341 Y545.395 Z0.000
(start stroke 5)
G1 X864.341 Y545.395 Z4.000
(pause)
G4 P0.2
(end_pause)
G1 X873.020 Y648.441 Z4.000
(stop stroke 5)
G0 X873.020 Y648.441 Z0.000
(shape postamble)
(shape preamble)
G0 X953.700 Y523.981 Z0.000
(start stroke 6)
(probe_depth_adapt)
G0 X953.700 Y523.981 Z0 F18000
G1 Z4 F8000
G4 P2.4
G0 Z0 F18000
(end_probe)
G1 X953.700 Y523.981 Z4.000
G1 X891.752 Y589.633 Z4.000
G1 X969.681 Y623.077 Z4.000
G1 X975.220 Y610.094 Z4.000
G1 X915.882 Y584.624 Z4.000
G1 X963.966 Y533.647 Z4.000
G1 X953.700 Y523.981 Z4.000
(stop stroke 6)
G0 X953.700 Y523.981 Z0.000
(shape postamble)
(shape preamble)
G0 X990.001 Y599.970 Z0.000
(start stroke 7)
G1 X990.001 Y599.970 Z4.000
(pause)
G4 P0.2
(end_pause)
G1 X1010.003 Y599.970 Z4.000
(stop stroke 7)
G0 X1010.003 Y599.970 Z0.000
(shape postamble)
(shape preamble)
G0 X1000.020 Y609.988 Z0.000
(start stroke 8)
G1 X1000.020 Y609.988 Z4.000
(pause)
G4 P0.2
(end_pause)
G1 X1000.020 Y589.986 Z4.000
(stop stroke 8)
G0 X1000.020 Y589.986 Z0.000
(shape postamble)
(shape preamble)
G0 X994.128 Y600.005 Z0.000
(start stroke 9)
G1 X994.128 Y600.005 Z4.000
(pause)
G4 P0.2
(end_pause)
G1 X994.128 Y599.482 Z4.000
G1 X994.464 Y597.985 Z4.000
G1 X995.166 Y596.639 Z4.000
G1 X996.194 Y595.512 Z4.000
G1 X997.509 Y594.672 Z4.000
G1 X998.973 Y594.214 Z4.000
G1 X1000.490 Y594.149 Z4.000
G1 X1001.980 Y594.476 Z4.000
G1 X1003.366 Y595.195 Z4.000
G1 X1004.494 Y596.234 Z4.000
G1 X1005.309 Y597.515 Z4.000
G1 X1005.771 Y598.969 Z4.000
G1 X1005.841 Y600.528 Z4.000
G1 X1005.505 Y602.025 Z4.000
G1 X1004.803 Y603.371 Z4.000
G1 X1003.775 Y604.498 Z4.000
G1 X1002.460 Y605.338 Z4.000
G1 X1000.996 Y605.796 Z4.000
G1 X999.479 Y605.861 Z4.000
G1 X997.989 Y605.534 Z4.000
G1 X996.603 Y604.815 Z4.000
G1 X995.475 Y603.776 Z4.000
G1 X994.660 Y602.495 Z4.000
G1 X994.198 Y601.041 Z4.000
G1 X994.128 Y600.005 Z4.000
(stop stroke 9)
G0 X994.128 Y600.005 Z0.000
(shape postamble)
(shape preamble)
G0 X689.998 Y699.982 Z0.000
(start stroke 10)
(probe_depth_adapt)
G0 X689.998 Y699.982 Z0 F18000
G1 Z4 F8000
G4 P2.4
G0 Z0 F18000
(end_probe)
G1 X689.998 Y699.982 Z4.000
G1 X710.001 Y699.982 Z4.000
(stop stroke 10)
G0 X710.001 Y699.982 Z0.000
(shape postamble)
(shape preamble)
G0 X700.017 Y710.001 Z0.000
(start stroke 11)
G1 X700.017 Y710.001 Z4.000
(pause)
G4 P0.2
(end_pause)
G1 X700.017 Y689.998 Z4.000
(stop stroke 11)
G0 X700.017 Y689.998 Z0.000
(shape postamble)
(shape preamble)
G0 X694.161 Y700.017 Z0.000
(start stroke 12)
G1 X694.161 Y700.017 Z4.000
(pause)
G4 P0.2
(end_pause)
G1 X694.161 Y699.494 Z4.000
G1 X694.497 Y697.998 Z4.000
G1 X695.199 Y696.652 Z4.000
G1 X696.227 Y695.524 Z4.000
G1 X697.542 Y694.684 Z4.000
G1 X699.006 Y694.227 Z4.000
G1 X700.523 Y694.161 Z4.000
G1 X702.013 Y694.488 Z4.000
G1 X703.398 Y695.207 Z4.000
G1 X704.527 Y696.246 Z4.000
G1 X705.342 Y697.527 Z4.000
G1 X705.804 Y698.981 Z4.000
G1 X705.874 Y700.540 Z4.000
G1 X705.538 Y702.037 Z4.000
G1 X704.836 Y703.383 Z4.000
G1 X703.808 Y704.510 Z4.000
G1 X702.492 Y705.350 Z4.000
G1 X701.028 Y705.808 Z4.000
G1 X699.512 Y705.874 Z4.000
G1 X698.022 Y705.547 Z4.000
G1 X696.636 Y704.827 Z4.000
G1 X695.508 Y703.788 Z4.000
G1 X694.693 Y702.508 Z4.000
G1 X694.231 Y701.054 Z4.000
G1 X694.161 Y700.017 Z4.000
(stop stroke 12)
G0 X694.161 Y700.017 Z0.000
(shape postamble)
(shape preamble)
G0 X0.000 Y2.611 Z0.000
(start stroke 13)
(probe_depth_adapt)
G0 X0.000 Y2.611 Z0 F18000
G1 Z4 F8000
G4 P2.4
G0 Z0 F18000
(end_probe)
G1 X0.000 Y2.611 Z4.000
G1 X2.611 Y2.611 Z4.000
G1 X2.611 Y0.000 Z4.000
G1 X0.000 Y0.000 Z4.000
G1 X0.000 Y2.611 Z4.000
(stop stroke 13)
G0 X0.000 Y2.611 Z0.000
(shape postamble)
(shape preamble)
G0 X790.011 Y799.995 Z0.000
(start stroke 14)
(probe_depth_adapt)
G0 X790.011 Y799.995 Z0 F18000
G1 Z4 F8000
G4 P2.4
G0 Z0 F18000
(end_probe)
G1 X790.011 Y799.995 Z4.000
G1 X790.011 Y799.103 Z4.000
G1 X790.583 Y796.551 Z4.000
G1 X791.780 Y794.256 Z4.000
G1 X793.533 Y792.335 Z4.000
G1 X795.775 Y790.903 Z4.000
G1 X798.271 Y790.123 Z4.000
G1 X800.857 Y790.011 Z4.000
G1 X803.397 Y790.568 Z4.000
G1 X805.759 Y791.794 Z4.000
G1 X807.682 Y793.566 Z4.000
G1 X809.072 Y795.749 Z4.000
G1 X809.859 Y798.228 Z4.000
G1 X809.978 Y800.886 Z4.000
G1 X809.406 Y803.438 Z4.000
G1 X808.210 Y805.733 Z4.000
G1 X806.457 Y807.655 Z4.000
G1 X804.214 Y809.087 Z4.000
G1 X801.718 Y809.867 Z4.000
G1 X799.133 Y809.978 Z4.000
G1 X796.592 Y809.421 Z4.000
G1 X794.231 Y808.195 Z4.000
G1 X792.307 Y806.423 Z4.000
G1 X790.918 Y804.240 Z4.000
G1 X790.130 Y801.761 Z4.000
G1 X790.011 Y799.995 Z4.000
(stop stroke 14)
G0 X790.011 Y799.995 Z0.000
(shape postamble)
(shape preamble)
G0 X830.016 Y799.995 Z0.000
(start stroke 15)
G1 X830.016 Y799.995 Z4.000
(pause)
G4 P0.2
(end_pause)
G1 X830.016 Y799.103 Z4.000
G1 X830.588 Y796.551 Z4.000
G1 X831.785 Y794.256 Z4.000
G1 X833.538 Y792.335 Z4.000
G1 X835.780 Y790.903 Z4.000
G1 X838.276 Y790.123 Z4.000
G1 X840.862 Y790.011 Z4.000
G1 X843.402 Y790.568 Z4.000
G1 X845.764 Y791.794 Z4.000
G1 X847.687 Y793.566 Z4.000
G1 X849.077 Y795.749 Z4.000
G1 X849.864 Y798.228 Z4.000
G1 X849.983 Y800.886 Z4.000
G1 X849.411 Y803.438 Z4.000
G1 X848.215 Y805.733 Z4.000
G1 X846.462 Y807.655 Z4.000
G1 X844.219 Y809.087 Z4.000
G1 X841.723 Y809.867 Z4.000
G1 X839.138 Y809.978 Z4.000
G1 X836.597 Y809.421 Z4.000
G1 X834.236 Y808.195 Z4.000
G1 X832.312 Y806.423 Z4.000
G1 X830.923 Y804.240 Z4.000
G1 X830.135 Y801.761 Z4.000
G1 X830.016 Y799.995 Z4.000
(stop stroke 15)
G0 X830.016 Y799.995 Z0.000
(shape postamble)
(shape preamble)
G0 X870.021 Y799.995 Z0.000
(start stroke 16)
G1 X870.021 Y799.995 Z4.000
(pause)
G4 P0.2
(end_pause)
G1 X870.021 Y799.103 Z4.000
G1 X870.593 Y796.551 Z4.000
G1 X871.790 Y794.256 Z4.000
G1 X873.543 Y792.335 Z4.000
G1 X875.785 Y790.903 Z4.000
G1 X878.281 Y790.123 Z4.000
G1 X880.867 Y790.011 Z4.000
G1 X883.407 Y790.568 Z4.000
G1 X885.769 Y791.794 Z4.000
G1 X887.692 Y793.566 Z4.000
G1 X889.082 Y795.749 Z4.000
G1 X889.869 Y798.228 Z4.000
G1 X889.988 Y800.886 Z4.000
G1 X889.416 Y803.438 Z4.000
G1 X888.220 Y805.733 Z4.000
G1 X886.467 Y807.655 Z4.000
G1 X884.224 Y809.087 Z4.000
G1 X881.728 Y809.867 Z4.000
G1 X879.143 Y809.978 Z4.000
G1 X876.602 Y809.421 Z4.000
G1 X874.241 Y808.195 Z4.000
G1 X872.317 Y806.423 Z4.000
G1 X870.928 Y804.240 Z4.000
G1 X870.140 Y801.761 Z4.000
G1 X870.021 Y799.995 Z4.000
(stop stroke 16)
G0 X870.021 Y799.995 Z0.000
(shape postamble)
(shape preamble)
G0 X810.014 Y779.992 Z0.000
(start stroke 17)
G1 X810.014 Y779.992 Z4.000
(pause)
G4 P0.2
(end_pause)
G1 X810.014 Y779.100 Z4.000
G1 X810.586 Y776.549 Z4.000
G1 X811.782 Y774.254 Z4.000
G1 X813.535 Y772.332 Z4.000
G1 X815.778 Y770.900 Z4.000
G1 X818.274 Y770.120 Z4.000
G1 X820.859 Y770.009 Z4.000
G1 X823.400 Y770.566 Z4.000
G1 X825.761 Y771.792 Z4.000
G1 X827.685 Y773.563 Z4.000
G1 X829.074 Y775.747 Z4.000
G1 X829.862 Y778.226 Z4.000
G1 X829.981 Y780.884 Z4.000
G1 X829.409 Y783.435 Z4.000
G1 X828.212 Y785.730 Z4.000
G1 X826.459 Y787.652 Z4.000
G1 X824.217 Y789.084 Z4.000
G1 X821.721 Y789.864 Z4.000
G1 X819.135 Y789.976 Z4.000
G1 X816.595 Y789.418 Z4.000
G1 X814.233 Y788.192 Z4.000
G1 X812.309 Y786.421 Z4.000
G1 X810.920 Y784.238 Z4.000
G1 X810.132 Y781.759 Z4.000
G1 X810.014 Y779.992 Z4.000
(stop stroke 17)
G0 X810.014 Y779.992 Z0.000
(shape postamble)
(shape preamble)
G0 X850.019 Y779.992 Z0.000
(start stroke 18)
G1 X850.019 Y779.992 Z4.000
(pause)
G4 P0.2
(end_pause)
G1 X850.019 Y779.100 Z4.000
G1 X850.591 Y776.549 Z4.000
G1 X851.787 Y774.254 Z4.000
G1 X853.540 Y772.332 Z4.000
G1 X855.783 Y770.900 Z4.000
G1 X858.279 Y770.120 Z4.000
G1 X860.864 Y770.009 Z4.000
G1 X863.405 Y770.566 Z4.000
G1 X865.766 Y771.792 Z4.000
G1 X867.690 Y773.563 Z4.000
G1 X869.079 Y775.747 Z4.000
G1 X869.867 Y778.226 Z4.000
G1 X869.986 Y780.884 Z4.000
G1 X869.414 Y783.435 Z4.000
G1 X868.217 Y785.730 Z4.000
G1 X866.464 Y787.652 Z4.000
G1 X864.222 Y789.084 Z4.000
G1 X861.726 Y789.864 Z4.000
G1 X859.140 Y789.976 Z4.000
G1 X856.600 Y789.418 Z4.000
G1 X854.238 Y788.192 Z4.000
G1 X852.315 Y786.421 Z4.000
G1 X850.925 Y784.238 Z4.000
G1 X850.138 Y781.759 Z4.000
G1 X850.019 Y779.992 Z4.000
(stop stroke 18)
G0 X850.019 Y779.992 Z0.000
(shape postamble)
(shape preamble)
G0 X790.011 Y759.990 Z0.000
(start stroke 19)
G1 X790.011 Y759.990 Z4.000
(pause)
G4 P0.2
(end_pause)
G1 X790.011 Y759.098 Z4.000
G1 X790.583 Y756.546 Z4.000
G1 X791.780 Y754.251 Z4.000
G1 X793.533 Y752.330 Z4.000
G1 X795.775 Y750.898 Z4.000
G1 X798.271 Y750.117 Z4.000
G1 X800.857 Y750.006 Z4.000
G1 X803.397 Y750.563 Z4.000
G1 X805.759 Y751.789 Z4.000
G1 X807.682 Y753.561 Z4.000
G1 X809.072 Y755.744 Z4.000
G1 X809.859 Y758.223 Z4.000
G1 X809.978 Y760.881 Z4.000
G1 X809.406 Y763.433 Z4.000
G1 X808.210 Y765.728 Z4.000
G1 X806.457 Y767.649 Z4.000
G1 X804.214 Y769.082 Z4.000
G1 X801.718 Y769.862 Z4.000
G1 X799.133 Y769.973 Z4.000
G1 X796.592 Y769.416 Z4.000
G1 X794.231 Y768.190 Z4.000
G1 X792.307 Y766.418 Z4.000
G1 X790.918 Y764.235 Z4.000
G1 X790.130 Y761.756 Z4.000
G1 X790.011 Y759.990 Z4.000
(stop stroke 19)
G0 X790.011 Y759.990 Z0.000
(shape postamble)
(shape preamble)
G0 X830.016 Y759.990 Z0.000
(start stroke 20)
G1 X830.016 Y759.990 Z4.000
(pause)
G4 P0.2
(end_pause)
G1 X830.016 Y759.098 Z4.000
G1 X830.588 Y756.546 Z4.000
G1 X831.785 Y754.251 Z4.000
G1 X833.538 Y752.330 Z4.000
G1 X835.780 Y750.898 Z4.000
G1 X838.276 Y750.117 Z4.000
G1 X840.862 Y750.006 Z4.000
G1 X843.402 Y750.563 Z4.000
G1 X845.764 Y751.789 Z4.000
G1 X847.687 Y753.561 Z4.000
G1 X849.077 Y755.744 Z4.000
G1 X849.864 Y758.223 Z4.000
G1 X849.983 Y760.881 Z4.000
G1 X849.411 Y763.433 Z4.000
G1 X848.215 Y765.728 Z4.000
G1 X846.462 Y767.649 Z4.000
G1 X844.219 Y769.082 Z4.000
G1 X841.723 Y769.862 Z4.000
G1 X839.138 Y769.973 Z4.000
G1 X836.597 Y769.416 Z4.000
G1 X834.236 Y768.190 Z4.000
G1 X832.312 Y766.418 Z4.000
G1 X830.923 Y764.235 Z4.000
G1 X830.135 Y761.756 Z4.000
G1 X830.016 Y759.990 Z4.000
(stop stroke 20)
G0 X830.016 Y759.990 Z0.000
(shape postamble)
(shape preamble)
G0 X870.021 Y759.990 Z0.000
(start stroke 21)
G1 X870.021 Y759.990 Z4.000
(pause)
G4 P0.2
(end_pause)
G1 X870.021 Y759.098 Z4.000
G1 X870.593 Y756.546 Z4.000
G1 X871.790 Y754.251 Z4.000
G1 X873.543 Y752.330 Z4.000
G1 X875.785 Y750.898 Z4.000
G1 X878.281 Y750.117 Z4.000
G1 X880.867 Y750.006 Z4.000
G1 X883.407 Y750.563 Z4.000
G1 X885.769 Y751.789 Z4.000
G1 X887.692 Y753.561 Z4.000
G1 X889.082 Y755.744 Z4.000
G1 X889.869 Y758.223 Z4.000
G1 X889.988 Y760.881 Z4.000
G1 X889.416 Y763.433 Z4.000
G1 X888.220 Y765.728 Z4.000
G1 X886.467 Y767.649 Z4.000
G1 X884.224 Y769.082 Z4.000
G1 X881.728 Y769.862 Z4.000
G1 X879.143 Y769.973 Z4.000
G1 X876.602 Y769.416 Z4.000
G1 X874.241 Y768.190 Z4.000
G1 X872.317 Y766.418 Z4.000
G1 X870.928 Y764.235 Z4.000
G1 X870.140 Y761.756 Z4.000
G1 X870.021 Y759.990 Z4.000
(stop stroke 21)
G0 X870.021 Y759.990 Z0.000
(shape postamble)

(postamble)
(home)
G0 0
G0 X0 Y0
