(Created with svg2gcode_grbl)
(https://github.com/arcadeperfect/svg2gcode_grbl)
(forked from svg2gcode by visphat)
(https://github.com/vishpat/svg2gcode)
F4000
(shape preamble)
G0 X1323.411 Y618.490 Z0.000
(start stroke 1)
(probe_depth_adapt)
G0 X1323.411 Y618.490 Z0 F18000
G1 Z4 F8000
G4 P2.4
G0 Z0 F18000
(end_probe)
G1 X1323.411 Y618.490 Z4.000
G1 X1359.994 Y381.494 Z4.000
G1 X1329.444 Y381.494 Z4.000
G1 X1323.411 Y425.133 Z4.000
G1 X1287.816 Y425.133 Z4.000
G1 X1282.454 Y381.494 Z4.000
G1 X1252.221 Y381.494 Z4.000
G1 X1285.488 Y618.490 Z4.000
G1 X1323.411 Y618.490 Z4.000
(stop stroke 1)
G0 X1323.411 Y618.490 Z0.000
(shape postamble)
(shape preamble)
G0 X1302.915 Y573.829 Z0.000
(start stroke 2)
G1 X1302.915 Y573.829 Z4.000
(pause)
G4 P0.2
(end_pause)
G1 X1302.403 Y558.395 Z4.000
G1 X1301.830 Y542.035 Z4.000
G1 X1301.515 Y537.537 Z4.000
G1 X1301.222 Y535.552 Z4.000
G1 X1291.132 Y453.990 Z4.000
G1 X1319.319 Y453.990 Z4.000
G1 X1307.237 Y538.489 Z4.000
G1 X1306.510 Y545.614 Z4.000
G1 X1305.887 Y556.957 Z4.000
G1 X1305.561 Y573.829 Z4.000
G1 X1302.915 Y573.829 Z4.000
G1 X1302.915 Y573.829 Z4.000
(stop stroke 2)
G0 X1302.915 Y573.829 Z0.000
(shape postamble)
(shape preamble)
G0 X600.005 Y499.992 Z0.000
(start stroke 3)
(probe_depth_adapt)
G0 X600.005 Y499.992 Z0 F18000
G1 Z4 F8000
G4 P2.4
G0 Z0 F18000
(end_probe)
G1 X600.005 Y499.992 Z4.000
G1 X600.005 Y496.643 Z4.000
G1 X600.283 Y486.637 Z4.000
G1 X600.890 Y476.687 Z4.000
G1 X601.824 Y466.802 Z4.000
G1 X603.079 Y456.986 Z4.000
G1 X604.653 Y447.249 Z4.000
G1 X606.540 Y437.595 Z4.000
G1 X608.737 Y428.032 Z4.000
G1 X611.241 Y418.567 Z4.000
G1 X614.047 Y409.207 Z4.000
G1 X617.151 Y399.958 Z4.000
G1 X620.549 Y390.827 Z4.000
G1 X624.237 Y381.822 Z4.000
G1 X628.212 Y372.948 Z4.000
G1 X632.470 Y364.213 Z4.000
G1 X637.006 Y355.624 Z4.000
G1 X641.816 Y347.188 Z4.000
G1 X646.897 Y338.910 Z4.000
G1 X652.245 Y330.799 Z4.000
G1 X657.856 Y322.861 Z4.000
G1 X663.725 Y315.102 Z4.000
G1 X669.849 Y307.530 Z4.000
G1 X676.224 Y300.151 Z4.000
G1 X682.846 Y292.973 Z4.000
G1 X689.711 Y286.002 Z4.000
G1 X696.815 Y279.245 Z4.000
G1 X704.154 Y272.708 Z4.000
G1 X711.725 Y266.399 Z4.000
G1 X719.523 Y260.325 Z4.000
G1 X727.544 Y254.492 Z4.000
G1 X735.784 Y248.907 Z4.000
G1 X744.240 Y243.576 Z4.000
G1 X752.907 Y238.508 Z4.000
G1 X761.711 Y233.745 Z4.000
G1 X770.631 Y229.297 Z4.000
G1 X779.659 Y225.163 Z4.000
G1 X788.787 Y221.342 Z4.000
G1 X798.007 Y217.836 Z4.000
G1 X807.311 Y214.643 Z4.000
G1 X816.692 Y211.765 Z4.000
G1 X826.140 Y209.201 Z4.000
G1 X835.650 Y206.950 Z4.000
G1 X845.211 Y205.014 Z4.000
G1 X854.818 Y203.392 Z4.000
G1 X864.461 Y202.083 Z4.000
G1 X874.133 Y201.089 Z4.000
G1 X883.826 Y200.409 Z4.000
G1 X893.533 Y200.042 Z4.000
G1 X903.244 Y199.990 Z4.000
G1 X912.953 Y200.252 Z4.000
G1 X922.652 Y200.827 Z4.000
G1 X932.332 Y201.717 Z4.000
G1 X941.986 Y202.921 Z4.000
G1 X951.605 Y204.438 Z4.000
G1 X961.183 Y206.270 Z4.000
G1 X970.710 Y208.416 Z4.000
G1 X980.180 Y210.875 Z4.000
G1 X989.584 Y213.649 Z4.000
G1 X998.915 Y216.737 Z4.000
G1 X1008.163 Y220.139 Z4.000
G1 X1017.323 Y223.854 Z4.000
G1 X1026.385 Y227.884 Z4.000
G1 X1035.342 Y232.228 Z4.000
G1 X1044.186 Y236.885 Z4.000
G1 X1052.909 Y241.857 Z4.000
G1 X1061.436 Y247.101 Z4.000
G1 X1069.748 Y252.602 Z4.000
G1 X1077.843 Y258.353 Z4.000
G1 X1085.715 Y264.348 Z4.000
G1 X1093.362 Y270.579 Z4.000
G1 X1100.779 Y277.041 Z4.000
G1 X1107.962 Y283.725 Z4.000
G1 X1114.907 Y290.626 Z4.000
G1 X1121.610 Y297.736 Z4.000
G1 X1128.068 Y305.048 Z4.000
G1 X1134.276 Y312.557 Z4.000
G1 X1140.231 Y320.254 Z4.000
G1 X1145.928 Y328.133 Z4.000
G1 X1151.364 Y336.187 Z4.000
G1 X1156.534 Y344.410 Z4.000
G1 X1161.436 Y352.795 Z4.000
G1 X1166.063 Y361.334 Z4.000
G1 X1170.414 Y370.021 Z4.000
G1 X1174.484 Y378.849 Z4.000
G1 X1178.268 Y387.811 Z4.000
G1 X1181.764 Y396.901 Z4.000
G1 X1184.966 Y406.111 Z4.000
G1 X1187.872 Y415.435 Z4.000
G1 X1190.476 Y424.866 Z4.000
G1 X1192.776 Y434.397 Z4.000
G1 X1194.767 Y444.021 Z4.000
G1 X1196.446 Y453.731 Z4.000
G1 X1197.808 Y463.522 Z4.000
G1 X1198.849 Y473.385 Z4.000
G1 X1199.566 Y483.313 Z4.000
G1 X1199.954 Y493.301 Z4.000
G1 X1200.010 Y503.342 Z4.000
G1 X1199.732 Y513.348 Z4.000
G1 X1199.124 Y523.297 Z4.000
G1 X1198.191 Y533.183 Z4.000
G1 X1196.935 Y542.998 Z4.000
G1 X1195.362 Y552.736 Z4.000
G1 X1193.474 Y562.390 Z4.000
G1 X1191.277 Y571.952 Z4.000
G1 X1188.774 Y581.417 Z4.000
G1 X1185.968 Y590.778 Z4.000
G1 X1182.864 Y600.027 Z4.000
G1 X1179.466 Y609.157 Z4.000
G1 X1175.777 Y618.163 Z4.000
G1 X1171.802 Y627.036 Z4.000
G1 X1167.545 Y635.771 Z4.000
G1 X1163.009 Y644.360 Z4.000
G1 X1158.198 Y652.797 Z4.000
G1 X1153.117 Y661.074 Z4.000
G1 X1147.769 Y669.186 Z4.000
G1 X1142.159 Y677.124 Z4.000
G1 X1136.290 Y684.883 Z4.000
G1 X1130.165 Y692.455 Z4.000
G1 X1123.790 Y699.833 Z4.000
G1 X1117.168 Y707.011 Z4.000
G1 X1110.303 Y713.983 Z4.000
G1 X1103.199 Y720.740 Z4.000
G1 X1095.860 Y727.276 Z4.000
G1 X1088.290 Y733.585 Z4.000
G1 X1080.492 Y739.660 Z4.000
G1 X1072.471 Y745.493 Z4.000
G1 X1064.231 Y751.078 Z4.000
G1 X1055.775 Y756.408 Z4.000
G1 X1047.108 Y761.477 Z4.000
G1 X1038.303 Y766.239 Z4.000
G1 X1029.383 Y770.687 Z4.000
G1 X1020.355 Y774.822 Z4.000
G1 X1011.227 Y778.642 Z4.000
G1 X1002.007 Y782.149 Z4.000
G1 X992.703 Y785.341 Z4.000
G1 X983.323 Y788.219 Z4.000
G1 X973.874 Y790.784 Z4.000
G1 X964.365 Y793.034 Z4.000
G1 X954.803 Y794.971 Z4.000
G1 X945.197 Y796.593 Z4.000
G1 X935.553 Y797.901 Z4.000
G1 X925.881 Y798.896 Z4.000
G1 X916.188 Y799.576 Z4.000
G1 X906.482 Y799.942 Z4.000
G1 X896.770 Y799.995 Z4.000
G1 X887.061 Y799.733 Z4.000
G1 X877.363 Y799.157 Z4.000
G1 X867.682 Y798.268 Z4.000
G1 X858.029 Y797.064 Z4.000
G1 X848.409 Y795.546 Z4.000
G1 X838.832 Y793.715 Z4.000
G1 X829.304 Y791.569 Z4.000
G1 X819.834 Y789.109 Z4.000
G1 X810.430 Y786.335 Z4.000
G1 X801.100 Y783.248 Z4.000
G1 X791.851 Y779.846 Z4.000
G1 X782.692 Y776.130 Z4.000
G1 X773.629 Y772.101 Z4.000
G1 X764.672 Y767.757 Z4.000
G1 X755.828 Y763.099 Z4.000
G1 X747.105 Y758.127 Z4.000
G1 X738.579 Y752.884 Z4.000
G1 X730.266 Y747.383 Z4.000
G1 X722.172 Y741.631 Z4.000
G1 X714.299 Y735.637 Z4.000
G1 X706.653 Y729.405 Z4.000
G1 X699.236 Y722.944 Z4.000
G1 X692.053 Y716.259 Z4.000
G1 X685.108 Y709.359 Z4.000
G1 X678.404 Y702.249 Z4.000
G1 X671.946 Y694.936 Z4.000
G1 X665.738 Y687.428 Z4.000
G1 X659.784 Y679.731 Z4.000
G1 X654.086 Y671.852 Z4.000
G1 X648.650 Y663.797 Z4.000
G1 X643.480 Y655.574 Z4.000
G1 X638.579 Y647.190 Z4.000
G1 X633.951 Y638.651 Z4.000
G1 X629.600 Y629.964 Z4.000
G1 X625.531 Y621.136 Z4.000
G1 X621.746 Y612.174 Z4.000
G1 X618.251 Y603.084 Z4.000
G1 X615.048 Y593.874 Z4.000
G1 X612.143 Y584.550 Z4.000
G1 X609.538 Y575.119 Z4.000
G1 X607.238 Y565.588 Z4.000
G1 X605.247 Y555.964 Z4.000
G1 X603.569 Y546.253 Z4.000
G1 X602.207 Y536.463 Z4.000
G1 X601.166 Y526.600 Z4.000
G1 X600.449 Y516.671 Z4.000
G1 X600.061 Y506.683 Z4.000
G1 X600.005 Y499.992 Z4.000
(stop stroke 3)
G0 X600.005 Y499.992 Z0.000
(shape postamble)

(postamble)
(home)
G0 0
G0 X0 Y0
