(Created with svg2gcode_grbl)
(https://github.com/arcadeperfect/svg2gcode_grbl)
(forked from svg2gcode by visphat)
(https://github.com/vishpat/svg2gcode)
F4000
(shape preamble)
G0 X600.005 Y599.828 Z0.000
(start stroke 1)
(probe_depth_adapt)
G0 X600.005 Y599.828 Z0 F18000
G1 Z4 F8000
G4 P2.4
G0 Z0 F18000
(end_probe)
G1 X600.005 Y599.828 Z4.000
G1 X799.995 Y599.828 Z4.000
(stop stroke 1)
G0 X799.995 Y599.828 Z0.000
(shape postamble)
(shape preamble)
G0 X700.194 Y700.017 Z0.000
(start stroke 2)
(probe_depth_adapt)
G0 X700.194 Y700.017 Z0 F18000
G1 Z4 F8000
G4 P2.4
G0 Z0 F18000
(end_probe)
G1 X700.194 Y700.017 Z4.000
G1 X700.194 Y499.992 Z4.000
(stop stroke 2)
G0 X700.194 Y499.992 Z0.000
(shape postamble)
(shape preamble)
G0 X641.421 Y600.005 Z0.000
(start stroke 3)
(probe_depth_adapt)
G0 X641.421 Y600.005 Z0 F18000
G1 Z4 F8000
G4 P2.4
G0 Z0 F18000
(end_probe)
G1 X641.421 Y600.005 Z4.000
G1 X641.421 Y597.388 Z4.000
G1 X642.277 Y589.690 Z4.000
G1 X644.114 Y582.255 Z4.000
G1 X646.884 Y575.169 Z4.000
G1 X650.536 Y568.516 Z4.000
G1 X655.021 Y562.383 Z4.000
G1 X660.291 Y556.854 Z4.000
G1 X666.295 Y552.014 Z4.000
G1 X672.985 Y547.950 Z4.000
G1 X680.080 Y544.843 Z4.000
G1 X687.437 Y542.717 Z4.000
G1 X694.959 Y541.572 Z4.000
G1 X702.547 Y541.408 Z4.000
G1 X710.101 Y542.226 Z4.000
G1 X717.524 Y544.025 Z4.000
G1 X724.717 Y546.806 Z4.000
G1 X731.582 Y550.567 Z4.000
G1 X737.820 Y555.158 Z4.000
G1 X743.340 Y560.466 Z4.000
G1 X748.093 Y566.408 Z4.000
G1 X752.028 Y572.897 Z4.000
G1 X755.097 Y579.848 Z4.000
G1 X757.251 Y587.176 Z4.000
G1 X758.439 Y594.796 Z4.000
G1 X758.614 Y602.622 Z4.000
G1 X757.758 Y610.319 Z4.000
G1 X755.920 Y617.754 Z4.000
G1 X753.151 Y624.841 Z4.000
G1 X749.499 Y631.493 Z4.000
G1 X745.013 Y637.627 Z4.000
G1 X739.744 Y643.156 Z4.000
G1 X733.739 Y647.995 Z4.000
G1 X727.049 Y652.059 Z4.000
G1 X719.955 Y655.167 Z4.000
G1 X712.597 Y657.293 Z4.000
G1 X705.076 Y658.438 Z4.000
G1 X697.488 Y658.601 Z4.000
G1 X689.934 Y657.783 Z4.000
G1 X682.510 Y655.984 Z4.000
G1 X675.317 Y653.204 Z4.000
G1 X668.453 Y649.442 Z4.000
G1 X662.215 Y644.852 Z4.000
G1 X656.695 Y639.544 Z4.000
G1 X651.942 Y633.602 Z4.000
G1 X648.007 Y627.113 Z4.000
G1 X644.938 Y620.161 Z4.000
G1 X642.784 Y612.833 Z4.000
G1 X641.595 Y605.214 Z4.000
G1 X641.421 Y600.005 Z4.000
(stop stroke 3)
G0 X641.421 Y600.005 Z0.000
(shape postamble)
(shape preamble)
G0 X999.985 Y666.680 Z0.000
(start stroke 4)
(probe_depth_adapt)
G0 X999.985 Y666.680 Z0 F18000
G1 Z4 F8000
G4 P2.4
G0 Z0 F18000
(end_probe)
G1 X999.985 Y666.680 Z4.000
G1 X999.985 Y665.191 Z4.000
G1 X1000.472 Y660.812 Z4.000
G1 X1001.517 Y656.582 Z4.000
G1 X1003.093 Y652.550 Z4.000
G1 X1005.170 Y648.765 Z4.000
G1 X1007.722 Y645.275 Z4.000
G1 X1010.720 Y642.130 Z4.000
G1 X1014.136 Y639.376 Z4.000
G1 X1017.943 Y637.064 Z4.000
G1 X1021.979 Y635.296 Z4.000
G1 X1026.165 Y634.087 Z4.000
G1 X1030.444 Y633.435 Z4.000
G1 X1034.761 Y633.342 Z4.000
G1 X1039.059 Y633.808 Z4.000
G1 X1043.282 Y634.831 Z4.000
G1 X1047.375 Y636.413 Z4.000
G1 X1051.280 Y638.553 Z4.000
G1 X1054.829 Y641.165 Z4.000
G1 X1057.970 Y644.185 Z4.000
G1 X1060.674 Y647.565 Z4.000
G1 X1062.913 Y651.257 Z4.000
G1 X1064.659 Y655.212 Z4.000
G1 X1065.884 Y659.381 Z4.000
G1 X1066.560 Y663.716 Z4.000
G1 X1066.660 Y668.169 Z4.000
G1 X1066.172 Y672.548 Z4.000
G1 X1065.127 Y676.778 Z4.000
G1 X1063.552 Y680.810 Z4.000
G1 X1061.474 Y684.595 Z4.000
G1 X1058.922 Y688.084 Z4.000
G1 X1055.924 Y691.230 Z4.000
G1 X1052.508 Y693.983 Z4.000
G1 X1048.701 Y696.295 Z4.000
G1 X1044.665 Y698.063 Z4.000
G1 X1040.479 Y699.273 Z4.000
G1 X1036.200 Y699.924 Z4.000
G1 X1031.883 Y700.017 Z4.000
G1 X1027.585 Y699.552 Z4.000
G1 X1023.362 Y698.529 Z4.000
G1 X1019.269 Y696.947 Z4.000
G1 X1015.364 Y694.807 Z4.000
G1 X1011.815 Y692.195 Z4.000
G1 X1008.674 Y689.175 Z4.000
G1 X1005.970 Y685.794 Z4.000
G1 X1003.731 Y682.102 Z4.000
G1 X1001.985 Y678.148 Z4.000
G1 X1000.760 Y673.978 Z4.000
G1 X1000.084 Y669.643 Z4.000
G1 X999.985 Y666.680 Z4.000
(stop stroke 4)
G0 X999.985 Y666.680 Z0.000
(shape postamble)
(shape preamble)
G0 X1133.335 Y666.680 Z0.000
(start stroke 5)
(probe_depth_adapt)
G0 X1133.335 Y666.680 Z0 F18000
G1 Z4 F8000
G4 P2.4
G0 Z0 F18000
(end_probe)
G1 X1133.335 Y666.680 Z4.000
G1 X1133.335 Y665.191 Z4.000
G1 X1133.822 Y660.812 Z4.000
G1 X1134.867 Y656.582 Z4.000
G1 X1136.443 Y652.550 Z4.000
G1 X1138.520 Y648.765 Z4.000
G1 X1141.072 Y645.275 Z4.000
G1 X1144.070 Y642.130 Z4.000
G1 X1147.487 Y639.376 Z4.000
G1 X1151.293 Y637.064 Z4.000
G1 X1155.329 Y635.296 Z4.000
G1 X1159.515 Y634.087 Z4.000
G1 X1163.794 Y633.435 Z4.000
G1 X1168.111 Y633.342 Z4.000
G1 X1172.409 Y633.808 Z4.000
G1 X1176.632 Y634.831 Z4.000
G1 X1180.725 Y636.413 Z4.000
G1 X1184.630 Y638.553 Z4.000
G1 X1188.179 Y641.165 Z4.000
G1 X1191.320 Y644.185 Z4.000
G1 X1194.024 Y647.565 Z4.000
G1 X1196.263 Y651.257 Z4.000
G1 X1198.009 Y655.212 Z4.000
G1 X1199.234 Y659.381 Z4.000
G1 X1199.910 Y663.716 Z4.000
G1 X1200.010 Y668.169 Z4.000
G1 X1199.523 Y672.548 Z4.000
G1 X1198.477 Y676.778 Z4.000
G1 X1196.902 Y680.810 Z4.000
G1 X1194.824 Y684.595 Z4.000
G1 X1192.272 Y688.084 Z4.000
G1 X1189.274 Y691.230 Z4.000
G1 X1185.858 Y693.983 Z4.000
G1 X1182.052 Y696.295 Z4.000
G1 X1178.015 Y698.063 Z4.000
G1 X1173.829 Y699.273 Z4.000
G1 X1169.550 Y699.924 Z4.000
G1 X1165.233 Y700.017 Z4.000
G1 X1160.935 Y699.552 Z4.000
G1 X1156.712 Y698.529 Z4.000
G1 X1152.619 Y696.947 Z4.000
G1 X1148.714 Y694.807 Z4.000
G1 X1145.165 Y692.195 Z4.000
G1 X1142.024 Y689.175 Z4.000
G1 X1139.320 Y685.794 Z4.000
G1 X1137.082 Y682.102 Z4.000
G1 X1135.335 Y678.148 Z4.000
G1 X1134.110 Y673.978 Z4.000
G1 X1133.434 Y669.643 Z4.000
G1 X1133.335 Y666.680 Z4.000
(stop stroke 5)
G0 X1133.335 Y666.680 Z0.000
(shape postamble)
(shape preamble)
G0 X1066.660 Y600.005 Z0.000
(start stroke 6)
(probe_depth_adapt)
G0 X1066.660 Y600.005 Z0 F18000
G1 Z4 F8000
G4 P2.4
G0 Z0 F18000
(end_probe)
G1 X1066.660 Y600.005 Z4.000
G1 X1066.660 Y598.516 Z4.000
G1 X1067.147 Y594.137 Z4.000
G1 X1068.192 Y589.907 Z4.000
G1 X1069.768 Y585.875 Z4.000
G1 X1071.845 Y582.090 Z4.000
G1 X1074.397 Y578.600 Z4.000
G1 X1077.395 Y575.455 Z4.000
G1 X1080.812 Y572.701 Z4.000
G1 X1084.618 Y570.389 Z4.000
G1 X1088.654 Y568.621 Z4.000
G1 X1092.840 Y567.412 Z4.000
G1 X1097.119 Y566.760 Z4.000
G1 X1101.436 Y566.667 Z4.000
G1 X1105.734 Y567.133 Z4.000
G1 X1109.957 Y568.156 Z4.000
G1 X1114.050 Y569.738 Z4.000
G1 X1117.955 Y571.878 Z4.000
G1 X1121.504 Y574.490 Z4.000
G1 X1124.645 Y577.510 Z4.000
G1 X1127.349 Y580.890 Z4.000
G1 X1129.588 Y584.582 Z4.000
G1 X1131.334 Y588.537 Z4.000
G1 X1132.559 Y592.706 Z4.000
G1 X1133.235 Y597.041 Z4.000
G1 X1133.335 Y601.494 Z4.000
G1 X1132.848 Y605.873 Z4.000
G1 X1131.802 Y610.103 Z4.000
G1 X1130.227 Y614.135 Z4.000
G1 X1128.149 Y617.920 Z4.000
G1 X1125.597 Y621.409 Z4.000
G1 X1122.599 Y624.555 Z4.000
G1 X1119.183 Y627.308 Z4.000
G1 X1115.377 Y629.620 Z4.000
G1 X1111.340 Y631.388 Z4.000
G1 X1107.154 Y632.598 Z4.000
G1 X1102.875 Y633.249 Z4.000
G1 X1098.558 Y633.342 Z4.000
G1 X1094.260 Y632.877 Z4.000
G1 X1090.037 Y631.854 Z4.000
G1 X1085.944 Y630.272 Z4.000
G1 X1082.039 Y628.132 Z4.000
G1 X1078.490 Y625.520 Z4.000
G1 X1075.349 Y622.500 Z4.000
G1 X1072.645 Y619.119 Z4.000
G1 X1070.406 Y615.427 Z4.000
G1 X1068.660 Y611.473 Z4.000
G1 X1067.435 Y607.303 Z4.000
G1 X1066.759 Y602.968 Z4.000
G1 X1066.660 Y600.005 Z4.000
(stop stroke 6)
G0 X1066.660 Y600.005 Z0.000
(shape postamble)
(shape preamble)
G0 X999.985 Y533.330 Z0.000
(start stroke 7)
(probe_depth_adapt)
G0 X999.985 Y533.330 Z0 F18000
G1 Z4 F8000
G4 P2.4
G0 Z0 F18000
(end_probe)
G1 X999.985 Y533.330 Z4.000
G1 X999.985 Y531.841 Z4.000
G1 X1000.472 Y527.461 Z4.000
G1 X1001.517 Y523.232 Z4.000
G1 X1003.093 Y519.200 Z4.000
G1 X1005.170 Y515.415 Z4.000
G1 X1007.722 Y511.925 Z4.000
G1 X1010.720 Y508.780 Z4.000
G1 X1014.136 Y506.026 Z4.000
G1 X1017.943 Y503.714 Z4.000
G1 X1021.979 Y501.946 Z4.000
G1 X1026.165 Y500.737 Z4.000
G1 X1030.444 Y500.085 Z4.000
G1 X1034.761 Y499.992 Z4.000
G1 X1039.059 Y500.458 Z4.000
G1 X1043.282 Y501.481 Z4.000
G1 X1047.375 Y503.063 Z4.000
G1 X1051.280 Y505.203 Z4.000
G1 X1054.829 Y507.815 Z4.000
G1 X1057.970 Y510.835 Z4.000
G1 X1060.674 Y514.215 Z4.000
G1 X1062.913 Y517.907 Z4.000
G1 X1064.659 Y521.862 Z4.000
G1 X1065.884 Y526.031 Z4.000
G1 X1066.560 Y530.366 Z4.000
G1 X1066.660 Y534.819 Z4.000
G1 X1066.172 Y539.198 Z4.000
G1 X1065.127 Y543.428 Z4.000
G1 X1063.552 Y547.460 Z4.000
G1 X1061.474 Y551.245 Z4.000
G1 X1058.922 Y554.734 Z4.000
G1 X1055.924 Y557.880 Z4.000
G1 X1052.508 Y560.633 Z4.000
G1 X1048.701 Y562.945 Z4.000
G1 X1044.665 Y564.713 Z4.000
G1 X1040.479 Y565.923 Z4.000
G1 X1036.200 Y566.574 Z4.000
G1 X1031.883 Y566.667 Z4.000
G1 X1027.585 Y566.202 Z4.000
G1 X1023.362 Y565.179 Z4.000
G1 X1019.269 Y563.597 Z4.000
G1 X1015.364 Y561.457 Z4.000
G1 X1011.815 Y558.845 Z4.000
G1 X1008.674 Y555.825 Z4.000
G1 X1005.970 Y552.444 Z4.000
G1 X1003.731 Y548.752 Z4.000
G1 X1001.985 Y544.798 Z4.000
G1 X1000.760 Y540.628 Z4.000
G1 X1000.084 Y536.293 Z4.000
G1 X999.985 Y533.330 Z4.000
(stop stroke 7)
G0 X999.985 Y533.330 Z0.000
(shape postamble)
(shape preamble)
G0 X1133.335 Y533.330 Z0.000
(start stroke 8)
(probe_depth_adapt)
G0 X1133.335 Y533.330 Z0 F18000
G1 Z4 F8000
G4 P2.4
G0 Z0 F18000
(end_probe)
G1 X1133.335 Y533.330 Z4.000
G1 X1133.335 Y531.841 Z4.000
G1 X1133.822 Y527.461 Z4.000
G1 X1134.867 Y523.232 Z4.000
G1 X1136.443 Y519.200 Z4.000
G1 X1138.520 Y515.415 Z4.000
G1 X1141.072 Y511.925 Z4.000
G1 X1144.070 Y508.780 Z4.000
G1 X1147.487 Y506.026 Z4.000
G1 X1151.293 Y503.714 Z4.000
G1 X1155.329 Y501.946 Z4.000
G1 X1159.515 Y500.737 Z4.000
G1 X1163.794 Y500.085 Z4.000
G1 X1168.111 Y499.992 Z4.000
G1 X1172.409 Y500.458 Z4.000
G1 X1176.632 Y501.481 Z4.000
G1 X1180.725 Y503.063 Z4.000
G1 X1184.630 Y505.203 Z4.000
G1 X1188.179 Y507.815 Z4.000
G1 X1191.320 Y510.835 Z4.000
G1 X1194.024 Y514.215 Z4.000
G1 X1196.263 Y517.907 Z4.000
G1 X1198.009 Y521.862 Z4.000
G1 X1199.234 Y526.031 Z4.000
G1 X1199.910 Y530.366 Z4.000
G1 X1200.010 Y534.819 Z4.000
G1 X1199.523 Y539.198 Z4.000
G1 X1198.477 Y543.428 Z4.000
G1 X1196.902 Y547.460 Z4.000
G1 X1194.824 Y551.245 Z4.000
G1 X1192.272 Y554.734 Z4.000
G1 X1189.274 Y557.880 Z4.000
G1 X1185.858 Y560.633 Z4.000
G1 X1182.052 Y562.945 Z4.000
G1 X1178.015 Y564.713 Z4.000
G1 X1173.829 Y565.923 Z4.000
G1 X1169.550 Y566.574 Z4.000
G1 X1165.233 Y566.667 Z4.000
G1 X1160.935 Y566.202 Z4.000
G1 X1156.712 Y565.179 Z4.000
G1 X1152.619 Y563.597 Z4.000
G1 X1148.714 Y561.457 Z4.000
G1 X1145.165 Y558.845 Z4.000
G1 X1142.024 Y555.825 Z4.000
G1 X1139.320 Y552.444 Z4.000
G1 X1137.082 Y548.752 Z4.000
G1 X1135.335 Y544.798 Z4.000
G1 X1134.110 Y540.628 Z4.000
G1 X1133.434 Y536.293 Z4.000
G1 X1133.335 Y533.330 Z4.000
(stop stroke 8)
G0 X1133.335 Y533.330 Z0.000
(shape postamble)
(shape preamble)
G0 X900.007 Y600.005 Z0.000
(start stroke 9)
(probe_depth_adapt)
G0 X900.007 Y600.005 Z0 F18000
G1 Z4 F8000
G4 P2.4
G0 Z0 F18000
(end_probe)
G1 X900.007 Y600.005 Z4.000
G1 X860.002 Y499.992 Z4.000
G1 X940.012 Y499.992 Z4.000
G1 X900.007 Y600.005 Z4.000
(stop stroke 9)
G0 X900.007 Y600.005 Z0.000
(shape postamble)
(shape preamble)
G0 X900.007 Y600.005 Z0.000
(start stroke 10)
G1 X900.007 Y600.005 Z4.000
(pause)
G4 P0.2
(end_pause)
G1 X900.007 Y700.017 Z4.000
(stop stroke 10)
G0 X900.007 Y700.017 Z0.000
(shape postamble)

(postamble)
(home)
G0 0
G0 X0 Y0
