(Created with svg2gcode_grbl)
(https://github.com/arcadeperfect/svg2gcode_grbl)
(forked from svg2gcode by visphat)
(https://github.com/vishpat/svg2gcode)
F4000
(shape preamble)
G0 X418.812 Y491.227 Z0.000
G1 X418.812 Y491.227 Z4.000
G1 X496.829 Y475.504 Z4.000
G1 X491.249 Y494.379 Z4.000
G1 X542.420 Y494.350 Z4.000
G1 X465.053 Y518.273 Z4.000
G1 X471.606 Y493.830 Z4.000
G1 X418.812 Y491.227 Z4.000
G0 X418.812 Y491.227 Z0.000
(shape postamble)
(shape preamble)
G0 X573.983 Y479.848 Z0.000
G1 X573.983 Y479.848 Z4.000
G1 X580.931 Y505.228 Z4.000
G1 X581.503 Y507.652 Z4.000
G1 X581.627 Y509.280 Z4.000
G1 X581.270 Y510.225 Z4.000
G1 X580.198 Y510.759 Z4.000
G1 X577.451 Y510.946 Z4.000
G1 X580.614 Y513.158 Z4.000
G1 X586.586 Y513.879 Z4.000
G1 X592.689 Y515.010 Z4.000
G1 X588.165 Y500.878 Z4.000
G1 X588.239 Y500.642 Z4.000
G1 X591.427 Y505.378 Z4.000
G1 X593.772 Y508.409 Z4.000
G1 X595.992 Y510.772 Z4.000
G1 X598.251 Y512.666 Z4.000
G1 X600.615 Y514.103 Z4.000
G1 X603.100 Y514.897 Z4.000
G1 X605.643 Y515.010 Z4.000
G1 X607.778 Y514.435 Z4.000
G1 X609.261 Y513.400 Z4.000
G1 X609.936 Y512.528 Z4.000
G1 X610.538 Y511.061 Z4.000
G1 X610.680 Y508.149 Z4.000
G1 X609.282 Y502.320 Z4.000
G1 X605.056 Y489.705 Z4.000
G1 X603.925 Y485.255 Z4.000
G1 X604.608 Y484.441 Z4.000
G1 X605.491 Y484.323 Z4.000
G1 X606.901 Y485.379 Z4.000
G1 X608.834 Y487.753 Z4.000
G1 X610.413 Y490.177 Z4.000
G1 X611.158 Y487.567 Z4.000
G1 X608.713 Y484.053 Z4.000
G1 X606.779 Y481.918 Z4.000
G1 X605.044 Y480.545 Z4.000
G1 X603.258 Y479.606 Z4.000
G1 X601.421 Y479.100 Z4.000
G1 X599.491 Y479.028 Z4.000
G1 X597.639 Y479.525 Z4.000
G1 X596.261 Y480.420 Z4.000
G1 X595.623 Y481.161 Z4.000
G1 X595.053 Y482.387 Z4.000
G1 X594.920 Y484.534 Z4.000
G1 X595.246 Y486.796 Z4.000
G1 X596.225 Y490.848 Z4.000
G1 X597.493 Y495.211 Z4.000
G1 X601.060 Y506.894 Z4.000
G1 X601.221 Y507.528 Z4.000
G1 X601.246 Y508.211 Z4.000
G1 X601.005 Y508.852 Z4.000
G1 X600.283 Y509.342 Z4.000
G1 X599.037 Y509.454 Z4.000
G1 X597.817 Y509.076 Z4.000
G1 X596.532 Y508.242 Z4.000
G1 X595.182 Y506.955 Z4.000
G1 X593.295 Y504.607 Z4.000
G1 X590.876 Y500.979 Z4.000
G1 X588.926 Y497.262 Z4.000
G1 X587.236 Y493.300 Z4.000
G1 X585.437 Y487.940 Z4.000
G1 X583.181 Y479.849 Z4.000
G1 X573.983 Y479.849 Z4.000
G1 X573.983 Y479.848 Z4.000
G0 X573.983 Y479.848 Z0.000
(shape postamble)
(shape preamble)
G0 X623.426 Y490.065 Z0.000
G1 X623.426 Y490.065 Z4.000
G1 X624.209 Y490.065 Z4.000
G1 X626.123 Y489.374 Z4.000
G1 X627.515 Y487.853 Z4.000
G1 X628.074 Y485.922 Z4.000
G1 X627.726 Y483.652 Z4.000
G1 X626.583 Y481.590 Z4.000
G1 X624.693 Y479.873 Z4.000
G1 X622.540 Y478.905 Z4.000
G1 X620.231 Y478.767 Z4.000
G1 X618.339 Y479.459 Z4.000
G1 X616.950 Y480.980 Z4.000
G1 X616.406 Y482.926 Z4.000
G1 X616.764 Y485.218 Z4.000
G1 X617.885 Y487.272 Z4.000
G1 X619.772 Y488.971 Z4.000
G1 X621.909 Y489.928 Z4.000
G1 X623.426 Y490.065 Z4.000
G0 X623.426 Y490.065 Z0.000
(shape postamble)
(shape preamble)
G0 X1031.457 Y572.088 Z0.000
G1 X1031.457 Y572.088 Z4.000
G1 X1031.457 Y427.913 Z4.000
G0 X1031.457 Y427.913 Z0.000
(shape postamble)
(shape preamble)
G0 X1109.249 Y572.088 Z0.000
G1 X1109.249 Y572.088 Z4.000
G1 X1109.249 Y427.913 Z4.000
G0 X1109.249 Y427.913 Z0.000
(shape postamble)
(shape preamble)
G0 X1202.599 Y527.487 Z0.000
G1 X1202.599 Y527.487 Z4.000
G1 X1166.296 Y479.774 Z4.000
G1 X1233.716 Y466.290 Z4.000
G1 X1202.599 Y527.487 Z4.000
G0 X1202.599 Y527.487 Z0.000
(shape postamble)
(shape preamble)
G0 X1334.904 Y553.334 Z0.000
G1 X1334.904 Y553.334 Z4.000
G1 X1345.831 Y519.707 Z4.000
G1 X1381.189 Y519.707 Z4.000
G1 X1352.584 Y498.923 Z4.000
G1 X1363.510 Y465.296 Z4.000
G1 X1334.904 Y486.079 Z4.000
G1 X1306.299 Y465.296 Z4.000
G1 X1317.225 Y498.923 Z4.000
G1 X1288.620 Y519.707 Z4.000
G1 X1323.978 Y519.707 Z4.000
G1 X1334.904 Y553.334 Z4.000
G0 X1334.904 Y553.334 Z0.000
(shape postamble)
(shape preamble)
G0 X882.096 Y500.000 Z0.000
G1 X882.096 Y500.000 Z4.000
G1 X960.925 Y500.000 Z4.000
G0 X960.925 Y500.000 Z0.000
(shape postamble)
(shape preamble)
G0 X921.511 Y539.415 Z0.000
G1 X921.511 Y539.415 Z4.000
G1 X921.511 Y460.586 Z4.000
G0 X921.511 Y460.586 Z0.000
(shape postamble)
(shape preamble)
G0 X845.086 Y460.586 Z0.000
G1 X845.086 Y460.586 Z4.000
G1 X820.082 Y539.415 Z4.000
G1 X712.112 Y460.586 Z4.000
G0 X712.112 Y460.586 Z0.000
(shape postamble)

(postamble)
(home)
G0 0
G0 X0 Y0
