(Created with svg2gcode_grbl)
(https://github.com/arcadeperfect/svg2gcode_grbl)
(forked from svg2gcode by visphat)
(https://github.com/vishpat/svg2gcode)
F4000
(shape preamble)
G0 X180.367 Y786.197 Z0.000
(start stroke 1)
(probe_depth_adapt)
G0 X180.367 Y786.197 Z0 F10000
G1 Z4 F4000
G4 P1.0
G0 Z0 F10000
(end_probe)
G1 X180.367 Y786.197 Z4.000
G1 X180.367 Y789.298 Z4.000
G1 X180.566 Y796.302 Z4.000
G1 X180.964 Y800.208 Z4.000
G1 X181.695 Y803.902 Z4.000
G1 X182.857 Y807.411 Z4.000
G1 X184.551 Y810.763 Z4.000
G1 X186.875 Y813.983 Z4.000
G1 X189.700 Y816.984 Z4.000
G1 X192.335 Y819.325 Z4.000
G1 X195.114 Y821.206 Z4.000
G1 X198.015 Y822.670 Z4.000
G1 X201.016 Y823.762 Z4.000
G1 X204.096 Y824.523 Z4.000
G1 X208.282 Y825.140 Z4.000
G1 X214.141 Y825.255 Z4.000
G1 X218.930 Y824.810 Z4.000
G1 X223.575 Y823.790 Z4.000
G1 X227.969 Y822.153 Z4.000
G1 X231.315 Y820.287 Z4.000
G1 X233.368 Y818.869 Z4.000
G1 X235.501 Y817.013 Z4.000
G1 X237.594 Y814.632 Z4.000
G1 X239.529 Y811.642 Z4.000
G1 X241.187 Y807.955 Z4.000
G1 X242.451 Y803.486 Z4.000
G1 X243.201 Y798.148 Z4.000
G1 X243.320 Y794.008 Z4.000
G1 X243.320 Y771.262 Z4.000
G1 X232.062 Y777.466 Z4.000
G1 X231.975 Y790.411 Z4.000
G1 X231.545 Y798.388 Z4.000
G1 X230.705 Y802.576 Z4.000
G1 X229.951 Y804.645 Z4.000
G1 X228.931 Y806.702 Z4.000
G1 X227.572 Y808.709 Z4.000
G1 X225.957 Y810.436 Z4.000
G1 X224.123 Y811.883 Z4.000
G1 X222.103 Y813.049 Z4.000
G1 X219.934 Y813.936 Z4.000
G1 X217.650 Y814.543 Z4.000
G1 X215.286 Y814.869 Z4.000
G1 X211.671 Y814.916 Z4.000
G1 X207.252 Y814.296 Z4.000
G1 X204.871 Y813.647 Z4.000
G1 X202.703 Y812.781 Z4.000
G1 X200.744 Y811.703 Z4.000
G1 X198.988 Y810.418 Z4.000
G1 X197.429 Y808.932 Z4.000
G1 X195.617 Y806.681 Z4.000
G1 X193.560 Y802.634 Z4.000
G1 X192.199 Y797.884 Z4.000
G1 X191.492 Y792.475 Z4.000
G1 X191.395 Y788.494 Z4.000
G1 X191.395 Y706.873 Z4.000
G1 X191.483 Y699.297 Z4.000
G1 X191.923 Y692.130 Z4.000
G1 X192.780 Y686.652 Z4.000
G1 X193.550 Y683.608 Z4.000
G1 X194.561 Y680.789 Z4.000
G1 X195.847 Y678.221 Z4.000
G1 X197.442 Y675.930 Z4.000
G1 X199.377 Y673.943 Z4.000
G1 X201.685 Y672.286 Z4.000
G1 X204.401 Y670.985 Z4.000
G1 X207.556 Y670.066 Z4.000
G1 X211.184 Y669.556 Z4.000
G1 X215.146 Y669.481 Z4.000
G1 X218.474 Y669.815 Z4.000
G1 X221.378 Y670.510 Z4.000
G1 X223.887 Y671.518 Z4.000
G1 X226.029 Y672.795 Z4.000
G1 X227.833 Y674.295 Z4.000
G1 X229.328 Y675.973 Z4.000
G1 X230.544 Y677.783 Z4.000
G1 X231.818 Y680.315 Z4.000
G1 X232.975 Y684.195 Z4.000
G1 X233.516 Y687.816 Z4.000
G1 X233.670 Y690.816 Z4.000
G1 X233.670 Y692.227 Z4.000
G1 X233.670 Y717.270 Z4.000
G1 X245.158 Y717.270 Z4.000
G1 X245.158 Y691.193 Z4.000
G1 X245.028 Y686.944 Z4.000
G1 X244.382 Y681.776 Z4.000
G1 X243.122 Y677.115 Z4.000
G1 X241.991 Y674.307 Z4.000
G1 X240.505 Y671.556 Z4.000
G1 X238.615 Y668.921 Z4.000
G1 X236.273 Y666.466 Z4.000
G1 X233.429 Y664.250 Z4.000
G1 X230.037 Y662.335 Z4.000
G1 X226.047 Y660.782 Z4.000
G1 X221.410 Y659.654 Z4.000
G1 X216.079 Y659.010 Z4.000
G1 X210.551 Y658.912 Z4.000
G1 X206.336 Y659.274 Z4.000
G1 X202.524 Y660.027 Z4.000
G1 X199.092 Y661.125 Z4.000
G1 X196.019 Y662.523 Z4.000
G1 X193.283 Y664.176 Z4.000
G1 X190.864 Y666.036 Z4.000
G1 X188.738 Y668.059 Z4.000
G1 X186.886 Y670.227 Z4.000
G1 X185.273 Y672.555 Z4.000
G1 X183.894 Y675.085 Z4.000
G1 X182.745 Y677.917 Z4.000
G1 X181.824 Y681.155 Z4.000
G1 X181.129 Y684.901 Z4.000
G1 X180.510 Y690.747 Z4.000
G1 X180.367 Y698.200 Z4.000
G1 X180.367 Y786.197 Z4.000
G1 X180.367 Y786.197 Z4.000
(stops stroke 1)
G0 X180.367 Y786.197 Z0.000
(shape postamble)
(shape preamble)
G0 X281.404 Y823.647 Z0.000
(start stroke 2)
G1 X281.404 Y823.647 Z4.000
(pause)
G4 P0.5
G1 X281.404 Y751.503 Z4.000
G1 X323.220 Y751.503 Z4.000
G1 X323.220 Y823.647 Z4.000
G1 X334.478 Y823.647 Z4.000
G1 X334.478 Y661.439 Z4.000
G1 X323.220 Y661.439 Z4.000
G1 X323.220 Y741.624 Z4.000
G1 X281.404 Y741.624 Z4.000
G1 X281.404 Y661.439 Z4.000
G1 X270.146 Y661.439 Z4.000
G1 X270.146 Y823.647 Z4.000
G1 X281.404 Y823.647 Z4.000
(stops stroke 2)
G0 X281.404 Y823.647 Z0.000
(shape postamble)
(shape preamble)
G0 X398.578 Y824.566 Z0.000
(start stroke 3)
G1 X398.578 Y824.566 Z4.000
(pause)
G4 P0.5
G1 X427.987 Y661.439 Z4.000
G1 X416.039 Y661.439 Z4.000
G1 X407.768 Y710.837 Z4.000
G1 X373.765 Y710.837 Z4.000
G1 X365.264 Y661.439 Z4.000
G1 X353.316 Y661.439 Z4.000
G1 X382.955 Y824.566 Z4.000
G1 X398.578 Y824.566 Z4.000
(stops stroke 3)
G0 X398.578 Y824.566 Z0.000
(shape postamble)
(shape preamble)
G0 X393.064 Y796.536 Z0.000
(start stroke 4)
G1 X393.064 Y796.536 Z4.000
(pause)
G4 P0.5
G1 X392.604 Y798.833 Z4.000
G1 X390.537 Y809.632 Z4.000
G1 X389.618 Y802.969 Z4.000
G1 X388.928 Y797.914 Z4.000
G1 X375.602 Y721.406 Z4.000
G1 X405.701 Y721.406 Z4.000
G1 X393.064 Y796.536 Z4.000
(stops stroke 4)
G0 X393.064 Y796.536 Z0.000
(shape postamble)
(shape preamble)
G0 X447.515 Y823.647 Z0.000
(start stroke 5)
G1 X447.515 Y823.647 Z4.000
(pause)
G4 P0.5
G1 X480.313 Y823.647 Z4.000
G1 X485.434 Y823.414 Z4.000
G1 X490.821 Y822.654 Z4.000
G1 X495.273 Y821.386 Z4.000
G1 X497.851 Y820.314 Z4.000
G1 X500.309 Y818.955 Z4.000
G1 X502.608 Y817.275 Z4.000
G1 X504.710 Y815.241 Z4.000
G1 X506.573 Y812.819 Z4.000
G1 X508.158 Y809.977 Z4.000
G1 X509.426 Y806.681 Z4.000
G1 X510.337 Y802.898 Z4.000
G1 X510.851 Y798.594 Z4.000
G1 X510.928 Y795.387 Z4.000
G1 X510.928 Y769.281 Z4.000
G1 X510.839 Y766.016 Z4.000
G1 X510.395 Y762.097 Z4.000
G1 X509.328 Y757.811 Z4.000
G1 X507.729 Y754.167 Z4.000
G1 X506.430 Y752.026 Z4.000
G1 X504.819 Y749.959 Z4.000
G1 X502.865 Y748.003 Z4.000
G1 X500.532 Y746.192 Z4.000
G1 X497.789 Y744.563 Z4.000
G1 X494.601 Y743.151 Z4.000
G1 X490.936 Y741.992 Z4.000
G1 X488.182 Y741.394 Z4.000
G1 X518.050 Y661.439 Z4.000
G1 X506.103 Y661.439 Z4.000
G1 X476.464 Y740.475 Z4.000
G1 X458.773 Y740.475 Z4.000
G1 X458.773 Y661.439 Z4.000
G1 X447.515 Y661.439 Z4.000
G1 X447.515 Y823.647 Z4.000
(stops stroke 5)
G0 X447.515 Y823.647 Z0.000
(shape postamble)
(shape preamble)
G0 X458.773 Y813.997 Z0.000
(start stroke 6)
G1 X458.773 Y813.997 Z4.000
(pause)
G4 P0.5
G1 X458.773 Y750.125 Z4.000
G1 X480.801 Y750.125 Z4.000
G1 X485.103 Y750.528 Z4.000
G1 X488.862 Y751.437 Z4.000
G1 X492.061 Y752.877 Z4.000
G1 X494.680 Y754.871 Z4.000
G1 X496.700 Y757.444 Z4.000
G1 X498.103 Y760.620 Z4.000
G1 X498.869 Y764.424 Z4.000
G1 X498.981 Y767.357 Z4.000
G1 X498.981 Y794.726 Z4.000
G1 X498.372 Y800.534 Z4.000
G1 X497.089 Y805.074 Z4.000
G1 X495.190 Y808.496 Z4.000
G1 X492.734 Y810.946 Z4.000
G1 X489.781 Y812.573 Z4.000
G1 X486.391 Y813.525 Z4.000
G1 X482.621 Y813.950 Z4.000
G1 X479.911 Y813.997 Z4.000
G1 X458.773 Y813.997 Z4.000
G1 X458.773 Y813.997 Z4.000
(stops stroke 6)
G0 X458.773 Y813.997 Z0.000
(shape postamble)
(shape preamble)
G0 X538.267 Y823.647 Z0.000
(start stroke 7)
G1 X538.267 Y823.647 Z4.000
(pause)
G4 P0.5
G1 X549.525 Y823.647 Z4.000
G1 X549.525 Y671.549 Z4.000
G1 X591.800 Y671.549 Z4.000
G1 X591.800 Y661.439 Z4.000
G1 X538.267 Y661.439 Z4.000
G1 X538.267 Y823.647 Z4.000
(stops stroke 7)
G0 X538.267 Y823.647 Z0.000
(shape postamble)
(shape preamble)
G0 X610.407 Y823.647 Z0.000
(start stroke 8)
G1 X610.407 Y823.647 Z4.000
(pause)
G4 P0.5
G1 X667.846 Y823.647 Z4.000
G1 X667.846 Y813.538 Z4.000
G1 X621.665 Y813.538 Z4.000
G1 X621.665 Y751.044 Z4.000
G1 X659.575 Y751.044 Z4.000
G1 X659.575 Y741.164 Z4.000
G1 X621.435 Y741.164 Z4.000
G1 X621.435 Y671.549 Z4.000
G1 X667.616 Y671.549 Z4.000
G1 X667.616 Y661.439 Z4.000
G1 X610.407 Y661.439 Z4.000
G1 X610.407 Y823.647 Z4.000
(stops stroke 8)
G0 X610.407 Y823.647 Z0.000
(shape postamble)
(shape preamble)
G0 X696.509 Y701.646 Z0.000
(start stroke 9)
G1 X696.509 Y701.646 Z4.000
(pause)
G4 P0.5
G1 X696.509 Y698.602 Z4.000
G1 X696.660 Y691.035 Z4.000
G1 X697.263 Y685.894 Z4.000
G1 X697.922 Y683.135 Z4.000
G1 X698.884 Y680.577 Z4.000
G1 X700.203 Y678.161 Z4.000
G1 X701.994 Y675.770 Z4.000
G1 X704.216 Y673.702 Z4.000
G1 X706.647 Y672.096 Z4.000
G1 X709.199 Y670.897 Z4.000
G1 X712.649 Y669.782 Z4.000
G1 X717.517 Y669.079 Z4.000
G1 X722.184 Y669.021 Z4.000
G1 X726.525 Y669.617 Z4.000
G1 X728.831 Y670.243 Z4.000
G1 X730.904 Y671.083 Z4.000
G1 X732.754 Y672.133 Z4.000
G1 X734.391 Y673.389 Z4.000
G1 X735.823 Y674.848 Z4.000
G1 X737.463 Y677.070 Z4.000
G1 X739.272 Y681.097 Z4.000
G1 X740.428 Y685.871 Z4.000
G1 X741.006 Y691.361 Z4.000
G1 X741.082 Y697.741 Z4.000
G1 X740.653 Y703.826 Z4.000
G1 X739.619 Y709.193 Z4.000
G1 X737.877 Y714.111 Z4.000
G1 X735.330 Y718.849 Z4.000
G1 X731.878 Y723.678 Z4.000
G1 X727.420 Y728.865 Z4.000
G1 X721.857 Y734.681 Z4.000
G1 X712.879 Y743.634 Z4.000
G1 X703.594 Y753.453 Z4.000
G1 X699.020 Y759.093 Z4.000
G1 X695.281 Y764.786 Z4.000
G1 X692.401 Y770.776 Z4.000
G1 X690.712 Y776.197 Z4.000
G1 X689.977 Y779.675 Z4.000
G1 X689.315 Y784.613 Z4.000
G1 X689.157 Y791.797 Z4.000
G1 X689.413 Y797.441 Z4.000
G1 X690.244 Y803.419 Z4.000
G1 X691.624 Y808.384 Z4.000
G1 X692.788 Y811.264 Z4.000
G1 X694.262 Y814.015 Z4.000
G1 X696.081 Y816.592 Z4.000
G1 X698.282 Y818.950 Z4.000
G1 X700.900 Y821.043 Z4.000
G1 X703.971 Y822.826 Z4.000
G1 X707.530 Y824.253 Z4.000
G1 X711.613 Y825.278 Z4.000
G1 X716.256 Y825.857 Z4.000
G1 X721.610 Y825.944 Z4.000
G1 X726.719 Y825.528 Z4.000
G1 X731.176 Y824.650 Z4.000
G1 X735.026 Y823.354 Z4.000
G1 X738.314 Y821.680 Z4.000
G1 X741.083 Y819.673 Z4.000
G1 X743.378 Y817.372 Z4.000
G1 X745.244 Y814.821 Z4.000
G1 X746.725 Y812.062 Z4.000
G1 X747.865 Y809.136 Z4.000
G1 X748.976 Y805.064 Z4.000
G1 X749.805 Y798.724 Z4.000
G1 X750.042 Y792.447 Z4.000
G1 X750.042 Y788.494 Z4.000
G1 X750.042 Y776.777 Z4.000
G1 X739.014 Y776.777 Z4.000
G1 X739.014 Y792.486 Z4.000
G1 X738.939 Y796.524 Z4.000
G1 X738.567 Y800.738 Z4.000
G1 X737.673 Y804.888 Z4.000
G1 X736.332 Y808.106 Z4.000
G1 X735.243 Y809.884 Z4.000
G1 X733.892 Y811.507 Z4.000
G1 X732.254 Y812.944 Z4.000
G1 X730.298 Y814.165 Z4.000
G1 X727.998 Y815.141 Z4.000
G1 X725.326 Y815.841 Z4.000
G1 X722.253 Y816.235 Z4.000
G1 X718.106 Y816.295 Z4.000
G1 X713.344 Y815.635 Z4.000
G1 X709.429 Y814.196 Z4.000
G1 X706.302 Y811.992 Z4.000
G1 X703.904 Y809.036 Z4.000
G1 X702.176 Y805.341 Z4.000
G1 X701.057 Y800.921 Z4.000
G1 X700.490 Y795.789 Z4.000
G1 X700.415 Y789.959 Z4.000
G1 X700.736 Y784.625 Z4.000
G1 X701.639 Y779.726 Z4.000
G1 X703.333 Y774.940 Z4.000
G1 X706.029 Y769.949 Z4.000
G1 X709.937 Y764.430 Z4.000
G1 X715.266 Y758.064 Z4.000
G1 X722.227 Y750.531 Z4.000
G1 X732.178 Y740.303 Z4.000
G1 X740.401 Y731.333 Z4.000
G1 X744.325 Y726.264 Z4.000
G1 X747.450 Y721.154 Z4.000
G1 X749.795 Y715.725 Z4.000
G1 X751.379 Y709.701 Z4.000
G1 X752.221 Y702.803 Z4.000
G1 X752.339 Y695.587 Z4.000
G1 X752.073 Y689.325 Z4.000
G1 X751.362 Y683.901 Z4.000
G1 X750.668 Y680.659 Z4.000
G1 X749.716 Y677.477 Z4.000
G1 X748.466 Y674.400 Z4.000
G1 X746.879 Y671.473 Z4.000
G1 X744.915 Y668.741 Z4.000
G1 X742.536 Y666.251 Z4.000
G1 X739.700 Y664.047 Z4.000
G1 X736.371 Y662.174 Z4.000
G1 X732.507 Y660.679 Z4.000
G1 X728.069 Y659.607 Z4.000
G1 X723.019 Y659.003 Z4.000
G1 X716.900 Y658.912 Z4.000
G1 X711.276 Y659.526 Z4.000
G1 X708.055 Y660.190 Z4.000
G1 X704.976 Y661.099 Z4.000
G1 X702.056 Y662.259 Z4.000
G1 X699.312 Y663.676 Z4.000
G1 X696.761 Y665.354 Z4.000
G1 X694.420 Y667.302 Z4.000
G1 X692.304 Y669.522 Z4.000
G1 X690.432 Y672.023 Z4.000
G1 X688.821 Y674.809 Z4.000
G1 X687.486 Y677.886 Z4.000
G1 X686.444 Y681.259 Z4.000
G1 X685.713 Y684.935 Z4.000
G1 X685.310 Y688.919 Z4.000
G1 X685.251 Y691.767 Z4.000
G1 X685.251 Y714.513 Z4.000
G1 X696.509 Y714.513 Z4.000
G1 X696.509 Y701.646 Z4.000
G1 X696.509 Y701.646 Z4.000
(stops stroke 9)
G0 X696.509 Y701.646 Z0.000
(shape postamble)
(shape preamble)
G0 X1582.728 Y169.366 Z0.000
(start stroke 10)
(probe_depth_adapt)
G0 X1582.728 Y169.366 Z0 F10000
G1 Z4 F4000
G4 P1.0
G0 Z0 F10000
(end_probe)
G1 X1582.728 Y169.366 Z4.000
G1 X1582.728 Y168.959 Z4.000
G1 X1583.231 Y167.885 Z4.000
G1 X1584.222 Y167.187 Z4.000
G1 X1585.403 Y167.085 Z4.000
G1 X1586.503 Y167.595 Z4.000
G1 X1587.182 Y168.567 Z4.000
G1 X1587.290 Y169.774 Z4.000
G1 X1586.788 Y170.848 Z4.000
G1 X1585.797 Y171.546 Z4.000
G1 X1584.616 Y171.647 Z4.000
G1 X1583.516 Y171.138 Z4.000
G1 X1582.837 Y170.166 Z4.000
G1 X1582.728 Y169.366 Z4.000
(stops stroke 10)
G0 X1582.728 Y169.366 Z0.000
(shape postamble)
(shape preamble)
G0 X1529.504 Y168.606 Z0.000
(start stroke 11)
G1 X1529.504 Y168.606 Z4.000
(pause)
G4 P0.5
G1 X1529.504 Y168.425 Z4.000
G1 X1529.727 Y167.948 Z4.000
G1 X1530.167 Y167.638 Z4.000
G1 X1530.692 Y167.592 Z4.000
G1 X1531.181 Y167.819 Z4.000
G1 X1531.483 Y168.251 Z4.000
G1 X1531.531 Y168.787 Z4.000
G1 X1531.308 Y169.265 Z4.000
G1 X1530.867 Y169.575 Z4.000
G1 X1530.342 Y169.620 Z4.000
G1 X1529.854 Y169.394 Z4.000
G1 X1529.552 Y168.961 Z4.000
G1 X1529.504 Y168.606 Z4.000
(stops stroke 11)
G0 X1529.504 Y168.606 Z0.000
(shape postamble)
(shape preamble)
G0 X1565.747 Y184.574 Z0.000
(start stroke 12)
G1 X1565.747 Y184.574 Z4.000
(pause)
G4 P0.5
G1 X1565.747 Y183.894 Z4.000
G1 X1566.585 Y182.104 Z4.000
G1 X1568.236 Y180.942 Z4.000
G1 X1570.205 Y180.772 Z4.000
G1 X1572.038 Y181.621 Z4.000
G1 X1573.169 Y183.241 Z4.000
G1 X1573.351 Y185.253 Z4.000
G1 X1572.513 Y187.043 Z4.000
G1 X1570.862 Y188.206 Z4.000
G1 X1568.892 Y188.375 Z4.000
G1 X1567.060 Y187.526 Z4.000
G1 X1565.928 Y185.906 Z4.000
G1 X1565.747 Y184.574 Z4.000
(stops stroke 12)
G0 X1565.747 Y184.574 Z0.000
(shape postamble)
(shape preamble)
G0 X1614.663 Y172.661 Z0.000
(start stroke 13)
G1 X1614.663 Y172.661 Z4.000
(pause)
G4 P0.5
G1 X1614.663 Y172.390 Z4.000
G1 X1615.279 Y171.867 Z4.000
G1 X1616.039 Y172.139 Z4.000
G1 X1616.184 Y172.933 Z4.000
G1 X1615.568 Y173.456 Z4.000
G1 X1614.808 Y173.184 Z4.000
G1 X1614.663 Y172.661 Z4.000
(stops stroke 13)
G0 X1614.663 Y172.661 Z0.000
(shape postamble)
(shape preamble)
G0 X1561.945 Y112.760 Z0.000
(start stroke 14)
G1 X1561.945 Y112.760 Z4.000
(pause)
G4 P0.5
G1 X1561.945 Y111.620 Z4.000
G1 X1562.677 Y108.359 Z4.000
G1 X1564.205 Y105.426 Z4.000
G1 X1566.446 Y102.970 Z4.000
G1 X1569.312 Y101.140 Z4.000
G1 X1572.502 Y100.142 Z4.000
G1 X1575.806 Y100.000 Z4.000
G1 X1579.054 Y100.712 Z4.000
G1 X1582.072 Y102.279 Z4.000
G1 X1584.530 Y104.543 Z4.000
G1 X1586.306 Y107.334 Z4.000
G1 X1587.313 Y110.502 Z4.000
G1 X1587.465 Y113.899 Z4.000
G1 X1586.733 Y117.160 Z4.000
G1 X1585.204 Y120.093 Z4.000
G1 X1582.964 Y122.549 Z4.000
G1 X1580.098 Y124.380 Z4.000
G1 X1576.908 Y125.377 Z4.000
G1 X1573.603 Y125.519 Z4.000
G1 X1570.356 Y124.807 Z4.000
G1 X1567.338 Y123.240 Z4.000
G1 X1564.880 Y120.976 Z4.000
G1 X1563.104 Y118.186 Z4.000
G1 X1562.097 Y115.017 Z4.000
G1 X1561.945 Y112.760 Z4.000
(stops stroke 14)
G0 X1561.945 Y112.760 Z0.000
(shape postamble)
(shape preamble)
G0 X1629.363 Y134.390 Z0.000
(start stroke 15)
G1 X1629.363 Y134.390 Z4.000
(pause)
G4 P0.5
G1 X1629.363 Y133.983 Z4.000
G1 X1629.866 Y132.909 Z4.000
G1 X1630.857 Y132.211 Z4.000
G1 X1632.038 Y132.109 Z4.000
G1 X1633.138 Y132.618 Z4.000
G1 X1633.817 Y133.591 Z4.000
G1 X1633.925 Y134.798 Z4.000
G1 X1633.423 Y135.872 Z4.000
G1 X1632.432 Y136.569 Z4.000
G1 X1631.251 Y136.671 Z4.000
G1 X1630.151 Y136.162 Z4.000
G1 X1629.472 Y135.190 Z4.000
G1 X1629.363 Y134.390 Z4.000
(stops stroke 15)
G0 X1629.363 Y134.390 Z0.000
(shape postamble)
(shape preamble)
G0 X1589.571 Y148.837 Z0.000
(start stroke 16)
G1 X1589.571 Y148.837 Z4.000
(pause)
G4 P0.5
G1 X1589.571 Y148.452 Z4.000
G1 X1589.818 Y147.351 Z4.000
G1 X1590.335 Y146.360 Z4.000
G1 X1591.091 Y145.531 Z4.000
G1 X1592.059 Y144.913 Z4.000
G1 X1593.136 Y144.576 Z4.000
G1 X1594.252 Y144.528 Z4.000
G1 X1595.349 Y144.769 Z4.000
G1 X1596.368 Y145.298 Z4.000
G1 X1597.198 Y146.062 Z4.000
G1 X1597.797 Y147.005 Z4.000
G1 X1598.137 Y148.075 Z4.000
G1 X1598.189 Y149.222 Z4.000
G1 X1597.942 Y150.323 Z4.000
G1 X1597.426 Y151.313 Z4.000
G1 X1596.669 Y152.143 Z4.000
G1 X1595.701 Y152.761 Z4.000
G1 X1594.624 Y153.097 Z4.000
G1 X1593.508 Y153.146 Z4.000
G1 X1592.412 Y152.905 Z4.000
G1 X1591.393 Y152.376 Z4.000
G1 X1590.562 Y151.611 Z4.000
G1 X1589.963 Y150.669 Z4.000
G1 X1589.623 Y149.599 Z4.000
G1 X1589.571 Y148.837 Z4.000
(stops stroke 16)
G0 X1589.571 Y148.837 Z0.000
(shape postamble)
(shape preamble)
G0 X1617.198 Y154.666 Z0.000
(start stroke 17)
G1 X1617.198 Y154.666 Z4.000
(pause)
G4 P0.5
G1 X1617.198 Y154.304 Z4.000
G1 X1617.644 Y153.349 Z4.000
G1 X1618.525 Y152.729 Z4.000
G1 X1619.575 Y152.639 Z4.000
G1 X1620.553 Y153.091 Z4.000
G1 X1621.156 Y153.956 Z4.000
G1 X1621.253 Y155.028 Z4.000
G1 X1620.806 Y155.983 Z4.000
G1 X1619.925 Y156.603 Z4.000
G1 X1618.875 Y156.694 Z4.000
G1 X1617.898 Y156.241 Z4.000
G1 X1617.294 Y155.377 Z4.000
G1 X1617.198 Y154.666 Z4.000
(stops stroke 17)
G0 X1617.198 Y154.666 Z0.000
(shape postamble)
(shape preamble)
G0 X1635.953 Y181.532 Z0.000
(start stroke 18)
G1 X1635.953 Y181.532 Z4.000
(pause)
G4 P0.5
G1 X1635.953 Y180.944 Z4.000
G1 X1636.679 Y179.392 Z4.000
G1 X1638.110 Y178.384 Z4.000
G1 X1639.817 Y178.237 Z4.000
G1 X1641.405 Y178.973 Z4.000
G1 X1642.386 Y180.377 Z4.000
G1 X1642.543 Y182.121 Z4.000
G1 X1641.817 Y183.672 Z4.000
G1 X1640.386 Y184.680 Z4.000
G1 X1638.679 Y184.827 Z4.000
G1 X1637.091 Y184.091 Z4.000
G1 X1636.110 Y182.687 Z4.000
G1 X1635.953 Y181.532 Z4.000
(stops stroke 18)
G0 X1635.953 Y181.532 Z0.000
(shape postamble)
(shape preamble)
G0 X1595.401 Y198.260 Z0.000
(start stroke 19)
G1 X1595.401 Y198.260 Z4.000
(pause)
G4 P0.5
G1 X1595.401 Y197.626 Z4.000
G1 X1596.182 Y195.955 Z4.000
G1 X1597.724 Y194.870 Z4.000
G1 X1599.562 Y194.712 Z4.000
G1 X1601.272 Y195.504 Z4.000
G1 X1602.328 Y197.016 Z4.000
G1 X1602.497 Y198.894 Z4.000
G1 X1601.716 Y200.565 Z4.000
G1 X1600.174 Y201.650 Z4.000
G1 X1598.336 Y201.808 Z4.000
G1 X1596.626 Y201.016 Z4.000
G1 X1595.570 Y199.503 Z4.000
G1 X1595.401 Y198.260 Z4.000
(stops stroke 19)
G0 X1595.401 Y198.260 Z0.000
(shape postamble)
(shape preamble)
G0 X1643.050 Y156.947 Z0.000
(start stroke 20)
G1 X1643.050 Y156.947 Z4.000
(pause)
G4 P0.5
G1 X1643.050 Y156.585 Z4.000
G1 X1643.496 Y155.630 Z4.000
G1 X1644.377 Y155.010 Z4.000
G1 X1645.427 Y154.920 Z4.000
G1 X1646.405 Y155.372 Z4.000
G1 X1647.008 Y156.237 Z4.000
G1 X1647.105 Y157.310 Z4.000
G1 X1646.658 Y158.264 Z4.000
G1 X1645.777 Y158.884 Z4.000
G1 X1644.727 Y158.975 Z4.000
G1 X1643.750 Y158.522 Z4.000
G1 X1643.146 Y157.658 Z4.000
G1 X1643.050 Y156.947 Z4.000
(stops stroke 20)
G0 X1643.050 Y156.947 Z0.000
(shape postamble)
(shape preamble)
G0 X1626.829 Y169.366 Z0.000
(start stroke 21)
G1 X1626.829 Y169.366 Z4.000
(pause)
G4 P0.5
G1 X1626.829 Y169.185 Z4.000
G1 X1627.052 Y168.708 Z4.000
G1 X1627.492 Y168.398 Z4.000
G1 X1628.018 Y168.353 Z4.000
G1 X1628.506 Y168.579 Z4.000
G1 X1628.808 Y169.011 Z4.000
G1 X1628.856 Y169.548 Z4.000
G1 X1628.633 Y170.025 Z4.000
G1 X1628.193 Y170.335 Z4.000
G1 X1627.668 Y170.380 Z4.000
G1 X1627.179 Y170.154 Z4.000
G1 X1626.877 Y169.722 Z4.000
G1 X1626.829 Y169.366 Z4.000
(stops stroke 21)
G0 X1626.829 Y169.366 Z0.000
(shape postamble)
(shape preamble)
G0 X1625.055 Y185.334 Z0.000
(start stroke 22)
G1 X1625.055 Y185.334 Z4.000
(pause)
G4 P0.5
G1 X1625.055 Y185.107 Z4.000
G1 X1625.334 Y184.511 Z4.000
G1 X1625.884 Y184.123 Z4.000
G1 X1626.541 Y184.067 Z4.000
G1 X1627.152 Y184.350 Z4.000
G1 X1627.529 Y184.890 Z4.000
G1 X1627.589 Y185.560 Z4.000
G1 X1627.310 Y186.157 Z4.000
G1 X1626.760 Y186.545 Z4.000
G1 X1626.103 Y186.601 Z4.000
G1 X1625.492 Y186.318 Z4.000
G1 X1625.115 Y185.778 Z4.000
G1 X1625.055 Y185.334 Z4.000
(stops stroke 22)
G0 X1625.055 Y185.334 Z0.000
(shape postamble)
(shape preamble)
G0 X1634.432 Y197.246 Z0.000
(start stroke 23)
G1 X1634.432 Y197.246 Z4.000
(pause)
G4 P0.5
G1 X1634.432 Y196.725 Z4.000
G1 X1634.766 Y195.235 Z4.000
G1 X1635.465 Y193.896 Z4.000
G1 X1636.488 Y192.773 Z4.000
G1 X1637.798 Y191.937 Z4.000
G1 X1639.255 Y191.482 Z4.000
G1 X1640.765 Y191.417 Z4.000
G1 X1642.248 Y191.742 Z4.000
G1 X1643.627 Y192.458 Z4.000
G1 X1644.750 Y193.492 Z4.000
G1 X1645.562 Y194.767 Z4.000
G1 X1646.022 Y196.215 Z4.000
G1 X1646.091 Y197.767 Z4.000
G1 X1645.757 Y199.257 Z4.000
G1 X1645.058 Y200.597 Z4.000
G1 X1644.035 Y201.719 Z4.000
G1 X1642.725 Y202.555 Z4.000
G1 X1641.268 Y203.010 Z4.000
G1 X1639.758 Y203.075 Z4.000
G1 X1638.275 Y202.750 Z4.000
G1 X1636.896 Y202.034 Z4.000
G1 X1635.773 Y201.000 Z4.000
G1 X1634.962 Y199.725 Z4.000
G1 X1634.502 Y198.277 Z4.000
G1 X1634.432 Y197.246 Z4.000
(stops stroke 23)
G0 X1634.432 Y197.246 Z0.000
(shape postamble)
(shape preamble)
G0 X1664.846 Y190.656 Z0.000
(start stroke 24)
G1 X1664.846 Y190.656 Z4.000
(pause)
G4 P0.5
G1 X1664.846 Y190.068 Z4.000
G1 X1665.572 Y188.516 Z4.000
G1 X1667.004 Y187.509 Z4.000
G1 X1668.710 Y187.361 Z4.000
G1 X1670.298 Y188.097 Z4.000
G1 X1671.279 Y189.502 Z4.000
G1 X1671.436 Y191.245 Z4.000
G1 X1670.710 Y192.796 Z4.000
G1 X1669.279 Y193.804 Z4.000
G1 X1667.572 Y193.951 Z4.000
G1 X1665.984 Y193.216 Z4.000
G1 X1665.003 Y191.811 Z4.000
G1 X1664.846 Y190.656 Z4.000
(stops stroke 24)
G0 X1664.846 Y190.656 Z0.000
(shape postamble)
(shape preamble)
G0 X1554.595 Y154.666 Z0.000
(start stroke 25)
G1 X1554.595 Y154.666 Z4.000
(pause)
G4 P0.5
G1 X1554.595 Y154.146 Z4.000
G1 X1554.929 Y152.656 Z4.000
G1 X1555.628 Y151.316 Z4.000
G1 X1556.651 Y150.194 Z4.000
G1 X1557.961 Y149.358 Z4.000
G1 X1559.418 Y148.902 Z4.000
G1 X1560.928 Y148.837 Z4.000
G1 X1562.411 Y149.162 Z4.000
G1 X1563.790 Y149.878 Z4.000
G1 X1564.913 Y150.913 Z4.000
G1 X1565.725 Y152.187 Z4.000
G1 X1566.185 Y153.635 Z4.000
G1 X1566.254 Y155.187 Z4.000
G1 X1565.920 Y156.677 Z4.000
G1 X1565.221 Y158.017 Z4.000
G1 X1564.198 Y159.139 Z4.000
G1 X1562.888 Y159.975 Z4.000
G1 X1561.431 Y160.431 Z4.000
G1 X1559.921 Y160.496 Z4.000
G1 X1558.438 Y160.170 Z4.000
G1 X1557.059 Y159.454 Z4.000
G1 X1555.936 Y158.420 Z4.000
G1 X1555.125 Y157.145 Z4.000
G1 X1554.665 Y155.698 Z4.000
G1 X1554.595 Y154.666 Z4.000
(stops stroke 25)
G0 X1554.595 Y154.666 Z0.000
(shape postamble)
(shape preamble)
G0 X1539.895 Y192.684 Z0.000
(start stroke 26)
G1 X1539.895 Y192.684 Z4.000
(pause)
G4 P0.5
G1 X1539.895 Y192.367 Z4.000
G1 X1540.286 Y191.532 Z4.000
G1 X1541.057 Y190.989 Z4.000
G1 X1541.975 Y190.910 Z4.000
G1 X1542.831 Y191.306 Z4.000
G1 X1543.359 Y192.062 Z4.000
G1 X1543.443 Y193.001 Z4.000
G1 X1543.052 Y193.836 Z4.000
G1 X1542.282 Y194.379 Z4.000
G1 X1541.363 Y194.458 Z4.000
G1 X1540.508 Y194.062 Z4.000
G1 X1539.979 Y193.306 Z4.000
G1 X1539.895 Y192.684 Z4.000
(stops stroke 26)
G0 X1539.895 Y192.684 Z0.000
(shape postamble)
(shape preamble)
G0 X1525.195 Y198.006 Z0.000
(start stroke 27)
G1 X1525.195 Y198.006 Z4.000
(pause)
G4 P0.5
G1 X1525.195 Y197.644 Z4.000
G1 X1525.427 Y196.608 Z4.000
G1 X1525.913 Y195.676 Z4.000
G1 X1526.625 Y194.895 Z4.000
G1 X1527.536 Y194.313 Z4.000
G1 X1528.550 Y193.997 Z4.000
G1 X1529.600 Y193.951 Z4.000
G1 X1530.632 Y194.178 Z4.000
G1 X1531.591 Y194.676 Z4.000
G1 X1532.373 Y195.395 Z4.000
G1 X1532.937 Y196.282 Z4.000
G1 X1533.257 Y197.289 Z4.000
G1 X1533.305 Y198.369 Z4.000
G1 X1533.073 Y199.405 Z4.000
G1 X1532.587 Y200.337 Z4.000
G1 X1531.875 Y201.118 Z4.000
G1 X1530.964 Y201.699 Z4.000
G1 X1529.950 Y202.016 Z4.000
G1 X1528.900 Y202.062 Z4.000
G1 X1527.868 Y201.835 Z4.000
G1 X1526.909 Y201.337 Z4.000
G1 X1526.127 Y200.618 Z4.000
G1 X1525.563 Y199.731 Z4.000
G1 X1525.243 Y198.724 Z4.000
G1 X1525.195 Y198.006 Z4.000
(stops stroke 27)
G0 X1525.195 Y198.006 Z0.000
(shape postamble)
(shape preamble)
G0 X1597.682 Y182.292 Z0.000
(start stroke 28)
G1 X1597.682 Y182.292 Z4.000
(pause)
G4 P0.5
G1 X1597.682 Y181.975 Z4.000
G1 X1598.073 Y181.140 Z4.000
G1 X1598.843 Y180.597 Z4.000
G1 X1599.762 Y180.518 Z4.000
G1 X1600.618 Y180.914 Z4.000
G1 X1601.146 Y181.671 Z4.000
G1 X1601.230 Y182.609 Z4.000
G1 X1600.839 Y183.445 Z4.000
G1 X1600.069 Y183.987 Z4.000
G1 X1599.150 Y184.067 Z4.000
G1 X1598.294 Y183.670 Z4.000
G1 X1597.766 Y182.914 Z4.000
G1 X1597.682 Y182.292 Z4.000
(stops stroke 28)
G0 X1597.682 Y182.292 Z0.000
(shape postamble)
(shape preamble)
G0 X1605.032 Y117.662 Z0.000
(start stroke 29)
G1 X1605.032 Y117.662 Z4.000
(pause)
G4 P0.5
G1 X1605.032 Y117.255 Z4.000
G1 X1605.293 Y116.089 Z4.000
G1 X1605.840 Y115.040 Z4.000
G1 X1606.641 Y114.162 Z4.000
G1 X1607.666 Y113.508 Z4.000
G1 X1608.806 Y113.151 Z4.000
G1 X1609.988 Y113.100 Z4.000
G1 X1611.149 Y113.355 Z4.000
G1 X1612.228 Y113.915 Z4.000
G1 X1613.107 Y114.725 Z4.000
G1 X1613.742 Y115.722 Z4.000
G1 X1614.102 Y116.855 Z4.000
G1 X1614.156 Y118.070 Z4.000
G1 X1613.895 Y119.236 Z4.000
G1 X1613.348 Y120.285 Z4.000
G1 X1612.547 Y121.163 Z4.000
G1 X1611.522 Y121.817 Z4.000
G1 X1610.382 Y122.174 Z4.000
G1 X1609.200 Y122.225 Z4.000
G1 X1608.039 Y121.970 Z4.000
G1 X1606.960 Y121.410 Z4.000
G1 X1606.081 Y120.600 Z4.000
G1 X1605.446 Y119.602 Z4.000
G1 X1605.086 Y118.470 Z4.000
G1 X1605.032 Y117.662 Z4.000
(stops stroke 29)
G0 X1605.032 Y117.662 Z0.000
(shape postamble)
(shape preamble)
G0 X1659.777 Y122.985 Z0.000
(start stroke 30)
G1 X1659.777 Y122.985 Z4.000
(pause)
G4 P0.5
G1 X1659.777 Y122.306 Z4.000
G1 X1660.615 Y120.516 Z4.000
G1 X1662.267 Y119.353 Z4.000
G1 X1664.236 Y119.183 Z4.000
G1 X1666.068 Y120.032 Z4.000
G1 X1667.200 Y121.652 Z4.000
G1 X1667.381 Y123.664 Z4.000
G1 X1666.544 Y125.454 Z4.000
G1 X1664.892 Y126.617 Z4.000
G1 X1662.923 Y126.787 Z4.000
G1 X1661.090 Y125.938 Z4.000
G1 X1659.959 Y124.317 Z4.000
G1 X1659.777 Y122.985 Z4.000
(stops stroke 30)
G0 X1659.777 Y122.985 Z0.000
(shape postamble)
(shape preamble)
G0 X1663.072 Y158.721 Z0.000
(start stroke 31)
G1 X1663.072 Y158.721 Z4.000
(pause)
G4 P0.5
G1 X1663.072 Y158.291 Z4.000
G1 X1663.348 Y157.061 Z4.000
G1 X1663.925 Y155.954 Z4.000
G1 X1664.771 Y155.027 Z4.000
G1 X1665.853 Y154.336 Z4.000
G1 X1667.056 Y153.960 Z4.000
G1 X1668.304 Y153.906 Z4.000
G1 X1669.529 Y154.175 Z4.000
G1 X1670.668 Y154.766 Z4.000
G1 X1671.596 Y155.621 Z4.000
G1 X1672.266 Y156.674 Z4.000
G1 X1672.646 Y157.869 Z4.000
G1 X1672.703 Y159.152 Z4.000
G1 X1672.427 Y160.382 Z4.000
G1 X1671.850 Y161.489 Z4.000
G1 X1671.005 Y162.416 Z4.000
G1 X1669.923 Y163.107 Z4.000
G1 X1668.719 Y163.483 Z4.000
G1 X1667.472 Y163.537 Z4.000
G1 X1666.247 Y163.268 Z4.000
G1 X1665.108 Y162.677 Z4.000
G1 X1664.180 Y161.822 Z4.000
G1 X1663.510 Y160.769 Z4.000
G1 X1663.130 Y159.574 Z4.000
G1 X1663.072 Y158.721 Z4.000
(stops stroke 31)
G0 X1663.072 Y158.721 Z0.000
(shape postamble)
(shape preamble)
G0 X1646.852 Y172.154 Z0.000
(start stroke 32)
G1 X1646.852 Y172.154 Z4.000
(pause)
G4 P0.5
G1 X1646.852 Y171.611 Z4.000
G1 X1647.522 Y170.179 Z4.000
G1 X1648.843 Y169.249 Z4.000
G1 X1650.418 Y169.113 Z4.000
G1 X1651.884 Y169.792 Z4.000
G1 X1652.789 Y171.088 Z4.000
G1 X1652.934 Y172.698 Z4.000
G1 X1652.264 Y174.130 Z4.000
G1 X1650.943 Y175.060 Z4.000
G1 X1649.368 Y175.196 Z4.000
G1 X1647.902 Y174.517 Z4.000
G1 X1646.996 Y173.220 Z4.000
G1 X1646.852 Y172.154 Z4.000
(stops stroke 32)
G0 X1646.852 Y172.154 Z0.000
(shape postamble)
(shape preamble)
G0 X1641.782 Y140.473 Z0.000
(start stroke 33)
G1 X1641.782 Y140.473 Z4.000
(pause)
G4 P0.5
G1 X1641.782 Y140.088 Z4.000
G1 X1642.029 Y138.987 Z4.000
G1 X1642.546 Y137.997 Z4.000
G1 X1643.302 Y137.167 Z4.000
G1 X1644.270 Y136.549 Z4.000
G1 X1645.347 Y136.212 Z4.000
G1 X1646.463 Y136.164 Z4.000
G1 X1647.560 Y136.405 Z4.000
G1 X1648.579 Y136.934 Z4.000
G1 X1649.409 Y137.698 Z4.000
G1 X1650.008 Y138.641 Z4.000
G1 X1650.348 Y139.711 Z4.000
G1 X1650.400 Y140.858 Z4.000
G1 X1650.153 Y141.959 Z4.000
G1 X1649.637 Y142.949 Z4.000
G1 X1648.880 Y143.779 Z4.000
G1 X1647.912 Y144.397 Z4.000
G1 X1646.835 Y144.734 Z4.000
G1 X1645.719 Y144.782 Z4.000
G1 X1644.623 Y144.541 Z4.000
G1 X1643.603 Y144.012 Z4.000
G1 X1642.773 Y143.247 Z4.000
G1 X1642.174 Y142.305 Z4.000
G1 X1641.834 Y141.235 Z4.000
G1 X1641.782 Y140.473 Z4.000
(stops stroke 33)
G0 X1641.782 Y140.473 Z0.000
(shape postamble)
(shape preamble)
G0 X1634.686 Y122.224 Z0.000
(start stroke 34)
G1 X1634.686 Y122.224 Z4.000
(pause)
G4 P0.5
G1 X1634.686 Y121.681 Z4.000
G1 X1635.034 Y120.127 Z4.000
G1 X1635.763 Y118.728 Z4.000
G1 X1636.831 Y117.557 Z4.000
G1 X1638.198 Y116.685 Z4.000
G1 X1639.718 Y116.210 Z4.000
G1 X1641.294 Y116.142 Z4.000
G1 X1642.842 Y116.481 Z4.000
G1 X1644.281 Y117.228 Z4.000
G1 X1645.453 Y118.308 Z4.000
G1 X1646.299 Y119.638 Z4.000
G1 X1646.779 Y121.148 Z4.000
G1 X1646.851 Y122.768 Z4.000
G1 X1646.503 Y124.322 Z4.000
G1 X1645.774 Y125.721 Z4.000
G1 X1644.706 Y126.891 Z4.000
G1 X1643.339 Y127.764 Z4.000
G1 X1641.819 Y128.239 Z4.000
G1 X1640.243 Y128.307 Z4.000
G1 X1638.695 Y127.968 Z4.000
G1 X1637.257 Y127.221 Z4.000
G1 X1636.085 Y126.141 Z4.000
G1 X1635.238 Y124.811 Z4.000
G1 X1634.758 Y123.301 Z4.000
G1 X1634.686 Y122.224 Z4.000
(stops stroke 34)
G0 X1634.686 Y122.224 Z0.000
(shape postamble)
(shape preamble)
G0 X1652.174 Y113.861 Z0.000
(start stroke 35)
G1 X1652.174 Y113.861 Z4.000
(pause)
G4 P0.5
G1 X1652.174 Y113.453 Z4.000
G1 X1652.676 Y112.379 Z4.000
G1 X1653.667 Y111.681 Z4.000
G1 X1654.849 Y111.580 Z4.000
G1 X1655.948 Y112.089 Z4.000
G1 X1656.627 Y113.061 Z4.000
G1 X1656.736 Y114.268 Z4.000
G1 X1656.233 Y115.342 Z4.000
G1 X1655.243 Y116.040 Z4.000
G1 X1654.061 Y116.142 Z4.000
G1 X1652.962 Y115.632 Z4.000
G1 X1652.283 Y114.660 Z4.000
G1 X1652.174 Y113.861 Z4.000
(stops stroke 35)
G0 X1652.174 Y113.861 Z0.000
(shape postamble)
(shape preamble)
G0 X1583.235 Y130.842 Z0.000
(start stroke 36)
G1 X1583.235 Y130.842 Z4.000
(pause)
G4 P0.5
G1 X1583.235 Y130.434 Z4.000
G1 X1583.738 Y129.360 Z4.000
G1 X1584.729 Y128.663 Z4.000
G1 X1585.910 Y128.561 Z4.000
G1 X1587.010 Y129.070 Z4.000
G1 X1587.689 Y130.042 Z4.000
G1 X1587.797 Y131.249 Z4.000
G1 X1587.295 Y132.323 Z4.000
G1 X1586.304 Y133.021 Z4.000
G1 X1585.122 Y133.123 Z4.000
G1 X1584.023 Y132.614 Z4.000
G1 X1583.344 Y131.641 Z4.000
G1 X1583.235 Y130.842 Z4.000
(stops stroke 36)
G0 X1583.235 Y130.842 Z0.000
(shape postamble)
(shape preamble)
G0 X1537.867 Y138.952 Z0.000
(start stroke 37)
G1 X1537.867 Y138.952 Z4.000
(pause)
G4 P0.5
G1 X1537.867 Y138.567 Z4.000
G1 X1538.114 Y137.466 Z4.000
G1 X1538.631 Y136.476 Z4.000
G1 X1539.387 Y135.646 Z4.000
G1 X1540.355 Y135.028 Z4.000
G1 X1541.432 Y134.692 Z4.000
G1 X1542.548 Y134.644 Z4.000
G1 X1543.645 Y134.884 Z4.000
G1 X1544.664 Y135.413 Z4.000
G1 X1545.494 Y136.178 Z4.000
G1 X1546.093 Y137.120 Z4.000
G1 X1546.433 Y138.190 Z4.000
G1 X1546.485 Y139.337 Z4.000
G1 X1546.238 Y140.438 Z4.000
G1 X1545.722 Y141.429 Z4.000
G1 X1544.965 Y142.258 Z4.000
G1 X1543.997 Y142.876 Z4.000
G1 X1542.920 Y143.213 Z4.000
G1 X1541.804 Y143.261 Z4.000
G1 X1540.708 Y143.020 Z4.000
G1 X1539.688 Y142.491 Z4.000
G1 X1538.858 Y141.727 Z4.000
G1 X1538.259 Y140.784 Z4.000
G1 X1537.919 Y139.715 Z4.000
G1 X1537.867 Y138.952 Z4.000
(stops stroke 37)
G0 X1537.867 Y138.952 Z0.000
(shape postamble)
(shape preamble)
G0 X1523.928 Y115.635 Z0.000
(start stroke 38)
G1 X1523.928 Y115.635 Z4.000
(pause)
G4 P0.5
G1 X1523.928 Y115.137 Z4.000
G1 X1524.542 Y113.824 Z4.000
G1 X1525.753 Y112.971 Z4.000
G1 X1527.197 Y112.847 Z4.000
G1 X1528.541 Y113.469 Z4.000
G1 X1529.371 Y114.658 Z4.000
G1 X1529.503 Y116.133 Z4.000
G1 X1528.889 Y117.446 Z4.000
G1 X1527.678 Y118.298 Z4.000
G1 X1526.234 Y118.423 Z4.000
G1 X1524.890 Y117.800 Z4.000
G1 X1524.060 Y116.612 Z4.000
G1 X1523.928 Y115.635 Z4.000
(stops stroke 38)
G0 X1523.928 Y115.635 Z0.000
(shape postamble)
(shape preamble)
G0 X1541.162 Y122.985 Z0.000
(start stroke 39)
G1 X1541.162 Y122.985 Z4.000
(pause)
G4 P0.5
G1 X1541.162 Y122.532 Z4.000
G1 X1541.721 Y121.339 Z4.000
G1 X1542.822 Y120.564 Z4.000
G1 X1544.134 Y120.450 Z4.000
G1 X1545.356 Y121.016 Z4.000
G1 X1546.110 Y122.097 Z4.000
G1 X1546.231 Y123.438 Z4.000
G1 X1545.673 Y124.631 Z4.000
G1 X1544.572 Y125.406 Z4.000
G1 X1543.259 Y125.519 Z4.000
G1 X1542.037 Y124.953 Z4.000
G1 X1541.283 Y123.873 Z4.000
G1 X1541.162 Y122.985 Z4.000
(stops stroke 39)
G0 X1541.162 Y122.985 Z0.000
(shape postamble)
(shape preamble)
G0 X1536.093 Y107.524 Z0.000
(start stroke 40)
G1 X1536.093 Y107.524 Z4.000
(pause)
G4 P0.5
G1 X1536.093 Y107.117 Z4.000
G1 X1536.596 Y106.043 Z4.000
G1 X1537.587 Y105.345 Z4.000
G1 X1538.768 Y105.243 Z4.000
G1 X1539.868 Y105.753 Z4.000
G1 X1540.547 Y106.725 Z4.000
G1 X1540.655 Y107.932 Z4.000
G1 X1540.153 Y109.006 Z4.000
G1 X1539.162 Y109.703 Z4.000
G1 X1537.980 Y109.805 Z4.000
G1 X1536.881 Y109.296 Z4.000
G1 X1536.202 Y108.324 Z4.000
G1 X1536.093 Y107.524 Z4.000
(stops stroke 40)
G0 X1536.093 Y107.524 Z0.000
(shape postamble)
(shape preamble)
G0 X1522.153 Y142.754 Z0.000
(start stroke 41)
G1 X1522.153 Y142.754 Z4.000
(pause)
G4 P0.5
G1 X1522.153 Y142.120 Z4.000
G1 X1522.935 Y140.449 Z4.000
G1 X1524.476 Y139.364 Z4.000
G1 X1526.314 Y139.206 Z4.000
G1 X1528.025 Y139.998 Z4.000
G1 X1529.081 Y141.510 Z4.000
G1 X1529.250 Y143.388 Z4.000
G1 X1528.468 Y145.059 Z4.000
G1 X1526.927 Y146.144 Z4.000
G1 X1525.089 Y146.302 Z4.000
G1 X1523.379 Y145.510 Z4.000
G1 X1522.322 Y143.998 Z4.000
G1 X1522.153 Y142.754 Z4.000
(stops stroke 41)
G0 X1522.153 Y142.754 Z0.000
(shape postamble)
(shape preamble)
G0 X1545.724 Y168.606 Z0.000
(start stroke 42)
G1 X1545.724 Y168.606 Z4.000
(pause)
G4 P0.5
G1 X1545.724 Y168.425 Z4.000
G1 X1545.948 Y167.948 Z4.000
G1 X1546.388 Y167.638 Z4.000
G1 X1546.913 Y167.592 Z4.000
G1 X1547.402 Y167.819 Z4.000
G1 X1547.704 Y168.251 Z4.000
G1 X1547.752 Y168.787 Z4.000
G1 X1547.529 Y169.265 Z4.000
G1 X1547.088 Y169.575 Z4.000
G1 X1546.563 Y169.620 Z4.000
G1 X1546.074 Y169.394 Z4.000
G1 X1545.773 Y168.961 Z4.000
G1 X1545.724 Y168.606 Z4.000
(stops stroke 42)
G0 X1545.724 Y168.606 Z0.000
(shape postamble)
(shape preamble)
G0 X1523.674 Y183.306 Z0.000
(start stroke 43)
G1 X1523.674 Y183.306 Z4.000
(pause)
G4 P0.5
G1 X1523.674 Y183.125 Z4.000
G1 X1523.897 Y182.648 Z4.000
G1 X1524.338 Y182.338 Z4.000
G1 X1524.863 Y182.292 Z4.000
G1 X1525.352 Y182.519 Z4.000
G1 X1525.653 Y182.951 Z4.000
G1 X1525.702 Y183.487 Z4.000
G1 X1525.478 Y183.965 Z4.000
G1 X1525.038 Y184.275 Z4.000
G1 X1524.513 Y184.320 Z4.000
G1 X1524.024 Y184.094 Z4.000
G1 X1523.722 Y183.662 Z4.000
G1 X1523.674 Y183.306 Z4.000
(stops stroke 43)
G0 X1523.674 Y183.306 Z0.000
(shape postamble)
(shape preamble)
G0 X1631.137 Y105.497 Z0.000
(start stroke 44)
G1 X1631.137 Y105.497 Z4.000
(pause)
G4 P0.5
G1 X1631.137 Y105.225 Z4.000
G1 X1631.472 Y104.509 Z4.000
G1 X1632.133 Y104.044 Z4.000
G1 X1632.921 Y103.976 Z4.000
G1 X1633.654 Y104.316 Z4.000
G1 X1634.106 Y104.964 Z4.000
G1 X1634.179 Y105.768 Z4.000
G1 X1633.844 Y106.484 Z4.000
G1 X1633.183 Y106.950 Z4.000
G1 X1632.396 Y107.017 Z4.000
G1 X1631.663 Y106.678 Z4.000
G1 X1631.210 Y106.030 Z4.000
G1 X1631.137 Y105.497 Z4.000
(stops stroke 44)
G0 X1631.137 Y105.497 Z0.000
(shape postamble)
(shape preamble)
G0 X1670.169 Y107.271 Z0.000
(start stroke 45)
G1 X1670.169 Y107.271 Z4.000
(pause)
G4 P0.5
G1 X1670.169 Y106.773 Z4.000
G1 X1670.783 Y105.460 Z4.000
G1 X1671.994 Y104.607 Z4.000
G1 X1673.438 Y104.483 Z4.000
G1 X1674.782 Y105.105 Z4.000
G1 X1675.612 Y106.294 Z4.000
G1 X1675.745 Y107.769 Z4.000
G1 X1675.131 Y109.082 Z4.000
G1 X1673.920 Y109.934 Z4.000
G1 X1672.476 Y110.059 Z4.000
G1 X1671.132 Y109.436 Z4.000
G1 X1670.302 Y108.248 Z4.000
G1 X1670.169 Y107.271 Z4.000
(stops stroke 45)
G0 X1670.169 Y107.271 Z0.000
(shape postamble)
(shape preamble)
G0 X1670.169 Y203.836 Z0.000
(start stroke 46)
G1 X1670.169 Y203.836 Z4.000
(pause)
G4 P0.5
G1 X1670.169 Y203.338 Z4.000
G1 X1670.783 Y202.025 Z4.000
G1 X1671.994 Y201.172 Z4.000
G1 X1673.438 Y201.048 Z4.000
G1 X1674.782 Y201.670 Z4.000
G1 X1675.612 Y202.859 Z4.000
G1 X1675.745 Y204.334 Z4.000
G1 X1675.131 Y205.647 Z4.000
G1 X1673.920 Y206.499 Z4.000
G1 X1672.476 Y206.624 Z4.000
G1 X1671.132 Y206.001 Z4.000
G1 X1670.302 Y204.813 Z4.000
G1 X1670.169 Y203.836 Z4.000
(stops stroke 46)
G0 X1670.169 Y203.836 Z0.000
(shape postamble)
(shape preamble)
G0 X1514.803 Y107.271 Z0.000
(start stroke 47)
G1 X1514.803 Y107.271 Z4.000
(pause)
G4 P0.5
G1 X1514.803 Y106.773 Z4.000
G1 X1515.417 Y105.460 Z4.000
G1 X1516.629 Y104.607 Z4.000
G1 X1518.073 Y104.483 Z4.000
G1 X1519.416 Y105.105 Z4.000
G1 X1520.246 Y106.294 Z4.000
G1 X1520.379 Y107.769 Z4.000
G1 X1519.765 Y109.082 Z4.000
G1 X1518.554 Y109.934 Z4.000
G1 X1517.110 Y110.059 Z4.000
G1 X1515.766 Y109.436 Z4.000
G1 X1514.936 Y108.248 Z4.000
G1 X1514.803 Y107.271 Z4.000
(stops stroke 47)
G0 X1514.803 Y107.271 Z0.000
(shape postamble)
(shape preamble)
G0 X1514.803 Y203.836 Z0.000
(start stroke 48)
G1 X1514.803 Y203.836 Z4.000
(pause)
G4 P0.5
G1 X1514.803 Y203.338 Z4.000
G1 X1515.417 Y202.025 Z4.000
G1 X1516.629 Y201.172 Z4.000
G1 X1518.073 Y201.048 Z4.000
G1 X1519.416 Y201.670 Z4.000
G1 X1520.246 Y202.859 Z4.000
G1 X1520.379 Y204.334 Z4.000
G1 X1519.765 Y205.647 Z4.000
G1 X1518.554 Y206.499 Z4.000
G1 X1517.110 Y206.624 Z4.000
G1 X1515.766 Y206.001 Z4.000
G1 X1514.936 Y204.813 Z4.000
G1 X1514.803 Y203.836 Z4.000
(stops stroke 48)
G0 X1514.803 Y203.836 Z0.000
(shape postamble)
(shape preamble)
G0 X1091.585 Y771.400 Z0.000
(start stroke 49)
(probe_depth_adapt)
G0 X1091.585 Y771.400 Z0 F10000
G1 Z4 F4000
G4 P1.0
G0 Z0 F10000
(end_probe)
G1 X1091.585 Y771.400 Z4.000
G1 X1091.585 Y522.339 Z4.000
G1 X1076.025 Y522.339 Z4.000
G1 X1075.476 Y540.154 Z4.000
G1 X1073.339 Y537.114 Z4.000
G1 X1070.548 Y533.810 Z4.000
G1 X1067.032 Y530.464 Z4.000
G1 X1062.721 Y527.300 Z4.000
G1 X1057.545 Y524.541 Z4.000
G1 X1052.480 Y522.744 Z4.000
G1 X1049.135 Y521.915 Z4.000
G1 X1045.533 Y521.317 Z4.000
G1 X1041.666 Y520.979 Z4.000
G1 X1036.426 Y520.928 Z4.000
G1 X1029.705 Y521.606 Z4.000
G1 X1023.841 Y523.011 Z4.000
G1 X1018.776 Y525.048 Z4.000
G1 X1014.451 Y527.623 Z4.000
G1 X1010.808 Y530.641 Z4.000
G1 X1007.788 Y534.010 Z4.000
G1 X1005.333 Y537.635 Z4.000
G1 X1003.385 Y541.422 Z4.000
G1 X1001.885 Y545.277 Z4.000
G1 X1000.775 Y549.105 Z4.000
G1 X999.996 Y552.814 Z4.000
G1 X999.333 Y557.457 Z4.000
G1 X999.021 Y563.179 Z4.000
G1 X999.021 Y565.731 Z4.000
G1 X999.021 Y657.166 Z4.000
G1 X999.553 Y664.086 Z4.000
G1 X1000.661 Y670.223 Z4.000
G1 X1002.280 Y675.624 Z4.000
G1 X1004.345 Y680.335 Z4.000
G1 X1006.791 Y684.403 Z4.000
G1 X1009.551 Y687.872 Z4.000
G1 X1012.560 Y690.789 Z4.000
G1 X1015.754 Y693.199 Z4.000
G1 X1019.066 Y695.150 Z4.000
G1 X1022.430 Y696.687 Z4.000
G1 X1025.783 Y697.855 Z4.000
G1 X1030.142 Y698.968 Z4.000
G1 X1036.070 Y699.715 Z4.000
G1 X1041.962 Y699.786 Z4.000
G1 X1048.934 Y699.064 Z4.000
G1 X1054.872 Y697.615 Z4.000
G1 X1059.897 Y695.586 Z4.000
G1 X1064.130 Y693.128 Z4.000
G1 X1067.693 Y690.388 Z4.000
G1 X1071.686 Y686.557 Z4.000
G1 X1074.828 Y682.853 Z4.000
G1 X1074.828 Y771.400 Z4.000
G1 X1091.585 Y771.400 Z4.000
(stops stroke 49)
G0 X1091.585 Y771.400 Z0.000
(shape postamble)
(shape preamble)
G0 X1074.828 Y654.278 Z0.000
(start stroke 50)
(probe_depth_adapt)
G0 X1074.828 Y654.278 Z0 F10000
G1 Z4 F4000
G4 P1.0
G0 Z0 F10000
(end_probe)
G1 X1074.828 Y654.278 Z4.000
G1 X1074.828 Y654.851 Z4.000
G1 X1074.362 Y658.116 Z4.000
G1 X1073.166 Y662.698 Z4.000
G1 X1071.059 Y668.023 Z4.000
G1 X1068.425 Y672.606 Z4.000
G1 X1066.462 Y675.266 Z4.000
G1 X1064.165 Y677.776 Z4.000
G1 X1061.511 Y680.065 Z4.000
G1 X1058.477 Y682.061 Z4.000
G1 X1055.040 Y683.691 Z4.000
G1 X1051.178 Y684.885 Z4.000
G1 X1046.868 Y685.571 Z4.000
G1 X1043.009 Y685.675 Z4.000
G1 X1039.758 Y685.460 Z4.000
G1 X1035.547 Y684.694 Z4.000
G1 X1031.625 Y683.364 Z4.000
G1 X1029.230 Y682.222 Z4.000
G1 X1026.863 Y680.758 Z4.000
G1 X1024.580 Y678.935 Z4.000
G1 X1022.439 Y676.711 Z4.000
G1 X1020.497 Y674.049 Z4.000
G1 X1018.812 Y670.908 Z4.000
G1 X1017.440 Y667.250 Z4.000
G1 X1016.439 Y663.036 Z4.000
G1 X1015.866 Y658.225 Z4.000
G1 X1015.779 Y654.631 Z4.000
G1 X1015.779 Y567.495 Z4.000
G1 X1015.886 Y563.137 Z4.000
G1 X1016.424 Y557.832 Z4.000
G1 X1017.472 Y553.044 Z4.000
G1 X1018.413 Y550.159 Z4.000
G1 X1019.650 Y547.331 Z4.000
G1 X1021.223 Y544.624 Z4.000
G1 X1023.172 Y542.100 Z4.000
G1 X1025.538 Y539.822 Z4.000
G1 X1028.361 Y537.853 Z4.000
G1 X1031.681 Y536.257 Z4.000
G1 X1035.539 Y535.096 Z4.000
G1 X1039.975 Y534.434 Z4.000
G1 X1044.754 Y534.334 Z4.000
G1 X1048.808 Y534.729 Z4.000
G1 X1052.528 Y535.546 Z4.000
G1 X1055.924 Y536.730 Z4.000
G1 X1059.006 Y538.227 Z4.000
G1 X1061.781 Y539.979 Z4.000
G1 X1064.261 Y541.933 Z4.000
G1 X1066.454 Y544.033 Z4.000
G1 X1068.993 Y546.956 Z4.000
G1 X1071.854 Y551.387 Z4.000
G1 X1073.731 Y555.442 Z4.000
G1 X1074.697 Y558.681 Z4.000
G1 X1074.828 Y560.086 Z4.000
G1 X1074.828 Y654.278 Z4.000
(stops stroke 50)
G0 X1074.828 Y654.278 Z0.000
(shape postamble)
(shape preamble)
G0 X1133.075 Y661.334 Z0.000
(start stroke 51)
G1 X1133.075 Y661.334 Z4.000
(pause)
G4 P0.5
G1 X1133.075 Y663.627 Z4.000
G1 X1133.581 Y669.505 Z4.000
G1 X1134.172 Y673.030 Z4.000
G1 X1135.028 Y676.514 Z4.000
G1 X1136.175 Y679.919 Z4.000
G1 X1137.644 Y683.209 Z4.000
G1 X1139.462 Y686.345 Z4.000
G1 X1141.659 Y689.291 Z4.000
G1 X1144.263 Y692.010 Z4.000
G1 X1147.302 Y694.464 Z4.000
G1 X1150.806 Y696.617 Z4.000
G1 X1154.802 Y698.430 Z4.000
G1 X1159.320 Y699.868 Z4.000
G1 X1164.388 Y700.892 Z4.000
G1 X1170.035 Y701.465 Z4.000
G1 X1176.614 Y701.550 Z4.000
G1 X1183.131 Y700.808 Z4.000
G1 X1188.751 Y699.332 Z4.000
G1 X1193.558 Y697.292 Z4.000
G1 X1197.635 Y694.859 Z4.000
G1 X1201.067 Y692.200 Z4.000
G1 X1204.866 Y688.586 Z4.000
G1 X1207.684 Y685.323 Z4.000
G1 X1207.684 Y700.492 Z4.000
G1 X1224.840 Y700.492 Z4.000
G1 X1224.840 Y511.668 Z4.000
G1 X1224.476 Y504.166 Z4.000
G1 X1223.746 Y499.353 Z4.000
G1 X1222.409 Y494.404 Z4.000
G1 X1220.282 Y489.423 Z4.000
G1 X1217.729 Y485.333 Z4.000
G1 X1215.852 Y482.930 Z4.000
G1 X1213.671 Y480.581 Z4.000
G1 X1211.164 Y478.301 Z4.000
G1 X1208.133 Y475.905 Z4.000
G1 X1204.455 Y473.478 Z4.000
G1 X1200.527 Y471.454 Z4.000
G1 X1196.388 Y469.811 Z4.000
G1 X1192.074 Y468.529 Z4.000
G1 X1187.623 Y467.588 Z4.000
G1 X1183.072 Y466.967 Z4.000
G1 X1178.459 Y466.644 Z4.000
G1 X1173.172 Y466.600 Z4.000
G1 X1167.209 Y467.027 Z4.000
G1 X1161.982 Y467.851 Z4.000
G1 X1157.481 Y468.948 Z4.000
G1 X1152.475 Y470.613 Z4.000
G1 X1147.488 Y473.016 Z4.000
G1 X1144.196 Y475.023 Z4.000
G1 X1140.179 Y478.300 Z4.000
G1 X1137.133 Y481.819 Z4.000
G1 X1134.920 Y485.540 Z4.000
G1 X1133.399 Y489.421 Z4.000
G1 X1132.430 Y493.420 Z4.000
G1 X1131.703 Y498.857 Z4.000
G1 X1131.479 Y504.347 Z4.000
G1 X1148.286 Y503.510 Z4.000
G1 X1148.538 Y500.328 Z4.000
G1 X1149.202 Y496.633 Z4.000
G1 X1150.330 Y493.385 Z4.000
G1 X1151.305 Y491.451 Z4.000
G1 X1152.563 Y489.569 Z4.000
G1 X1154.142 Y487.779 Z4.000
G1 X1156.081 Y486.119 Z4.000
G1 X1158.419 Y484.628 Z4.000
G1 X1161.194 Y483.345 Z4.000
G1 X1164.444 Y482.308 Z4.000
G1 X1168.209 Y481.556 Z4.000
G1 X1172.527 Y481.129 Z4.000
G1 X1176.264 Y481.064 Z4.000
G1 X1179.428 Y481.196 Z4.000
G1 X1184.026 Y481.781 Z4.000
G1 X1188.534 Y482.879 Z4.000
G1 X1191.343 Y483.852 Z4.000
G1 X1194.156 Y485.121 Z4.000
G1 X1196.897 Y486.726 Z4.000
G1 X1199.490 Y488.705 Z4.000
G1 X1201.859 Y491.099 Z4.000
G1 X1203.928 Y493.946 Z4.000
G1 X1205.621 Y497.286 Z4.000
G1 X1206.862 Y501.157 Z4.000
G1 X1207.575 Y505.600 Z4.000
G1 X1207.684 Y508.934 Z4.000
G1 X1205.889 Y536.803 Z4.000
G1 X1200.724 Y532.272 Z4.000
G1 X1197.145 Y529.714 Z4.000
G1 X1193.084 Y527.410 Z4.000
G1 X1188.450 Y525.476 Z4.000
G1 X1183.156 Y524.026 Z4.000
G1 X1177.112 Y523.177 Z4.000
G1 X1170.105 Y523.045 Z4.000
G1 X1163.451 Y523.674 Z4.000
G1 X1157.646 Y524.987 Z4.000
G1 X1152.631 Y526.909 Z4.000
G1 X1148.350 Y529.363 Z4.000
G1 X1144.743 Y532.273 Z4.000
G1 X1141.754 Y535.564 Z4.000
G1 X1139.324 Y539.159 Z4.000
G1 X1137.395 Y542.982 Z4.000
G1 X1135.910 Y546.958 Z4.000
G1 X1134.811 Y551.010 Z4.000
G1 X1134.039 Y555.063 Z4.000
G1 X1133.383 Y560.359 Z4.000
G1 X1133.075 Y567.649 Z4.000
G1 X1133.075 Y571.728 Z4.000
G1 X1133.075 Y661.334 Z4.000
(stops stroke 51)
G0 X1133.075 Y661.334 Z0.000
(shape postamble)
(shape preamble)
G0 X1207.684 Y663.450 Z0.000
(start stroke 52)
G1 X1207.684 Y663.450 Z4.000
(pause)
G4 P0.5
G1 X1207.684 Y664.068 Z4.000
G1 X1207.009 Y666.942 Z4.000
G1 X1205.468 Y670.666 Z4.000
G1 X1202.999 Y674.833 Z4.000
G1 X1200.147 Y678.344 Z4.000
G1 X1198.116 Y680.363 Z4.000
G1 X1195.818 Y682.256 Z4.000
G1 X1193.245 Y683.973 Z4.000
G1 X1190.389 Y685.463 Z4.000
G1 X1187.243 Y686.676 Z4.000
G1 X1183.800 Y687.561 Z4.000
G1 X1180.051 Y688.068 Z4.000
G1 X1175.641 Y688.145 Z4.000
G1 X1171.003 Y687.701 Z4.000
G1 X1166.957 Y686.773 Z4.000
G1 X1163.462 Y685.414 Z4.000
G1 X1160.478 Y683.677 Z4.000
G1 X1157.964 Y681.615 Z4.000
G1 X1155.881 Y679.279 Z4.000
G1 X1154.187 Y676.724 Z4.000
G1 X1152.843 Y674.001 Z4.000
G1 X1151.808 Y671.163 Z4.000
G1 X1150.800 Y667.295 Z4.000
G1 X1150.047 Y661.538 Z4.000
G1 X1149.832 Y656.235 Z4.000
G1 X1149.832 Y653.220 Z4.000
G1 X1149.832 Y569.611 Z4.000
G1 X1149.935 Y564.628 Z4.000
G1 X1150.449 Y559.116 Z4.000
G1 X1151.452 Y554.409 Z4.000
G1 X1152.352 Y551.642 Z4.000
G1 X1153.535 Y548.974 Z4.000
G1 X1155.039 Y546.455 Z4.000
G1 X1156.904 Y544.134 Z4.000
G1 X1159.167 Y542.062 Z4.000
G1 X1161.867 Y540.287 Z4.000
G1 X1165.043 Y538.859 Z4.000
G1 X1168.733 Y537.828 Z4.000
G1 X1172.976 Y537.244 Z4.000
G1 X1177.611 Y537.156 Z4.000
G1 X1181.665 Y537.558 Z4.000
G1 X1185.385 Y538.390 Z4.000
G1 X1188.781 Y539.598 Z4.000
G1 X1191.862 Y541.126 Z4.000
G1 X1194.638 Y542.919 Z4.000
G1 X1197.117 Y544.921 Z4.000
G1 X1199.310 Y547.077 Z4.000
G1 X1201.849 Y550.087 Z4.000
G1 X1204.710 Y554.678 Z4.000
G1 X1206.587 Y558.926 Z4.000
G1 X1207.553 Y562.390 Z4.000
G1 X1207.684 Y563.967 Z4.000
G1 X1207.684 Y663.450 Z4.000
G1 X1207.684 Y663.450 Z4.000
(stops stroke 52)
G0 X1207.684 Y663.450 Z0.000
(shape postamble)
(shape preamble)
G0 X1250.001 Y700.000 Z0.000
(start stroke 53)
G1 X1250.001 Y700.000 Z4.000
(pause)
G4 P0.5
G1 X1250.001 Y690.000 Z4.000
G0 X1250.001 Y690.000 Z0.000
(shape postamble)
(shape preamble)
G0 X1260.001 Y690.000 Z0.000
(start stroke 54)
G1 X1260.001 Y690.000 Z4.000
G1 X1260.001 Y700.000 Z4.000
G1 X1270.001 Y700.000 Z4.000
G1 X1270.001 Y690.000 Z4.000
G1 X1260.001 Y690.000 Z4.000
G1 X1270.001 Y700.000 Z4.000
(stops stroke 54)
G0 X1270.001 Y700.000 Z0.000
(shape postamble)
(shape preamble)
G0 X1275.001 Y690.000 Z0.000
(start stroke 55)
G1 X1275.001 Y690.000 Z4.000
(pause)
G4 P0.5
G1 X1275.001 Y700.000 Z4.000
G1 X1285.001 Y700.000 Z4.000
G1 X1285.001 Y690.000 Z4.000
G1 X1275.001 Y690.000 Z4.000
G1 X1285.001 Y700.000 Z4.000
(stops stroke 55)
G0 X1285.001 Y700.000 Z0.000
(shape postamble)
(shape preamble)
G0 X1290.001 Y690.000 Z0.000
(start stroke 56)
G1 X1290.001 Y690.000 Z4.000
(pause)
G4 P0.5
G1 X1290.001 Y700.000 Z4.000
G1 X1300.001 Y700.000 Z4.000
G1 X1300.001 Y690.000 Z4.000
G1 X1290.001 Y690.000 Z4.000
G1 X1300.001 Y700.000 Z4.000
(stops stroke 56)
G0 X1300.001 Y700.000 Z0.000
(shape postamble)
(shape preamble)
G0 X1310.001 Y690.000 Z0.000
(start stroke 57)
G1 X1310.001 Y690.000 Z4.000
(pause)
G4 P0.5
G1 X1310.001 Y695.000 Z4.000
G1 X1310.001 Y700.000 Z4.000
G1 X1320.001 Y700.000 Z4.000
G1 X1320.001 Y695.000 Z4.000
G1 X1310.001 Y695.000 Z4.000
(stops stroke 57)
G0 X1310.001 Y695.000 Z0.000
(shape postamble)
(shape preamble)
G0 X1325.001 Y700.000 Z0.000
(start stroke 58)
G1 X1325.001 Y700.000 Z4.000
(pause)
G4 P0.5
G1 X1335.001 Y700.000 Z4.000
G0 X1335.001 Y700.000 Z0.000
(shape postamble)
(shape preamble)
G0 X1330.001 Y700.000 Z0.000
(start stroke 59)
G1 X1330.001 Y700.000 Z4.000
G1 X1330.001 Y690.000 Z4.000
(stops stroke 59)
G0 X1330.001 Y690.000 Z0.000
(shape postamble)
(shape preamble)
G0 X1000.001 Y900.000 Z0.000
(start stroke 60)
(probe_depth_adapt)
G0 X1000.001 Y900.000 Z0 F10000
G1 Z4 F4000
G4 P1.0
G0 Z0 F10000
(end_probe)
G1 X1000.001 Y900.000 Z4.000
G1 X800.001 Y100.000 Z4.000
(stops stroke 60)
G0 X800.001 Y100.000 Z0.000
(shape postamble)
(shape preamble)
G0 X245.086 Y621.059 Z0.000
(start stroke 61)
(probe_depth_adapt)
G0 X245.086 Y621.059 Z0 F10000
G1 Z4 F4000
G4 P1.0
G0 Z0 F10000
(end_probe)
G1 X245.086 Y621.059 Z4.000
G1 X262.623 Y547.404 Z4.000
(stops stroke 61)
G0 X262.623 Y547.404 Z0.000
(shape postamble)
(shape preamble)
G0 X280.160 Y621.059 Z0.000
(start stroke 62)
G1 X280.160 Y621.059 Z4.000
(pause)
G4 P0.5
G1 X262.623 Y547.404 Z4.000
G0 X262.623 Y547.404 Z0.000
(shape postamble)
(shape preamble)
G0 X280.160 Y621.059 Z0.000
(start stroke 63)
G1 X280.160 Y621.059 Z4.000
G1 X297.697 Y547.404 Z4.000
(stops stroke 63)
G0 X297.697 Y547.404 Z0.000
(shape postamble)
(shape preamble)
G0 X315.233 Y621.059 Z0.000
(start stroke 64)
G1 X315.233 Y621.059 Z4.000
(pause)
G4 P0.5
G1 X297.697 Y547.404 Z4.000
G0 X297.697 Y547.404 Z0.000
(shape postamble)
(shape preamble)
G0 X353.815 Y621.059 Z0.000
(start stroke 65)
G1 X353.815 Y621.059 Z4.000
G1 X346.800 Y617.552 Z4.000
G1 X339.785 Y610.537 Z4.000
G1 X336.278 Y603.522 Z4.000
G1 X332.770 Y593.000 Z4.000
G1 X332.770 Y575.463 Z4.000
G1 X336.278 Y564.941 Z4.000
G1 X339.785 Y557.926 Z4.000
G1 X346.800 Y550.911 Z4.000
G1 X353.815 Y547.404 Z4.000
G1 X367.844 Y547.404 Z4.000
G1 X374.859 Y550.911 Z4.000
G1 X381.874 Y557.926 Z4.000
G1 X385.381 Y564.941 Z4.000
G1 X388.888 Y575.463 Z4.000
G1 X388.888 Y593.000 Z4.000
G1 X385.381 Y603.522 Z4.000
G1 X381.874 Y610.537 Z4.000
G1 X374.859 Y617.552 Z4.000
G1 X367.844 Y621.059 Z4.000
G1 X353.815 Y621.059 Z4.000
(stops stroke 65)
G0 X353.815 Y621.059 Z0.000
(shape postamble)
(shape preamble)
G0 X413.440 Y621.059 Z0.000
(start stroke 66)
G1 X413.440 Y621.059 Z4.000
(pause)
G4 P0.5
G1 X413.440 Y547.404 Z4.000
G0 X413.440 Y547.404 Z0.000
(shape postamble)
(shape preamble)
G0 X413.440 Y621.059 Z0.000
(start stroke 67)
G1 X413.440 Y621.059 Z4.000
G1 X462.543 Y547.404 Z4.000
(stops stroke 67)
G0 X462.543 Y547.404 Z0.000
(shape postamble)
(shape preamble)
G0 X462.543 Y621.059 Z0.000
(start stroke 68)
G1 X462.543 Y621.059 Z4.000
(pause)
G4 P0.5
G1 X462.543 Y547.404 Z4.000
G0 X462.543 Y547.404 Z0.000
(shape postamble)
(shape preamble)
G0 X490.602 Y621.059 Z0.000
(start stroke 69)
G1 X490.602 Y621.059 Z4.000
G1 X490.602 Y547.404 Z4.000
(stops stroke 69)
G0 X490.602 Y547.404 Z0.000
(shape postamble)
(shape preamble)
G0 X490.602 Y621.059 Z0.000
(start stroke 70)
G1 X490.602 Y621.059 Z4.000
(pause)
G4 P0.5
G1 X515.154 Y621.059 Z4.000
G1 X525.676 Y617.552 Z4.000
G1 X532.691 Y610.537 Z4.000
G1 X536.198 Y603.522 Z4.000
G1 X539.705 Y593.000 Z4.000
G1 X539.705 Y575.463 Z4.000
G1 X536.198 Y564.941 Z4.000
G1 X532.691 Y557.926 Z4.000
G1 X525.676 Y550.911 Z4.000
G1 X515.154 Y547.404 Z4.000
G1 X490.602 Y547.404 Z4.000
(stops stroke 70)
G0 X490.602 Y547.404 Z0.000
(shape postamble)
(shape preamble)
G0 X564.257 Y621.059 Z0.000
(start stroke 71)
G1 X564.257 Y621.059 Z4.000
(pause)
G4 P0.5
G1 X564.257 Y547.404 Z4.000
G0 X564.257 Y547.404 Z0.000
(shape postamble)
(shape preamble)
G0 X564.257 Y621.059 Z0.000
(start stroke 72)
G1 X564.257 Y621.059 Z4.000
G1 X609.853 Y621.059 Z4.000
(stops stroke 72)
G0 X609.853 Y621.059 Z0.000
(shape postamble)
(shape preamble)
G0 X564.257 Y585.985 Z0.000
(start stroke 73)
G1 X564.257 Y585.985 Z4.000
(pause)
G4 P0.5
G1 X592.316 Y585.985 Z4.000
G0 X592.316 Y585.985 Z0.000
(shape postamble)
(shape preamble)
G0 X564.257 Y547.404 Z0.000
(start stroke 74)
G1 X564.257 Y547.404 Z4.000
G1 X609.853 Y547.404 Z4.000
(stops stroke 74)
G0 X609.853 Y547.404 Z0.000
(shape postamble)
(shape preamble)
G0 X630.897 Y621.059 Z0.000
(start stroke 75)
G1 X630.897 Y621.059 Z4.000
(pause)
G4 P0.5
G1 X630.897 Y547.404 Z4.000
G0 X630.897 Y547.404 Z0.000
(shape postamble)
(shape preamble)
G0 X630.897 Y621.059 Z0.000
(start stroke 76)
G1 X630.897 Y621.059 Z4.000
G1 X662.464 Y621.059 Z4.000
G1 X672.986 Y617.552 Z4.000
G1 X676.493 Y614.044 Z4.000
G1 X680.000 Y607.029 Z4.000
G1 X680.000 Y600.015 Z4.000
G1 X676.493 Y593.000 Z4.000
G1 X672.986 Y589.493 Z4.000
G1 X662.464 Y585.985 Z4.000
G1 X630.897 Y585.985 Z4.000
(stops stroke 76)
G0 X630.897 Y585.985 Z0.000
(shape postamble)
(shape preamble)
G0 X655.449 Y585.985 Z0.000
(start stroke 77)
G1 X655.449 Y585.985 Z4.000
(pause)
G4 P0.5
G1 X680.000 Y547.404 Z4.000
G0 X680.000 Y547.404 Z0.000
(shape postamble)
(shape preamble)
G0 X1570.001 Y120.000 Z0.000
(start stroke 78)
G1 X1570.001 Y120.000 Z4.000
G1 X1580.001 Y120.000 Z4.000
G1 X1580.001 Y110.000 Z4.000
G1 X1570.001 Y110.000 Z4.000
G1 X1570.001 Y120.000 Z4.000
(stops stroke 78)
G0 X1570.001 Y120.000 Z0.000
(shape postamble)
(shape preamble)
G0 X970.001 Y160.000 Z0.000
(start stroke 79)
(probe_depth_adapt)
G0 X970.001 Y160.000 Z0 F10000
G1 Z4 F4000
G4 P1.0
G0 Z0 F10000
(end_probe)
G1 X970.001 Y160.000 Z4.000
G1 X1040.001 Y300.000 Z4.000
G1 X1060.001 Y300.000 Z4.000
G1 X1130.001 Y160.000 Z4.000
G1 X1110.001 Y160.000 Z4.000
G1 X1090.001 Y200.000 Z4.000
G1 X1010.001 Y200.000 Z4.000
G1 X990.001 Y160.000 Z4.000
G1 X970.001 Y160.000 Z4.000
(stops stroke 79)
G0 X970.001 Y160.000 Z0.000
(shape postamble)
(shape preamble)
G0 X1020.001 Y220.000 Z0.000
(start stroke 80)
G1 X1020.001 Y220.000 Z4.000
(pause)
G4 P0.5
G1 X1080.001 Y220.000 Z4.000
G1 X1050.001 Y280.000 Z4.000
G1 X1020.001 Y220.000 Z4.000
(stops stroke 80)
G0 X1020.001 Y220.000 Z0.000
(shape postamble)
(shape preamble)
G0 X1200.001 Y200.000 Z0.000
(start stroke 81)
G1 X1200.001 Y200.000 Z4.000
(pause)
G4 P0.5
G1 X1250.001 Y300.000 Z4.000
G1 X1270.001 Y300.000 Z4.000
G1 X1320.001 Y200.000 Z4.000
G1 X1300.001 Y200.000 Z4.000
G1 X1290.001 Y220.000 Z4.000
G1 X1230.001 Y220.000 Z4.000
G1 X1220.001 Y200.000 Z4.000
G1 X1200.001 Y200.000 Z4.000
(stops stroke 81)
G0 X1200.001 Y200.000 Z0.000
(shape postamble)
(shape preamble)
G0 X1240.001 Y240.000 Z0.000
(start stroke 82)
G1 X1240.001 Y240.000 Z4.000
(pause)
G4 P0.5
G1 X1280.001 Y240.000 Z4.000
G1 X1260.001 Y280.000 Z4.000
G1 X1240.001 Y240.000 Z4.000
(stops stroke 82)
G0 X1240.001 Y240.000 Z0.000
(shape postamble)
(shape preamble)
G0 X1040.001 Y315.000 Z0.000
(start stroke 83)
(probe_depth_adapt)
G0 X1040.001 Y315.000 Z0 F10000
G1 Z4 F4000
G4 P1.0
G0 Z0 F10000
(end_probe)
G1 X1040.001 Y315.000 Z4.000
G1 X1040.001 Y335.000 Z4.000
(stops stroke 83)
G0 X1040.001 Y335.000 Z0.000
(shape postamble)
(shape preamble)
G0 X1070.001 Y315.000 Z0.000
(start stroke 84)
G1 X1070.001 Y315.000 Z4.000
(pause)
G4 P0.5
G1 X1070.001 Y335.000 Z4.000
G0 X1070.001 Y335.000 Z0.000
(shape postamble)
(shape preamble)
G0 X1070.001 Y325.000 Z0.000
(start stroke 85)
G1 X1070.001 Y325.000 Z4.000
G1 X1050.001 Y325.000 Z4.000
G1 X1050.001 Y335.000 Z4.000
(stops stroke 85)
G0 X1050.001 Y335.000 Z0.000
(shape postamble)
(shape preamble)
G0 X1020.001 Y340.000 Z0.000
(start stroke 86)
G1 X1020.001 Y340.000 Z4.000
(pause)
G4 P0.5
G1 X1080.001 Y340.000 Z4.000
G1 X1080.001 Y310.000 Z4.000
G1 X1020.001 Y310.000 Z4.000
G1 X1020.001 Y340.000 Z4.000
(stops stroke 86)
G0 X1020.001 Y340.000 Z0.000
(shape postamble)
(shape preamble)
G0 X970.001 Y300.000 Z0.000
(start stroke 87)
G1 X970.001 Y300.000 Z4.000
(pause)
G4 P0.5
G1 X1130.001 Y300.000 Z4.000
G1 X1130.001 Y160.000 Z4.000
G1 X970.001 Y160.000 Z4.000
G1 X970.001 Y300.000 Z4.000
(stops stroke 87)
G0 X970.001 Y300.000 Z0.000
(shape postamble)
(shape preamble)
G0 X1200.001 Y300.000 Z0.000
(start stroke 88)
(probe_depth_adapt)
G0 X1200.001 Y300.000 Z0 F10000
G1 Z4 F4000
G4 P1.0
G0 Z0 F10000
(end_probe)
G1 X1200.001 Y300.000 Z4.000
G1 X1320.001 Y300.000 Z4.000
G1 X1320.001 Y200.000 Z4.000
G1 X1200.001 Y200.000 Z4.000
G1 X1200.001 Y300.000 Z4.000
(stops stroke 88)
G0 X1200.001 Y300.000 Z0.000
(shape postamble)
(shape preamble)
G0 X1011.579 Y140.000 Z0.000
(start stroke 89)
(probe_depth_adapt)
G0 X1011.579 Y140.000 Z0 F10000
G1 Z4 F4000
G4 P1.0
G0 Z0 F10000
(end_probe)
G1 X1011.579 Y140.000 Z4.000
G1 X1006.234 Y125.968 Z4.000
(stops stroke 89)
G0 X1006.234 Y125.968 Z0.000
(shape postamble)
(shape preamble)
G0 X1011.579 Y140.000 Z0.000
(start stroke 90)
G1 X1011.579 Y140.000 Z4.000
(pause)
G4 P0.5
G1 X1016.925 Y125.968 Z4.000
G0 X1016.925 Y125.968 Z0.000
(shape postamble)
(shape preamble)
G0 X1008.238 Y130.645 Z0.000
(start stroke 91)
G1 X1008.238 Y130.645 Z4.000
G1 X1014.920 Y130.645 Z4.000
(stops stroke 91)
G0 X1014.920 Y130.645 Z0.000
(shape postamble)
(shape preamble)
G0 X1021.602 Y126.636 Z0.000
(start stroke 92)
G1 X1021.602 Y126.636 Z4.000
(pause)
G4 P0.5
G1 X1020.934 Y125.968 Z4.000
G1 X1020.266 Y126.636 Z4.000
G1 X1020.934 Y127.304 Z4.000
G1 X1021.602 Y126.636 Z4.000
G1 X1021.602 Y125.300 Z4.000
G1 X1020.934 Y123.963 Z4.000
G1 X1020.266 Y123.295 Z4.000
(stops stroke 92)
G0 X1020.266 Y123.295 Z0.000
(shape postamble)
(shape preamble)
G0 X1038.975 Y137.327 Z0.000
(start stroke 93)
G1 X1038.975 Y137.327 Z4.000
(pause)
G4 P0.5
G1 X1040.312 Y137.995 Z4.000
G1 X1042.316 Y140.000 Z4.000
G1 X1042.316 Y125.968 Z4.000
(stops stroke 93)
G0 X1042.316 Y125.968 Z0.000
(shape postamble)
(shape preamble)
G0 X1059.021 Y137.995 Z0.000
(start stroke 94)
G1 X1059.021 Y137.995 Z4.000
(pause)
G4 P0.5
G1 X1058.353 Y139.332 Z4.000
G1 X1056.348 Y140.000 Z4.000
G1 X1055.012 Y140.000 Z4.000
G1 X1053.008 Y139.332 Z4.000
G1 X1051.671 Y137.327 Z4.000
G1 X1051.003 Y133.986 Z4.000
G1 X1051.003 Y130.645 Z4.000
G1 X1051.671 Y127.972 Z4.000
G1 X1053.008 Y126.636 Z4.000
G1 X1055.012 Y125.968 Z4.000
G1 X1055.680 Y125.968 Z4.000
G1 X1057.685 Y126.636 Z4.000
G1 X1059.021 Y127.972 Z4.000
G1 X1059.690 Y129.977 Z4.000
G1 X1059.690 Y130.645 Z4.000
G1 X1059.021 Y132.650 Z4.000
G1 X1057.685 Y133.986 Z4.000
G1 X1055.680 Y134.654 Z4.000
G1 X1055.012 Y134.654 Z4.000
G1 X1053.008 Y133.986 Z4.000
G1 X1051.671 Y132.650 Z4.000
G1 X1051.003 Y130.645 Z4.000
(stops stroke 94)
G0 X1051.003 Y130.645 Z0.000
(shape postamble)
(shape preamble)
G0 X1065.703 Y126.636 Z0.000
(start stroke 95)
G1 X1065.703 Y126.636 Z4.000
(pause)
G4 P0.5
G1 X1065.035 Y125.968 Z4.000
G1 X1064.367 Y126.636 Z4.000
G1 X1065.035 Y127.304 Z4.000
G1 X1065.703 Y126.636 Z4.000
G1 X1065.703 Y125.300 Z4.000
G1 X1065.035 Y123.963 Z4.000
G1 X1064.367 Y123.295 Z4.000
(stops stroke 95)
G0 X1064.367 Y123.295 Z0.000
(shape postamble)
(shape preamble)
G0 X1072.385 Y137.327 Z0.000
(start stroke 96)
G1 X1072.385 Y137.327 Z4.000
(pause)
G4 P0.5
G1 X1073.722 Y137.995 Z4.000
G1 X1075.726 Y140.000 Z4.000
G1 X1075.726 Y125.968 Z4.000
(stops stroke 96)
G0 X1075.726 Y125.968 Z0.000
(shape postamble)
(shape preamble)
G0 X1090.427 Y140.000 Z0.000
(start stroke 97)
G1 X1090.427 Y140.000 Z4.000
(pause)
G4 P0.5
G1 X1083.745 Y130.645 Z4.000
G1 X1093.768 Y130.645 Z4.000
(stops stroke 97)
G0 X1093.768 Y130.645 Z0.000
(shape postamble)
(shape preamble)
G0 X1090.427 Y140.000 Z0.000
(start stroke 98)
G1 X1090.427 Y140.000 Z4.000
(pause)
G4 P0.5
G1 X1090.427 Y125.968 Z4.000
G0 X1090.427 Y125.968 Z0.000
(shape postamble)
(shape preamble)
G0 X1221.914 Y140.000 Z0.000
(start stroke 99)
G1 X1221.914 Y140.000 Z4.000
G1 X1216.568 Y125.968 Z4.000
(stops stroke 99)
G0 X1216.568 Y125.968 Z0.000
(shape postamble)
(shape preamble)
G0 X1221.914 Y140.000 Z0.000
(start stroke 100)
G1 X1221.914 Y140.000 Z4.000
(pause)
G4 P0.5
G1 X1227.259 Y125.968 Z4.000
G0 X1227.259 Y125.968 Z0.000
(shape postamble)
(shape preamble)
G0 X1218.573 Y130.645 Z0.000
(start stroke 101)
G1 X1218.573 Y130.645 Z4.000
G1 X1225.255 Y130.645 Z4.000
(stops stroke 101)
G0 X1225.255 Y130.645 Z0.000
(shape postamble)
(shape preamble)
G0 X1231.937 Y126.636 Z0.000
(start stroke 102)
G1 X1231.937 Y126.636 Z4.000
(pause)
G4 P0.5
G1 X1231.268 Y125.968 Z4.000
G1 X1230.600 Y126.636 Z4.000
G1 X1231.268 Y127.304 Z4.000
G1 X1231.937 Y126.636 Z4.000
G1 X1231.937 Y125.300 Z4.000
G1 X1231.268 Y123.963 Z4.000
G1 X1230.600 Y123.295 Z4.000
(stops stroke 102)
G0 X1230.600 Y123.295 Z0.000
(shape postamble)
(shape preamble)
G0 X1249.310 Y137.327 Z0.000
(start stroke 103)
G1 X1249.310 Y137.327 Z4.000
(pause)
G4 P0.5
G1 X1250.646 Y137.995 Z4.000
G1 X1252.651 Y140.000 Z4.000
G1 X1252.651 Y125.968 Z4.000
(stops stroke 103)
G0 X1252.651 Y125.968 Z0.000
(shape postamble)
(shape preamble)
G0 X1261.337 Y136.659 Z0.000
(start stroke 104)
G1 X1261.337 Y136.659 Z4.000
(pause)
G4 P0.5
G1 X1261.337 Y137.327 Z4.000
G1 X1262.005 Y138.664 Z4.000
G1 X1262.674 Y139.332 Z4.000
G1 X1264.010 Y140.000 Z4.000
G1 X1266.683 Y140.000 Z4.000
G1 X1268.019 Y139.332 Z4.000
G1 X1268.687 Y138.664 Z4.000
G1 X1269.356 Y137.327 Z4.000
G1 X1269.356 Y135.991 Z4.000
G1 X1268.687 Y134.654 Z4.000
G1 X1267.351 Y132.650 Z4.000
G1 X1260.669 Y125.968 Z4.000
G1 X1270.024 Y125.968 Z4.000
(stops stroke 104)
G0 X1270.024 Y125.968 Z0.000
(shape postamble)
(shape preamble)
G0 X1276.038 Y126.636 Z0.000
(start stroke 105)
G1 X1276.038 Y126.636 Z4.000
(pause)
G4 P0.5
G1 X1275.369 Y125.968 Z4.000
G1 X1274.701 Y126.636 Z4.000
G1 X1275.369 Y127.304 Z4.000
G1 X1276.038 Y126.636 Z4.000
G1 X1276.038 Y125.300 Z4.000
G1 X1275.369 Y123.963 Z4.000
G1 X1274.701 Y123.295 Z4.000
(stops stroke 105)
G0 X1274.701 Y123.295 Z0.000
(shape postamble)
(shape preamble)
G0 X1282.720 Y137.327 Z0.000
(start stroke 106)
G1 X1282.720 Y137.327 Z4.000
(pause)
G4 P0.5
G1 X1284.056 Y137.995 Z4.000
G1 X1286.061 Y140.000 Z4.000
G1 X1286.061 Y125.968 Z4.000
(stops stroke 106)
G0 X1286.061 Y125.968 Z0.000
(shape postamble)
(shape preamble)
G0 X1298.088 Y140.000 Z0.000
(start stroke 107)
G1 X1298.088 Y140.000 Z4.000
(pause)
G4 P0.5
G1 X1296.083 Y139.332 Z4.000
G1 X1294.747 Y137.327 Z4.000
G1 X1294.079 Y133.986 Z4.000
G1 X1294.079 Y131.982 Z4.000
G1 X1294.747 Y128.641 Z4.000
G1 X1296.083 Y126.636 Z4.000
G1 X1298.088 Y125.968 Z4.000
G1 X1299.424 Y125.968 Z4.000
G1 X1301.429 Y126.636 Z4.000
G1 X1302.765 Y128.641 Z4.000
G1 X1303.434 Y131.982 Z4.000
G1 X1303.434 Y133.986 Z4.000
G1 X1302.765 Y137.327 Z4.000
G1 X1301.429 Y139.332 Z4.000
G1 X1299.424 Y140.000 Z4.000
G1 X1298.088 Y140.000 Z4.000
(stops stroke 107)
G0 X1298.088 Y140.000 Z0.000
(shape postamble)
(shape preamble)
G0 X997.911 Y360.292 Z0.000
(start stroke 108)
(probe_depth_adapt)
G0 X997.911 Y360.292 Z0 F10000
G1 Z4 F4000
G4 P1.0
G0 Z0 F10000
(end_probe)
G1 X997.911 Y360.292 Z4.000
G1 X800.648 Y360.292 Z4.000
G1 X796.412 Y360.651 Z4.000
G1 X792.306 Y361.420 Z4.000
G1 X788.352 Y362.579 Z4.000
G1 X784.571 Y364.106 Z4.000
G1 X780.983 Y365.981 Z4.000
G1 X777.609 Y368.182 Z4.000
G1 X774.471 Y370.689 Z4.000
G1 X771.590 Y373.480 Z4.000
G1 X768.986 Y376.535 Z4.000
G1 X766.680 Y379.832 Z4.000
G1 X764.694 Y383.351 Z4.000
G1 X763.049 Y387.071 Z4.000
G1 X761.765 Y390.970 Z4.000
G1 X760.864 Y395.027 Z4.000
G1 X760.366 Y399.222 Z4.000
G1 X760.293 Y402.090 Z4.000
G1 X760.293 Y599.353 Z4.000
G1 X760.651 Y603.589 Z4.000
G1 X761.420 Y607.694 Z4.000
G1 X762.579 Y611.648 Z4.000
G1 X764.106 Y615.430 Z4.000
G1 X765.981 Y619.018 Z4.000
G1 X768.182 Y622.392 Z4.000
G1 X770.689 Y625.530 Z4.000
G1 X773.481 Y628.411 Z4.000
G1 X776.535 Y631.015 Z4.000
G1 X779.833 Y633.321 Z4.000
G1 X783.352 Y635.307 Z4.000
G1 X787.071 Y636.952 Z4.000
G1 X790.970 Y638.236 Z4.000
G1 X795.027 Y639.137 Z4.000
G1 X799.222 Y639.635 Z4.000
G1 X802.091 Y639.708 Z4.000
G1 X999.353 Y639.708 Z4.000
G1 X1003.589 Y639.350 Z4.000
G1 X1007.695 Y638.580 Z4.000
G1 X1011.649 Y637.422 Z4.000
G1 X1015.430 Y635.895 Z4.000
G1 X1019.018 Y634.020 Z4.000
G1 X1022.392 Y631.818 Z4.000
G1 X1025.530 Y629.312 Z4.000
G1 X1028.412 Y626.520 Z4.000
G1 X1031.016 Y623.465 Z4.000
G1 X1033.321 Y620.168 Z4.000
G1 X1035.307 Y616.649 Z4.000
G1 X1036.953 Y612.930 Z4.000
G1 X1038.236 Y609.031 Z4.000
G1 X1039.138 Y604.974 Z4.000
G1 X1039.635 Y600.779 Z4.000
G1 X1039.708 Y597.910 Z4.000
G1 X1039.708 Y400.647 Z4.000
G1 X1039.350 Y396.411 Z4.000
G1 X1038.581 Y392.306 Z4.000
G1 X1037.422 Y388.352 Z4.000
G1 X1035.895 Y384.570 Z4.000
G1 X1034.020 Y380.982 Z4.000
G1 X1031.819 Y377.609 Z4.000
G1 X1029.312 Y374.471 Z4.000
G1 X1026.521 Y371.589 Z4.000
G1 X1023.466 Y368.985 Z4.000
G1 X1020.168 Y366.680 Z4.000
G1 X1016.649 Y364.694 Z4.000
G1 X1012.930 Y363.048 Z4.000
G1 X1009.031 Y361.765 Z4.000
G1 X1004.974 Y360.863 Z4.000
G1 X1000.779 Y360.366 Z4.000
G1 X997.911 Y360.292 Z4.000
(stops stroke 108)
G0 X997.911 Y360.292 Z0.000
(shape postamble)
(shape preamble)
G0 X802.205 Y500.000 Z0.000
(start stroke 109)
(probe_depth_adapt)
G0 X802.205 Y500.000 Z0 F10000
G1 Z4 F4000
G4 P1.0
G0 Z0 F10000
(end_probe)
G1 X802.205 Y500.000 Z4.000
G1 X802.205 Y497.817 Z4.000
G1 X802.566 Y491.323 Z4.000
G1 X803.350 Y484.916 Z4.000
G1 X804.546 Y478.612 Z4.000
G1 X806.145 Y472.430 Z4.000
G1 X808.137 Y466.388 Z4.000
G1 X810.511 Y460.503 Z4.000
G1 X813.256 Y454.792 Z4.000
G1 X816.363 Y449.275 Z4.000
G1 X819.820 Y443.968 Z4.000
G1 X823.619 Y438.890 Z4.000
G1 X827.748 Y434.057 Z4.000
G1 X832.198 Y429.490 Z4.000
G1 X836.958 Y425.204 Z4.000
G1 X842.017 Y421.217 Z4.000
G1 X847.366 Y417.548 Z4.000
G1 X852.994 Y414.215 Z4.000
G1 X858.798 Y411.281 Z4.000
G1 X864.738 Y408.756 Z4.000
G1 X870.796 Y406.640 Z4.000
G1 X876.949 Y404.934 Z4.000
G1 X883.178 Y403.638 Z4.000
G1 X889.462 Y402.751 Z4.000
G1 X895.780 Y402.273 Z4.000
G1 X902.111 Y402.205 Z4.000
G1 X908.436 Y402.546 Z4.000
G1 X914.733 Y403.297 Z4.000
G1 X920.983 Y404.457 Z4.000
G1 X927.163 Y406.026 Z4.000
G1 X933.255 Y408.005 Z4.000
G1 X939.237 Y410.394 Z4.000
G1 X945.089 Y413.191 Z4.000
G1 X950.789 Y416.399 Z4.000
G1 X956.232 Y419.958 Z4.000
G1 X961.390 Y423.840 Z4.000
G1 X966.250 Y428.028 Z4.000
G1 X970.804 Y432.504 Z4.000
G1 X975.042 Y437.250 Z4.000
G1 X978.952 Y442.248 Z4.000
G1 X982.524 Y447.481 Z4.000
G1 X985.749 Y452.930 Z4.000
G1 X988.616 Y458.578 Z4.000
G1 X991.115 Y464.407 Z4.000
G1 X993.235 Y470.399 Z4.000
G1 X994.966 Y476.537 Z4.000
G1 X996.298 Y482.802 Z4.000
G1 X997.220 Y489.177 Z4.000
G1 X997.723 Y495.643 Z4.000
G1 X997.796 Y502.184 Z4.000
G1 X997.435 Y508.677 Z4.000
G1 X996.652 Y515.085 Z4.000
G1 X995.455 Y521.388 Z4.000
G1 X993.856 Y527.570 Z4.000
G1 X991.864 Y533.613 Z4.000
G1 X989.491 Y539.498 Z4.000
G1 X986.745 Y545.208 Z4.000
G1 X983.639 Y550.726 Z4.000
G1 X980.181 Y556.033 Z4.000
G1 X976.382 Y561.111 Z4.000
G1 X972.253 Y565.943 Z4.000
G1 X967.803 Y570.511 Z4.000
G1 X963.043 Y574.797 Z4.000
G1 X957.984 Y578.783 Z4.000
G1 X952.635 Y582.452 Z4.000
G1 X947.007 Y585.785 Z4.000
G1 X941.204 Y588.720 Z4.000
G1 X935.263 Y591.245 Z4.000
G1 X929.205 Y593.360 Z4.000
G1 X923.052 Y595.066 Z4.000
G1 X916.823 Y596.363 Z4.000
G1 X910.540 Y597.250 Z4.000
G1 X904.222 Y597.727 Z4.000
G1 X897.890 Y597.796 Z4.000
G1 X891.565 Y597.454 Z4.000
G1 X885.268 Y596.704 Z4.000
G1 X879.019 Y595.544 Z4.000
G1 X872.838 Y593.974 Z4.000
G1 X866.746 Y591.995 Z4.000
G1 X860.764 Y589.607 Z4.000
G1 X854.913 Y586.809 Z4.000
G1 X849.212 Y583.602 Z4.000
G1 X843.769 Y580.043 Z4.000
G1 X838.612 Y576.160 Z4.000
G1 X833.751 Y571.972 Z4.000
G1 X829.197 Y567.496 Z4.000
G1 X824.960 Y562.750 Z4.000
G1 X821.050 Y557.752 Z4.000
G1 X817.477 Y552.519 Z4.000
G1 X814.252 Y547.070 Z4.000
G1 X811.385 Y541.422 Z4.000
G1 X808.886 Y535.593 Z4.000
G1 X806.766 Y529.601 Z4.000
G1 X805.035 Y523.464 Z4.000
G1 X803.703 Y517.199 Z4.000
G1 X802.781 Y510.824 Z4.000
G1 X802.278 Y504.357 Z4.000
G1 X802.205 Y500.000 Z4.000
(stops stroke 109)
G0 X802.205 Y500.000 Z0.000
(shape postamble)
(shape preamble)
G0 X816.176 Y500.000 Z0.000
(start stroke 110)
G1 X816.176 Y500.000 Z4.000
(pause)
G4 P0.5
G1 X816.176 Y498.129 Z4.000
G1 X816.485 Y492.563 Z4.000
G1 X817.157 Y487.071 Z4.000
G1 X818.183 Y481.668 Z4.000
G1 X819.553 Y476.369 Z4.000
G1 X821.260 Y471.190 Z4.000
G1 X823.295 Y466.145 Z4.000
G1 X825.648 Y461.251 Z4.000
G1 X828.311 Y456.521 Z4.000
G1 X831.275 Y451.973 Z4.000
G1 X834.531 Y447.620 Z4.000
G1 X838.070 Y443.478 Z4.000
G1 X841.884 Y439.563 Z4.000
G1 X845.964 Y435.889 Z4.000
G1 X850.301 Y432.472 Z4.000
G1 X854.885 Y429.327 Z4.000
G1 X859.709 Y426.470 Z4.000
G1 X864.684 Y423.955 Z4.000
G1 X869.776 Y421.791 Z4.000
G1 X874.968 Y419.978 Z4.000
G1 X880.242 Y418.515 Z4.000
G1 X885.581 Y417.404 Z4.000
G1 X890.967 Y416.644 Z4.000
G1 X896.383 Y416.234 Z4.000
G1 X901.810 Y416.176 Z4.000
G1 X907.231 Y416.468 Z4.000
G1 X912.629 Y417.111 Z4.000
G1 X917.985 Y418.106 Z4.000
G1 X923.283 Y419.451 Z4.000
G1 X928.504 Y421.147 Z4.000
G1 X933.632 Y423.195 Z4.000
G1 X938.647 Y425.593 Z4.000
G1 X943.534 Y428.342 Z4.000
G1 X948.199 Y431.392 Z4.000
G1 X952.620 Y434.720 Z4.000
G1 X956.786 Y438.310 Z4.000
G1 X960.689 Y442.146 Z4.000
G1 X964.321 Y446.214 Z4.000
G1 X967.673 Y450.499 Z4.000
G1 X970.735 Y454.984 Z4.000
G1 X973.499 Y459.655 Z4.000
G1 X975.957 Y464.496 Z4.000
G1 X978.098 Y469.492 Z4.000
G1 X979.916 Y474.628 Z4.000
G1 X981.399 Y479.889 Z4.000
G1 X982.541 Y485.259 Z4.000
G1 X983.332 Y490.723 Z4.000
G1 X983.763 Y496.266 Z4.000
G1 X983.825 Y501.872 Z4.000
G1 X983.516 Y507.438 Z4.000
G1 X982.844 Y512.930 Z4.000
G1 X981.819 Y518.333 Z4.000
G1 X980.448 Y523.631 Z4.000
G1 X978.741 Y528.811 Z4.000
G1 X976.706 Y533.855 Z4.000
G1 X974.353 Y538.750 Z4.000
G1 X971.690 Y543.479 Z4.000
G1 X968.726 Y548.028 Z4.000
G1 X965.470 Y552.381 Z4.000
G1 X961.931 Y556.523 Z4.000
G1 X958.117 Y560.438 Z4.000
G1 X954.037 Y564.112 Z4.000
G1 X949.701 Y567.529 Z4.000
G1 X945.116 Y570.673 Z4.000
G1 X940.292 Y573.530 Z4.000
G1 X935.317 Y576.046 Z4.000
G1 X930.225 Y578.210 Z4.000
G1 X925.033 Y580.023 Z4.000
G1 X919.759 Y581.485 Z4.000
G1 X914.420 Y582.597 Z4.000
G1 X909.034 Y583.357 Z4.000
G1 X903.619 Y583.766 Z4.000
G1 X898.192 Y583.825 Z4.000
G1 X892.770 Y583.532 Z4.000
G1 X887.373 Y582.889 Z4.000
G1 X882.016 Y581.895 Z4.000
G1 X876.718 Y580.549 Z4.000
G1 X871.497 Y578.853 Z4.000
G1 X866.369 Y576.806 Z4.000
G1 X861.354 Y574.408 Z4.000
G1 X856.467 Y571.659 Z4.000
G1 X851.802 Y568.608 Z4.000
G1 X847.382 Y565.280 Z4.000
G1 X843.215 Y561.691 Z4.000
G1 X839.312 Y557.854 Z4.000
G1 X835.680 Y553.786 Z4.000
G1 X832.328 Y549.502 Z4.000
G1 X829.266 Y545.017 Z4.000
G1 X826.502 Y540.346 Z4.000
G1 X824.044 Y535.505 Z4.000
G1 X821.903 Y530.508 Z4.000
G1 X820.086 Y525.372 Z4.000
G1 X818.602 Y520.112 Z4.000
G1 X817.460 Y514.742 Z4.000
G1 X816.669 Y509.278 Z4.000
G1 X816.238 Y503.735 Z4.000
G1 X816.176 Y500.000 Z4.000
(stops stroke 110)
G0 X816.176 Y500.000 Z0.000
(shape postamble)
(shape preamble)
G0 X830.147 Y500.000 Z0.000
(start stroke 111)
G1 X830.147 Y500.000 Z4.000
(pause)
G4 P0.5
G1 X830.147 Y498.440 Z4.000
G1 X830.404 Y493.802 Z4.000
G1 X830.964 Y489.226 Z4.000
G1 X831.819 Y484.723 Z4.000
G1 X832.961 Y480.308 Z4.000
G1 X834.384 Y475.991 Z4.000
G1 X836.079 Y471.788 Z4.000
G1 X838.040 Y467.709 Z4.000
G1 X840.259 Y463.768 Z4.000
G1 X842.729 Y459.977 Z4.000
G1 X845.442 Y456.350 Z4.000
G1 X848.392 Y452.898 Z4.000
G1 X851.570 Y449.635 Z4.000
G1 X854.970 Y446.574 Z4.000
G1 X858.584 Y443.727 Z4.000
G1 X862.404 Y441.106 Z4.000
G1 X866.424 Y438.725 Z4.000
G1 X870.570 Y436.629 Z4.000
G1 X874.813 Y434.826 Z4.000
G1 X879.140 Y433.315 Z4.000
G1 X883.535 Y432.096 Z4.000
G1 X887.984 Y431.170 Z4.000
G1 X892.473 Y430.536 Z4.000
G1 X896.986 Y430.195 Z4.000
G1 X901.508 Y430.146 Z4.000
G1 X906.026 Y430.390 Z4.000
G1 X910.524 Y430.926 Z4.000
G1 X914.988 Y431.755 Z4.000
G1 X919.403 Y432.876 Z4.000
G1 X923.754 Y434.289 Z4.000
G1 X928.027 Y435.995 Z4.000
G1 X932.206 Y437.994 Z4.000
G1 X936.278 Y440.285 Z4.000
G1 X940.166 Y442.827 Z4.000
G1 X943.850 Y445.600 Z4.000
G1 X947.322 Y448.592 Z4.000
G1 X950.575 Y451.789 Z4.000
G1 X953.601 Y455.179 Z4.000
G1 X956.394 Y458.749 Z4.000
G1 X958.946 Y462.487 Z4.000
G1 X961.250 Y466.379 Z4.000
G1 X963.297 Y470.413 Z4.000
G1 X965.082 Y474.577 Z4.000
G1 X966.596 Y478.857 Z4.000
G1 X967.833 Y483.241 Z4.000
G1 X968.784 Y487.716 Z4.000
G1 X969.443 Y492.269 Z4.000
G1 X969.802 Y496.888 Z4.000
G1 X969.854 Y501.560 Z4.000
G1 X969.597 Y506.198 Z4.000
G1 X969.037 Y510.775 Z4.000
G1 X968.182 Y515.277 Z4.000
G1 X967.040 Y519.693 Z4.000
G1 X965.617 Y524.009 Z4.000
G1 X963.922 Y528.213 Z4.000
G1 X961.961 Y532.292 Z4.000
G1 X959.742 Y536.233 Z4.000
G1 X957.272 Y540.023 Z4.000
G1 X954.559 Y543.651 Z4.000
G1 X951.609 Y547.102 Z4.000
G1 X948.431 Y550.365 Z4.000
G1 X945.031 Y553.426 Z4.000
G1 X941.417 Y556.274 Z4.000
G1 X937.597 Y558.894 Z4.000
G1 X933.577 Y561.275 Z4.000
G1 X929.431 Y563.371 Z4.000
G1 X925.188 Y565.175 Z4.000
G1 X920.861 Y566.686 Z4.000
G1 X916.466 Y567.904 Z4.000
G1 X912.017 Y568.831 Z4.000
G1 X907.528 Y569.464 Z4.000
G1 X903.016 Y569.805 Z4.000
G1 X898.493 Y569.854 Z4.000
G1 X893.975 Y569.610 Z4.000
G1 X889.477 Y569.074 Z4.000
G1 X885.013 Y568.246 Z4.000
G1 X880.599 Y567.125 Z4.000
G1 X876.247 Y565.711 Z4.000
G1 X871.975 Y564.005 Z4.000
G1 X867.795 Y562.007 Z4.000
G1 X863.723 Y559.716 Z4.000
G1 X859.835 Y557.173 Z4.000
G1 X856.151 Y554.400 Z4.000
G1 X852.679 Y551.409 Z4.000
G1 X849.427 Y548.212 Z4.000
G1 X846.400 Y544.822 Z4.000
G1 X843.607 Y541.252 Z4.000
G1 X841.055 Y537.514 Z4.000
G1 X838.752 Y533.622 Z4.000
G1 X836.704 Y529.587 Z4.000
G1 X834.919 Y525.424 Z4.000
G1 X833.405 Y521.144 Z4.000
G1 X832.168 Y516.760 Z4.000
G1 X831.217 Y512.285 Z4.000
G1 X830.558 Y507.731 Z4.000
G1 X830.199 Y503.112 Z4.000
G1 X830.147 Y500.000 Z4.000
(stops stroke 111)
G0 X830.147 Y500.000 Z0.000
(shape postamble)
(shape preamble)
G0 X844.117 Y500.000 Z0.000
(start stroke 112)
G1 X844.117 Y500.000 Z4.000
(pause)
G4 P0.5
G1 X844.117 Y497.505 Z4.000
G1 X844.934 Y490.163 Z4.000
G1 X846.686 Y483.073 Z4.000
G1 X849.327 Y476.314 Z4.000
G1 X852.810 Y469.970 Z4.000
G1 X857.088 Y464.120 Z4.000
G1 X862.114 Y458.847 Z4.000
G1 X867.840 Y454.232 Z4.000
G1 X874.220 Y450.356 Z4.000
G1 X880.986 Y447.393 Z4.000
G1 X888.003 Y445.365 Z4.000
G1 X895.176 Y444.273 Z4.000
G1 X902.413 Y444.117 Z4.000
G1 X909.617 Y444.897 Z4.000
G1 X916.697 Y446.613 Z4.000
G1 X923.557 Y449.264 Z4.000
G1 X930.103 Y452.852 Z4.000
G1 X936.053 Y457.230 Z4.000
G1 X941.317 Y462.292 Z4.000
G1 X945.850 Y467.959 Z4.000
G1 X949.603 Y474.148 Z4.000
G1 X952.530 Y480.777 Z4.000
G1 X954.584 Y487.766 Z4.000
G1 X955.717 Y495.033 Z4.000
G1 X955.884 Y502.496 Z4.000
G1 X955.067 Y509.837 Z4.000
G1 X953.315 Y516.928 Z4.000
G1 X950.674 Y523.686 Z4.000
G1 X947.191 Y530.031 Z4.000
G1 X942.913 Y535.880 Z4.000
G1 X937.887 Y541.153 Z4.000
G1 X932.161 Y545.769 Z4.000
G1 X925.781 Y549.644 Z4.000
G1 X919.015 Y552.608 Z4.000
G1 X911.998 Y554.636 Z4.000
G1 X904.825 Y555.727 Z4.000
G1 X897.589 Y555.883 Z4.000
G1 X890.384 Y555.103 Z4.000
G1 X883.304 Y553.388 Z4.000
G1 X876.444 Y550.736 Z4.000
G1 X869.898 Y547.149 Z4.000
G1 X863.948 Y542.771 Z4.000
G1 X858.684 Y537.708 Z4.000
G1 X854.152 Y532.042 Z4.000
G1 X850.398 Y525.853 Z4.000
G1 X847.471 Y519.223 Z4.000
G1 X845.418 Y512.235 Z4.000
G1 X844.284 Y504.968 Z4.000
G1 X844.117 Y500.000 Z4.000
(stops stroke 112)
G0 X844.117 Y500.000 Z0.000
(shape postamble)
(shape preamble)
G0 X858.088 Y500.000 Z0.000
(start stroke 113)
G1 X858.088 Y500.000 Z4.000
(pause)
G4 P0.5
G1 X858.088 Y498.129 Z4.000
G1 X858.701 Y492.623 Z4.000
G1 X860.015 Y487.305 Z4.000
G1 X861.996 Y482.236 Z4.000
G1 X864.608 Y477.477 Z4.000
G1 X867.816 Y473.090 Z4.000
G1 X871.586 Y469.135 Z4.000
G1 X875.880 Y465.674 Z4.000
G1 X880.665 Y462.767 Z4.000
G1 X885.740 Y460.545 Z4.000
G1 X891.002 Y459.024 Z4.000
G1 X896.383 Y458.205 Z4.000
G1 X901.810 Y458.088 Z4.000
G1 X907.213 Y458.673 Z4.000
G1 X912.523 Y459.960 Z4.000
G1 X917.668 Y461.948 Z4.000
G1 X922.578 Y464.639 Z4.000
G1 X927.040 Y467.922 Z4.000
G1 X930.988 Y471.719 Z4.000
G1 X934.387 Y475.969 Z4.000
G1 X937.202 Y480.611 Z4.000
G1 X939.398 Y485.583 Z4.000
G1 X940.938 Y490.824 Z4.000
G1 X941.788 Y496.275 Z4.000
G1 X941.913 Y501.872 Z4.000
G1 X941.301 Y507.378 Z4.000
G1 X939.986 Y512.696 Z4.000
G1 X938.005 Y517.765 Z4.000
G1 X935.393 Y522.523 Z4.000
G1 X932.185 Y526.910 Z4.000
G1 X928.416 Y530.865 Z4.000
G1 X924.121 Y534.326 Z4.000
G1 X919.336 Y537.233 Z4.000
G1 X914.261 Y539.456 Z4.000
G1 X908.999 Y540.977 Z4.000
G1 X903.619 Y541.796 Z4.000
G1 X898.192 Y541.913 Z4.000
G1 X892.788 Y541.328 Z4.000
G1 X887.478 Y540.041 Z4.000
G1 X882.333 Y538.052 Z4.000
G1 X877.423 Y535.362 Z4.000
G1 X872.961 Y532.078 Z4.000
G1 X869.013 Y528.281 Z4.000
G1 X865.614 Y524.031 Z4.000
G1 X862.799 Y519.390 Z4.000
G1 X860.604 Y514.418 Z4.000
G1 X859.063 Y509.176 Z4.000
G1 X858.213 Y503.726 Z4.000
G1 X858.088 Y500.000 Z4.000
(stops stroke 113)
G0 X858.088 Y500.000 Z0.000
(shape postamble)
(shape preamble)
G0 X872.059 Y500.000 Z0.000
(start stroke 114)
G1 X872.059 Y500.000 Z4.000
(pause)
G4 P0.5
G1 X872.059 Y498.752 Z4.000
G1 X872.467 Y495.082 Z4.000
G1 X873.343 Y491.537 Z4.000
G1 X874.664 Y488.157 Z4.000
G1 X876.406 Y484.985 Z4.000
G1 X878.544 Y482.060 Z4.000
G1 X881.057 Y479.424 Z4.000
G1 X883.920 Y477.116 Z4.000
G1 X887.110 Y475.178 Z4.000
G1 X890.493 Y473.696 Z4.000
G1 X894.002 Y472.683 Z4.000
G1 X897.589 Y472.137 Z4.000
G1 X901.207 Y472.059 Z4.000
G1 X904.809 Y472.449 Z4.000
G1 X908.349 Y473.307 Z4.000
G1 X911.779 Y474.632 Z4.000
G1 X915.052 Y476.426 Z4.000
G1 X918.027 Y478.615 Z4.000
G1 X920.659 Y481.146 Z4.000
G1 X922.925 Y483.980 Z4.000
G1 X924.802 Y487.074 Z4.000
G1 X926.265 Y490.389 Z4.000
G1 X927.292 Y493.883 Z4.000
G1 X927.859 Y497.516 Z4.000
G1 X927.942 Y501.248 Z4.000
G1 X927.534 Y504.919 Z4.000
G1 X926.658 Y508.464 Z4.000
G1 X925.337 Y511.843 Z4.000
G1 X923.596 Y515.015 Z4.000
G1 X921.457 Y517.940 Z4.000
G1 X918.944 Y520.577 Z4.000
G1 X916.081 Y522.884 Z4.000
G1 X912.891 Y524.822 Z4.000
G1 X909.508 Y526.304 Z4.000
G1 X905.999 Y527.318 Z4.000
G1 X902.413 Y527.864 Z4.000
G1 X898.795 Y527.942 Z4.000
G1 X895.192 Y527.552 Z4.000
G1 X891.652 Y526.694 Z4.000
G1 X888.222 Y525.368 Z4.000
G1 X884.949 Y523.574 Z4.000
G1 X881.974 Y521.386 Z4.000
G1 X879.342 Y518.854 Z4.000
G1 X877.076 Y516.021 Z4.000
G1 X875.200 Y512.927 Z4.000
G1 X873.736 Y509.612 Z4.000
G1 X872.709 Y506.117 Z4.000
G1 X872.142 Y502.484 Z4.000
G1 X872.059 Y500.000 Z4.000
(stops stroke 114)
G0 X872.059 Y500.000 Z0.000
(shape postamble)
(shape preamble)
G0 X886.030 Y500.000 Z0.000
(start stroke 115)
G1 X886.030 Y500.000 Z4.000
(pause)
G4 P0.5
G1 X886.030 Y498.752 Z4.000
G1 X886.831 Y495.182 Z4.000
G1 X888.505 Y491.970 Z4.000
G1 X890.958 Y489.281 Z4.000
G1 X894.096 Y487.277 Z4.000
G1 X897.589 Y486.185 Z4.000
G1 X901.207 Y486.029 Z4.000
G1 X904.762 Y486.809 Z4.000
G1 X908.067 Y488.525 Z4.000
G1 X910.759 Y491.004 Z4.000
G1 X912.703 Y494.059 Z4.000
G1 X913.805 Y497.528 Z4.000
G1 X913.971 Y501.248 Z4.000
G1 X913.171 Y504.819 Z4.000
G1 X911.497 Y508.030 Z4.000
G1 X909.044 Y510.719 Z4.000
G1 X905.905 Y512.723 Z4.000
G1 X902.413 Y513.815 Z4.000
G1 X898.795 Y513.971 Z4.000
G1 X895.239 Y513.191 Z4.000
G1 X891.935 Y511.475 Z4.000
G1 X889.243 Y508.997 Z4.000
G1 X887.299 Y505.941 Z4.000
G1 X886.196 Y502.472 Z4.000
G1 X886.030 Y500.000 Z4.000
(stops stroke 115)
G0 X886.030 Y500.000 Z0.000
(shape postamble)
(shape preamble)
G0 X1430.018 Y625.967 Z0.000
(start stroke 116)
(probe_depth_adapt)
G0 X1430.018 Y625.967 Z0 F10000
G1 Z4 F4000
G4 P1.0
G0 Z0 F10000
(end_probe)
G1 X1430.018 Y625.967 Z4.000
G1 X1430.572 Y624.616 Z4.000
G1 X1432.885 Y621.129 Z4.000
G1 X1435.884 Y618.324 Z4.000
G1 X1439.471 Y616.205 Z4.000
G1 X1442.610 Y615.074 Z4.000
G1 X1444.503 Y614.526 Z4.000
G1 X1445.720 Y613.928 Z4.000
G1 X1446.846 Y613.012 Z4.000
G1 X1447.733 Y611.682 Z4.000
G1 X1448.232 Y609.843 Z4.000
G1 X1448.194 Y607.401 Z4.000
G1 X1447.595 Y604.732 Z4.000
G1 X1447.340 Y602.845 Z4.000
G1 X1447.360 Y600.302 Z4.000
G1 X1448.246 Y596.511 Z4.000
G1 X1449.975 Y592.900 Z4.000
G1 X1452.429 Y589.626 Z4.000
G1 X1455.489 Y586.848 Z4.000
G1 X1459.037 Y584.723 Z4.000
G1 X1462.956 Y583.408 Z4.000
G1 X1466.983 Y583.068 Z4.000
G1 X1470.529 Y583.702 Z4.000
G1 X1473.754 Y585.157 Z4.000
G1 X1476.600 Y587.305 Z4.000
G1 X1479.011 Y590.016 Z4.000
G1 X1480.930 Y593.163 Z4.000
G1 X1482.300 Y596.617 Z4.000
G1 X1483.063 Y600.249 Z4.000
G1 X1483.167 Y603.257 Z4.000
G1 X1482.714 Y605.365 Z4.000
G1 X1482.094 Y607.665 Z4.000
G1 X1481.699 Y609.780 Z4.000
G1 X1482.020 Y611.689 Z4.000
G1 X1483.011 Y613.355 Z4.000
G1 X1484.336 Y614.211 Z4.000
G1 X1485.921 Y614.446 Z4.000
G1 X1488.292 Y614.164 Z4.000
G1 X1491.506 Y613.306 Z4.000
G1 X1493.401 Y612.940 Z4.000
G1 X1495.641 Y612.903 Z4.000
G1 X1498.723 Y613.638 Z4.000
G1 X1501.580 Y615.090 Z4.000
G1 X1504.012 Y617.147 Z4.000
G1 X1505.668 Y619.463 Z4.000
G1 X1506.621 Y621.486 Z4.000
G1 X1507.264 Y623.617 Z4.000
G1 X1507.616 Y625.832 Z4.000
G1 X1507.712 Y628.867 Z4.000
G1 X1506.987 Y633.516 Z4.000
G1 X1505.447 Y638.092 Z4.000
G1 X1503.252 Y642.406 Z4.000
G1 X1500.563 Y646.271 Z4.000
G1 X1497.539 Y649.499 Z4.000
G1 X1494.427 Y651.840 Z4.000
G1 X1491.224 Y653.743 Z4.000
G1 X1487.784 Y655.195 Z4.000
G1 X1484.776 Y655.820 Z4.000
G1 X1482.936 Y655.900 Z4.000
G1 X1480.969 Y655.690 Z4.000
G1 X1479.040 Y654.943 Z4.000
G1 X1477.356 Y653.757 Z4.000
G1 X1475.858 Y652.248 Z4.000
G1 X1474.032 Y649.957 Z4.000
G1 X1471.441 Y646.385 Z4.000
G1 X1468.667 Y643.669 Z4.000
G1 X1466.303 Y642.339 Z4.000
G1 X1464.206 Y641.974 Z4.000
G1 X1462.300 Y642.381 Z4.000
G1 X1459.912 Y643.718 Z4.000
G1 X1456.954 Y646.286 Z4.000
G1 X1455.041 Y647.835 Z4.000
G1 X1452.544 Y649.417 Z4.000
G1 X1449.113 Y650.693 Z4.000
G1 X1445.592 Y651.090 Z4.000
G1 X1442.029 Y650.590 Z4.000
G1 X1438.546 Y649.208 Z4.000
G1 X1435.574 Y647.229 Z4.000
G1 X1433.078 Y644.741 Z4.000
G1 X1431.099 Y641.845 Z4.000
G1 X1429.682 Y638.645 Z4.000
G1 X1428.868 Y635.242 Z4.000
G1 X1428.701 Y631.739 Z4.000
G1 X1429.224 Y628.239 Z4.000
G1 X1430.018 Y625.967 Z4.000
(stops stroke 116)
G0 X1430.018 Y625.967 Z0.000
(shape postamble)
(shape preamble)
G0 X1460.419 Y631.446 Z0.000
(start stroke 117)
G1 X1460.419 Y631.446 Z4.000
(pause)
G4 P0.5
G1 X1461.102 Y631.243 Z4.000
G1 X1463.157 Y630.902 Z4.000
G1 X1465.195 Y630.867 Z4.000
G1 X1467.194 Y631.121 Z4.000
G1 X1469.132 Y631.646 Z4.000
G1 X1470.984 Y632.428 Z4.000
G1 X1473.305 Y633.803 Z4.000
G1 X1476.066 Y636.411 Z4.000
G1 X1477.697 Y638.870 Z4.000
G1 X1479.067 Y640.739 Z4.000
G1 X1480.089 Y641.671 Z4.000
G1 X1481.377 Y642.385 Z4.000
G1 X1483.027 Y642.821 Z4.000
G1 X1484.982 Y642.918 Z4.000
G1 X1486.786 Y642.416 Z4.000
G1 X1488.607 Y641.393 Z4.000
G1 X1490.373 Y639.978 Z4.000
G1 X1492.549 Y637.727 Z4.000
G1 X1494.621 Y634.643 Z4.000
G1 X1495.447 Y632.923 Z4.000
G1 X1496.006 Y630.808 Z4.000
G1 X1495.973 Y628.353 Z4.000
G1 X1495.139 Y626.783 Z4.000
G1 X1493.688 Y625.917 Z4.000
G1 X1491.804 Y625.574 Z4.000
G1 X1489.671 Y625.573 Z4.000
G1 X1486.746 Y625.790 Z4.000
G1 X1483.557 Y625.812 Z4.000
G1 X1481.658 Y625.443 Z4.000
G1 X1479.207 Y624.588 Z4.000
G1 X1476.418 Y622.828 Z4.000
G1 X1474.889 Y621.435 Z4.000
G1 X1473.660 Y619.899 Z4.000
G1 X1472.715 Y618.235 Z4.000
G1 X1472.042 Y616.458 Z4.000
G1 X1471.627 Y614.584 Z4.000
G1 X1471.412 Y611.969 Z4.000
G1 X1471.848 Y608.146 Z4.000
G1 X1472.501 Y604.391 Z4.000
G1 X1472.625 Y601.180 Z4.000
G1 X1472.335 Y599.373 Z4.000
G1 X1471.642 Y597.743 Z4.000
G1 X1470.446 Y596.365 Z4.000
G1 X1468.349 Y595.158 Z4.000
G1 X1465.826 Y594.484 Z4.000
G1 X1463.648 Y594.617 Z4.000
G1 X1461.822 Y595.420 Z4.000
G1 X1460.353 Y596.758 Z4.000
G1 X1459.245 Y598.493 Z4.000
G1 X1458.506 Y600.489 Z4.000
G1 X1458.140 Y602.609 Z4.000
G1 X1458.129 Y604.050 Z4.000
G1 X1458.805 Y609.049 Z4.000
G1 X1459.003 Y612.223 Z4.000
G1 X1458.738 Y614.359 Z4.000
G1 X1458.105 Y616.240 Z4.000
G1 X1457.214 Y618.067 Z4.000
G1 X1456.112 Y619.750 Z4.000
G1 X1454.786 Y621.270 Z4.000
G1 X1453.195 Y622.470 Z4.000
G1 X1450.886 Y623.594 Z4.000
G1 X1447.538 Y624.618 Z4.000
G1 X1445.219 Y625.578 Z4.000
G1 X1443.011 Y626.828 Z4.000
G1 X1441.093 Y628.349 Z4.000
G1 X1439.645 Y630.123 Z4.000
G1 X1438.846 Y632.129 Z4.000
G1 X1438.875 Y634.349 Z4.000
G1 X1439.911 Y636.763 Z4.000
G1 X1441.685 Y638.871 Z4.000
G1 X1442.809 Y639.710 Z4.000
G1 X1443.963 Y640.186 Z4.000
G1 X1445.142 Y640.339 Z4.000
G1 X1446.745 Y640.151 Z4.000
G1 X1449.202 Y639.062 Z4.000
G1 X1452.512 Y636.801 Z4.000
G1 X1456.583 Y633.544 Z4.000
G1 X1458.927 Y632.034 Z4.000
G1 X1460.419 Y631.446 Z4.000
(stops stroke 117)
G0 X1460.419 Y631.446 Z0.000
(shape postamble)
(shape preamble)
G0 X1618.635 Y592.216 Z0.000
(start stroke 118)
G1 X1618.635 Y592.216 Z4.000
(pause)
G4 P0.5
G1 X1618.966 Y591.205 Z4.000
G1 X1620.426 Y588.341 Z4.000
G1 X1622.387 Y585.784 Z4.000
G1 X1624.787 Y583.645 Z4.000
G1 X1627.294 Y582.177 Z4.000
G1 X1629.234 Y581.486 Z4.000
G1 X1631.715 Y581.082 Z4.000
G1 X1635.310 Y581.303 Z4.000
G1 X1638.986 Y581.668 Z4.000
G1 X1642.656 Y581.403 Z4.000
G1 X1644.977 Y580.403 Z4.000
G1 X1646.538 Y578.797 Z4.000
G1 X1647.533 Y576.726 Z4.000
G1 X1648.349 Y573.520 Z4.000
G1 X1649.049 Y569.134 Z4.000
G1 X1649.708 Y566.613 Z4.000
G1 X1650.967 Y563.937 Z4.000
G1 X1653.182 Y560.727 Z4.000
G1 X1655.901 Y557.924 Z4.000
G1 X1659.075 Y555.705 Z4.000
G1 X1662.919 Y554.152 Z4.000
G1 X1667.018 Y553.501 Z4.000
G1 X1670.675 Y553.882 Z4.000
G1 X1673.861 Y555.182 Z4.000
G1 X1676.545 Y557.289 Z4.000
G1 X1678.696 Y560.089 Z4.000
G1 X1680.285 Y563.470 Z4.000
G1 X1681.280 Y567.318 Z4.000
G1 X1681.602 Y570.728 Z4.000
G1 X1681.405 Y572.643 Z4.000
G1 X1680.748 Y575.196 Z4.000
G1 X1679.222 Y578.765 Z4.000
G1 X1677.831 Y581.637 Z4.000
G1 X1677.315 Y583.554 Z4.000
G1 X1677.679 Y585.386 Z4.000
G1 X1678.700 Y587.048 Z4.000
G1 X1680.176 Y588.593 Z4.000
G1 X1682.496 Y590.566 Z4.000
G1 X1685.359 Y593.061 Z4.000
G1 X1686.674 Y594.674 Z4.000
G1 X1687.568 Y596.751 Z4.000
G1 X1688.133 Y599.963 Z4.000
G1 X1688.101 Y603.377 Z4.000
G1 X1687.411 Y606.597 Z4.000
G1 X1685.908 Y609.377 Z4.000
G1 X1683.408 Y612.051 Z4.000
G1 X1680.281 Y614.299 Z4.000
G1 X1676.737 Y616.008 Z4.000
G1 X1672.985 Y617.059 Z4.000
G1 X1669.235 Y617.338 Z4.000
G1 X1666.277 Y616.857 Z4.000
G1 X1664.619 Y616.266 Z4.000
G1 X1663.084 Y615.413 Z4.000
G1 X1661.698 Y614.286 Z4.000
G1 X1660.124 Y612.416 Z4.000
G1 X1657.815 Y610.624 Z4.000
G1 X1655.479 Y609.880 Z4.000
G1 X1653.141 Y609.976 Z4.000
G1 X1650.824 Y610.708 Z4.000
G1 X1648.552 Y611.868 Z4.000
G1 X1645.617 Y613.716 Z4.000
G1 X1642.402 Y615.761 Z4.000
G1 X1640.837 Y616.387 Z4.000
G1 X1638.644 Y616.864 Z4.000
G1 X1635.185 Y616.821 Z4.000
G1 X1631.708 Y616.182 Z4.000
G1 X1628.266 Y615.171 Z4.000
G1 X1625.068 Y613.461 Z4.000
G1 X1622.413 Y611.144 Z4.000
G1 X1620.323 Y608.337 Z4.000
G1 X1618.816 Y605.157 Z4.000
G1 X1617.912 Y601.723 Z4.000
G1 X1617.630 Y598.150 Z4.000
G1 X1617.991 Y594.557 Z4.000
G1 X1618.635 Y592.216 Z4.000
(stops stroke 118)
G0 X1618.635 Y592.216 Z0.000
(shape postamble)
(shape preamble)
G0 X1640.392 Y605.381 Z0.000
(start stroke 119)
G1 X1640.392 Y605.381 Z4.000
(pause)
G4 P0.5
G1 X1641.200 Y605.050 Z4.000
G1 X1643.425 Y603.667 Z4.000
G1 X1645.552 Y602.082 Z4.000
G1 X1647.736 Y600.582 Z4.000
G1 X1650.396 Y599.342 Z4.000
G1 X1653.760 Y598.574 Z4.000
G1 X1657.159 Y598.573 Z4.000
G1 X1660.475 Y599.388 Z4.000
G1 X1663.152 Y600.806 Z4.000
G1 X1664.851 Y602.486 Z4.000
G1 X1666.576 Y604.357 Z4.000
G1 X1668.104 Y605.587 Z4.000
G1 X1669.080 Y606.043 Z4.000
G1 X1670.496 Y606.218 Z4.000
G1 X1672.387 Y605.948 Z4.000
G1 X1673.894 Y605.232 Z4.000
G1 X1674.992 Y604.167 Z4.000
G1 X1675.654 Y602.849 Z4.000
G1 X1675.856 Y601.372 Z4.000
G1 X1675.571 Y599.833 Z4.000
G1 X1674.773 Y598.327 Z4.000
G1 X1672.972 Y596.513 Z4.000
G1 X1670.293 Y594.228 Z4.000
G1 X1668.399 Y592.282 Z4.000
G1 X1667.461 Y590.959 Z4.000
G1 X1666.718 Y589.437 Z4.000
G1 X1666.206 Y587.647 Z4.000
G1 X1665.968 Y585.650 Z4.000
G1 X1666.257 Y583.789 Z4.000
G1 X1667.197 Y581.237 Z4.000
G1 X1669.276 Y577.345 Z4.000
G1 X1670.684 Y574.186 Z4.000
G1 X1671.091 Y572.371 Z4.000
G1 X1670.971 Y570.557 Z4.000
G1 X1670.204 Y568.884 Z4.000
G1 X1668.958 Y567.587 Z4.000
G1 X1667.390 Y566.684 Z4.000
G1 X1665.658 Y566.191 Z4.000
G1 X1663.921 Y566.124 Z4.000
G1 X1662.336 Y566.500 Z4.000
G1 X1661.060 Y567.336 Z4.000
G1 X1660.131 Y568.704 Z4.000
G1 X1659.271 Y570.332 Z4.000
G1 X1658.670 Y572.042 Z4.000
G1 X1658.329 Y573.834 Z4.000
G1 X1658.083 Y576.415 Z4.000
G1 X1657.714 Y579.640 Z4.000
G1 X1657.260 Y581.541 Z4.000
G1 X1656.253 Y583.891 Z4.000
G1 X1654.017 Y586.835 Z4.000
G1 X1651.141 Y589.294 Z4.000
G1 X1647.873 Y591.174 Z4.000
G1 X1644.800 Y592.276 Z4.000
G1 X1642.118 Y592.450 Z4.000
G1 X1638.298 Y592.116 Z4.000
G1 X1633.678 Y591.728 Z4.000
G1 X1631.688 Y592.032 Z4.000
G1 X1630.640 Y592.453 Z4.000
G1 X1629.732 Y593.110 Z4.000
G1 X1628.986 Y594.041 Z4.000
G1 X1628.423 Y595.287 Z4.000
G1 X1628.066 Y596.885 Z4.000
G1 X1627.926 Y599.073 Z4.000
G1 X1628.359 Y601.359 Z4.000
G1 X1629.352 Y603.206 Z4.000
G1 X1630.799 Y604.615 Z4.000
G1 X1632.592 Y605.586 Z4.000
G1 X1634.625 Y606.120 Z4.000
G1 X1636.789 Y606.216 Z4.000
G1 X1638.978 Y605.875 Z4.000
G1 X1640.392 Y605.381 Z4.000
(stops stroke 119)
G0 X1640.392 Y605.381 Z0.000
(shape postamble)
(shape preamble)
G0 X1363.936 Y582.125 Z0.000
(start stroke 120)
(probe_depth_adapt)
G0 X1363.936 Y582.125 Z0 F10000
G1 Z4 F4000
G4 P1.0
G0 Z0 F10000
(end_probe)
G1 X1363.936 Y582.125 Z4.000
G1 X1363.571 Y582.937 Z4.000
G1 X1362.252 Y585.162 Z4.000
G1 X1360.378 Y587.877 Z4.000
G1 X1358.549 Y591.034 Z4.000
G1 X1358.054 Y592.970 Z4.000
G1 X1358.255 Y595.019 Z4.000
G1 X1359.350 Y597.254 Z4.000
G1 X1361.677 Y599.903 Z4.000
G1 X1364.571 Y602.300 Z4.000
G1 X1366.786 Y604.219 Z4.000
G1 X1367.947 Y605.519 Z4.000
G1 X1368.921 Y607.033 Z4.000
G1 X1369.664 Y608.847 Z4.000
G1 X1370.108 Y610.936 Z4.000
G1 X1370.225 Y612.839 Z4.000
G1 X1370.020 Y615.311 Z4.000
G1 X1368.872 Y618.810 Z4.000
G1 X1366.941 Y622.014 Z4.000
G1 X1364.382 Y624.858 Z4.000
G1 X1361.353 Y627.279 Z4.000
G1 X1358.013 Y629.213 Z4.000
G1 X1354.518 Y630.594 Z4.000
G1 X1350.823 Y631.398 Z4.000
G1 X1347.352 Y631.400 Z4.000
G1 X1344.535 Y630.588 Z4.000
G1 X1342.290 Y629.074 Z4.000
G1 X1340.529 Y626.973 Z4.000
G1 X1339.170 Y624.399 Z4.000
G1 X1337.793 Y620.470 Z4.000
G1 X1336.574 Y614.587 Z4.000
G1 X1335.601 Y612.152 Z4.000
G1 X1334.923 Y611.205 Z4.000
G1 X1334.179 Y610.628 Z4.000
G1 X1333.379 Y610.377 Z4.000
G1 X1332.249 Y610.434 Z4.000
G1 X1330.437 Y611.312 Z4.000
G1 X1328.571 Y612.739 Z4.000
G1 X1326.730 Y614.364 Z4.000
G1 X1324.992 Y615.838 Z4.000
G1 X1322.939 Y617.091 Z4.000
G1 X1319.977 Y618.040 Z4.000
G1 X1317.121 Y618.230 Z4.000
G1 X1314.425 Y617.798 Z4.000
G1 X1311.943 Y616.879 Z4.000
G1 X1309.732 Y615.609 Z4.000
G1 X1307.846 Y614.124 Z4.000
G1 X1306.339 Y612.561 Z4.000
G1 X1304.942 Y610.573 Z4.000
G1 X1303.608 Y607.455 Z4.000
G1 X1302.997 Y604.208 Z4.000
G1 X1303.068 Y600.936 Z4.000
G1 X1303.782 Y597.743 Z4.000
G1 X1305.100 Y594.733 Z4.000
G1 X1306.982 Y592.011 Z4.000
G1 X1309.388 Y589.680 Z4.000
G1 X1311.837 Y588.106 Z4.000
G1 X1313.624 Y587.455 Z4.000
G1 X1316.178 Y586.964 Z4.000
G1 X1320.168 Y586.672 Z4.000
G1 X1323.296 Y586.187 Z4.000
G1 X1324.983 Y585.587 Z4.000
G1 X1326.596 Y584.523 Z4.000
G1 X1327.749 Y582.783 Z4.000
G1 X1328.252 Y580.668 Z4.000
G1 X1328.311 Y578.292 Z4.000
G1 X1328.063 Y574.920 Z4.000
G1 X1327.865 Y570.718 Z4.000
G1 X1328.192 Y568.421 Z4.000
G1 X1329.314 Y566.020 Z4.000
G1 X1331.635 Y563.239 Z4.000
G1 X1334.581 Y560.930 Z4.000
G1 X1337.987 Y559.127 Z4.000
G1 X1341.685 Y557.864 Z4.000
G1 X1345.510 Y557.175 Z4.000
G1 X1349.295 Y557.095 Z4.000
G1 X1352.873 Y557.657 Z4.000
G1 X1356.171 Y558.937 Z4.000
G1 X1359.154 Y560.916 Z4.000
G1 X1361.605 Y563.402 Z4.000
G1 X1363.494 Y566.294 Z4.000
G1 X1364.790 Y569.489 Z4.000
G1 X1365.463 Y572.883 Z4.000
G1 X1365.482 Y576.375 Z4.000
G1 X1364.816 Y579.862 Z4.000
G1 X1363.936 Y582.125 Z4.000
(stops stroke 120)
G0 X1363.936 Y582.125 Z0.000
(shape postamble)
(shape preamble)
G0 X1352.341 Y569.687 Z0.000
(start stroke 121)
G1 X1352.341 Y569.687 Z4.000
(pause)
G4 P0.5
G1 X1351.730 Y569.107 Z4.000
G1 X1349.600 Y567.968 Z4.000
G1 X1347.269 Y567.507 Z4.000
G1 X1344.899 Y567.672 Z4.000
G1 X1342.657 Y568.417 Z4.000
G1 X1340.705 Y569.692 Z4.000
G1 X1339.207 Y571.448 Z4.000
G1 X1338.329 Y573.636 Z4.000
G1 X1338.249 Y576.944 Z4.000
G1 X1338.764 Y580.420 Z4.000
G1 X1338.771 Y582.586 Z4.000
G1 X1338.137 Y585.448 Z4.000
G1 X1336.401 Y588.917 Z4.000
G1 X1333.894 Y591.868 Z4.000
G1 X1330.764 Y594.170 Z4.000
G1 X1327.733 Y595.480 Z4.000
G1 X1325.806 Y595.890 Z4.000
G1 X1323.244 Y596.152 Z4.000
G1 X1320.077 Y596.604 Z4.000
G1 X1317.342 Y597.243 Z4.000
G1 X1315.519 Y597.890 Z4.000
G1 X1313.782 Y598.807 Z4.000
G1 X1312.356 Y600.048 Z4.000
G1 X1311.463 Y601.670 Z4.000
G1 X1311.323 Y603.724 Z4.000
G1 X1312.266 Y606.537 Z4.000
G1 X1313.563 Y608.359 Z4.000
G1 X1314.403 Y609.039 Z4.000
G1 X1315.576 Y609.534 Z4.000
G1 X1317.416 Y609.400 Z4.000
G1 X1319.262 Y608.571 Z4.000
G1 X1321.025 Y607.345 Z4.000
G1 X1323.134 Y605.576 Z4.000
G1 X1325.841 Y603.690 Z4.000
G1 X1329.005 Y601.764 Z4.000
G1 X1331.459 Y600.660 Z4.000
G1 X1332.963 Y600.290 Z4.000
G1 X1334.544 Y600.211 Z4.000
G1 X1336.252 Y600.472 Z4.000
G1 X1338.175 Y601.138 Z4.000
G1 X1339.922 Y602.063 Z4.000
G1 X1341.359 Y603.168 Z4.000
G1 X1342.528 Y604.443 Z4.000
G1 X1343.773 Y606.367 Z4.000
G1 X1345.035 Y609.779 Z4.000
G1 X1345.957 Y613.793 Z4.000
G1 X1346.291 Y617.858 Z4.000
G1 X1347.056 Y619.573 Z4.000
G1 X1347.838 Y620.412 Z4.000
G1 X1348.953 Y621.053 Z4.000
G1 X1350.262 Y621.376 Z4.000
G1 X1352.134 Y621.397 Z4.000
G1 X1354.949 Y620.591 Z4.000
G1 X1357.277 Y619.198 Z4.000
G1 X1358.717 Y617.405 Z4.000
G1 X1359.497 Y615.451 Z4.000
G1 X1359.586 Y613.683 Z4.000
G1 X1359.103 Y612.071 Z4.000
G1 X1358.163 Y610.585 Z4.000
G1 X1356.886 Y609.196 Z4.000
G1 X1354.882 Y607.433 Z4.000
G1 X1351.577 Y604.786 Z4.000
G1 X1349.137 Y602.087 Z4.000
G1 X1347.956 Y600.321 Z4.000
G1 X1347.051 Y598.443 Z4.000
G1 X1346.464 Y596.460 Z4.000
G1 X1346.240 Y594.378 Z4.000
G1 X1346.422 Y592.202 Z4.000
G1 X1347.096 Y589.805 Z4.000
G1 X1348.495 Y587.148 Z4.000
G1 X1350.877 Y583.640 Z4.000
G1 X1353.722 Y579.294 Z4.000
G1 X1354.765 Y576.689 Z4.000
G1 X1354.937 Y574.513 Z4.000
G1 X1354.694 Y573.203 Z4.000
G1 X1354.129 Y571.889 Z4.000
G1 X1353.202 Y570.570 Z4.000
G1 X1352.341 Y569.687 Z4.000
(stops stroke 121)
G0 X1352.341 Y569.687 Z0.000
(shape postamble)
(shape preamble)
G0 X1484.379 Y550.091 Z0.000
(start stroke 122)
G1 X1484.379 Y550.091 Z4.000
(pause)
G4 P0.5
G1 X1485.145 Y551.128 Z4.000
G1 X1486.562 Y554.283 Z4.000
G1 X1487.143 Y557.547 Z4.000
G1 X1487.124 Y560.979 Z4.000
G1 X1486.811 Y564.027 Z4.000
G1 X1486.141 Y565.838 Z4.000
G1 X1485.077 Y568.181 Z4.000
G1 X1483.733 Y570.317 Z4.000
G1 X1482.119 Y572.196 Z4.000
G1 X1480.248 Y573.767 Z4.000
G1 X1478.128 Y574.978 Z4.000
G1 X1475.773 Y575.780 Z4.000
G1 X1473.191 Y576.121 Z4.000
G1 X1470.129 Y575.927 Z4.000
G1 X1466.674 Y574.921 Z4.000
G1 X1463.532 Y573.190 Z4.000
G1 X1460.818 Y570.821 Z4.000
G1 X1458.832 Y568.170 Z4.000
G1 X1457.867 Y565.865 Z4.000
G1 X1457.270 Y563.717 Z4.000
G1 X1456.735 Y562.037 Z4.000
G1 X1455.940 Y561.123 Z4.000
G1 X1454.889 Y560.766 Z4.000
G1 X1453.310 Y560.854 Z4.000
G1 X1449.908 Y562.328 Z4.000
G1 X1446.171 Y564.383 Z4.000
G1 X1442.889 Y565.261 Z4.000
G1 X1439.607 Y565.522 Z4.000
G1 X1436.432 Y565.158 Z4.000
G1 X1433.469 Y564.161 Z4.000
G1 X1430.827 Y562.524 Z4.000
G1 X1428.610 Y560.240 Z4.000
G1 X1426.926 Y557.300 Z4.000
G1 X1425.894 Y553.755 Z4.000
G1 X1425.725 Y550.292 Z4.000
G1 X1426.329 Y546.989 Z4.000
G1 X1427.612 Y543.911 Z4.000
G1 X1429.482 Y541.124 Z4.000
G1 X1431.846 Y538.693 Z4.000
G1 X1434.610 Y536.686 Z4.000
G1 X1437.682 Y535.166 Z4.000
G1 X1440.871 Y534.227 Z4.000
G1 X1443.956 Y533.877 Z4.000
G1 X1447.320 Y533.832 Z4.000
G1 X1449.560 Y533.666 Z4.000
G1 X1450.498 Y533.379 Z4.000
G1 X1451.139 Y532.872 Z4.000
G1 X1451.509 Y532.081 Z4.000
G1 X1451.668 Y530.541 Z4.000
G1 X1451.232 Y526.989 Z4.000
G1 X1450.854 Y523.904 Z4.000
G1 X1450.828 Y520.912 Z4.000
G1 X1451.432 Y517.917 Z4.000
G1 X1452.875 Y514.947 Z4.000
G1 X1455.045 Y512.606 Z4.000
G1 X1457.860 Y510.764 Z4.000
G1 X1461.128 Y509.437 Z4.000
G1 X1464.662 Y508.643 Z4.000
G1 X1468.271 Y508.398 Z4.000
G1 X1471.766 Y508.717 Z4.000
G1 X1474.959 Y509.617 Z4.000
G1 X1477.789 Y511.194 Z4.000
G1 X1480.137 Y513.551 Z4.000
G1 X1481.779 Y516.400 Z4.000
G1 X1482.777 Y519.600 Z4.000
G1 X1483.193 Y523.008 Z4.000
G1 X1483.087 Y526.483 Z4.000
G1 X1482.522 Y529.884 Z4.000
G1 X1481.559 Y533.070 Z4.000
G1 X1480.223 Y535.969 Z4.000
G1 X1478.760 Y538.249 Z4.000
G1 X1478.017 Y539.990 Z4.000
G1 X1477.921 Y541.150 Z4.000
G1 X1478.197 Y542.496 Z4.000
G1 X1478.927 Y544.114 Z4.000
G1 X1480.028 Y545.844 Z4.000
G1 X1481.160 Y547.013 Z4.000
G1 X1482.863 Y548.482 Z4.000
G1 X1484.379 Y550.091 Z4.000
(stops stroke 122)
G0 X1484.379 Y550.091 Z0.000
(shape postamble)
(shape preamble)
G0 X1468.780 Y519.081 Z0.000
(start stroke 123)
G1 X1468.780 Y519.081 Z4.000
(pause)
G4 P0.5
G1 X1467.904 Y518.865 Z4.000
G1 X1465.752 Y518.719 Z4.000
G1 X1464.120 Y519.100 Z4.000
G1 X1462.958 Y519.926 Z4.000
G1 X1462.211 Y521.114 Z4.000
G1 X1461.828 Y522.584 Z4.000
G1 X1461.747 Y524.817 Z4.000
G1 X1462.467 Y528.428 Z4.000
G1 X1462.974 Y531.708 Z4.000
G1 X1462.860 Y534.802 Z4.000
G1 X1461.854 Y537.813 Z4.000
G1 X1460.102 Y540.316 Z4.000
G1 X1458.879 Y541.529 Z4.000
G1 X1457.125 Y542.779 Z4.000
G1 X1454.201 Y543.860 Z4.000
G1 X1450.992 Y544.297 Z4.000
G1 X1447.734 Y544.341 Z4.000
G1 X1444.193 Y544.319 Z4.000
G1 X1441.185 Y544.736 Z4.000
G1 X1439.554 Y545.313 Z4.000
G1 X1438.166 Y546.239 Z4.000
G1 X1437.115 Y547.592 Z4.000
G1 X1436.487 Y549.493 Z4.000
G1 X1436.222 Y551.221 Z4.000
G1 X1436.281 Y552.565 Z4.000
G1 X1436.625 Y553.563 Z4.000
G1 X1437.214 Y554.251 Z4.000
G1 X1438.008 Y554.666 Z4.000
G1 X1439.293 Y554.891 Z4.000
G1 X1441.610 Y554.568 Z4.000
G1 X1444.052 Y553.788 Z4.000
G1 X1447.026 Y552.532 Z4.000
G1 X1449.773 Y551.314 Z4.000
G1 X1453.126 Y550.468 Z4.000
G1 X1456.498 Y550.333 Z4.000
G1 X1459.238 Y550.950 Z4.000
G1 X1460.828 Y551.652 Z4.000
G1 X1462.701 Y552.885 Z4.000
G1 X1464.586 Y555.023 Z4.000
G1 X1465.775 Y557.224 Z4.000
G1 X1466.223 Y558.750 Z4.000
G1 X1466.583 Y560.559 Z4.000
G1 X1467.391 Y562.510 Z4.000
G1 X1468.532 Y564.009 Z4.000
G1 X1469.904 Y564.999 Z4.000
G1 X1471.404 Y565.418 Z4.000
G1 X1472.930 Y565.206 Z4.000
G1 X1474.383 Y564.306 Z4.000
G1 X1475.659 Y562.656 Z4.000
G1 X1476.504 Y560.617 Z4.000
G1 X1476.658 Y559.386 Z4.000
G1 X1476.764 Y557.982 Z4.000
G1 X1476.346 Y556.222 Z4.000
G1 X1475.368 Y554.617 Z4.000
G1 X1474.004 Y553.105 Z4.000
G1 X1471.899 Y551.126 Z4.000
G1 X1469.342 Y548.493 Z4.000
G1 X1468.177 Y546.722 Z4.000
G1 X1467.509 Y544.770 Z4.000
G1 X1467.226 Y542.966 Z4.000
G1 X1467.230 Y540.710 Z4.000
G1 X1468.006 Y537.565 Z4.000
G1 X1469.317 Y534.468 Z4.000
G1 X1470.799 Y531.235 Z4.000
G1 X1472.145 Y528.035 Z4.000
G1 X1472.745 Y526.050 Z4.000
G1 X1473.019 Y524.117 Z4.000
G1 X1472.818 Y522.334 Z4.000
G1 X1471.995 Y520.798 Z4.000
G1 X1470.400 Y519.608 Z4.000
G1 X1468.780 Y519.081 Z4.000
(stops stroke 123)
G0 X1468.780 Y519.081 Z0.000
(shape postamble)
(shape preamble)
G0 X1331.301 Y403.629 Z0.000
(start stroke 124)
G1 X1331.301 Y403.629 Z4.000
(pause)
G4 P0.5
G1 X1330.643 Y404.503 Z4.000
G1 X1328.950 Y406.321 Z4.000
G1 X1328.042 Y407.655 Z4.000
G1 X1327.770 Y408.592 Z4.000
G1 X1327.777 Y410.150 Z4.000
G1 X1328.866 Y413.600 Z4.000
G1 X1330.958 Y417.593 Z4.000
G1 X1332.075 Y420.975 Z4.000
G1 X1332.668 Y424.974 Z4.000
G1 X1332.723 Y428.273 Z4.000
G1 X1332.314 Y431.467 Z4.000
G1 X1331.355 Y434.486 Z4.000
G1 X1329.761 Y437.259 Z4.000
G1 X1327.449 Y439.714 Z4.000
G1 X1324.334 Y441.782 Z4.000
G1 X1320.330 Y443.391 Z4.000
G1 X1316.086 Y444.331 Z4.000
G1 X1312.995 Y444.567 Z4.000
G1 X1309.840 Y444.379 Z4.000
G1 X1306.736 Y443.733 Z4.000
G1 X1303.798 Y442.593 Z4.000
G1 X1301.141 Y440.925 Z4.000
G1 X1298.880 Y438.696 Z4.000
G1 X1297.131 Y435.870 Z4.000
G1 X1296.135 Y432.866 Z4.000
G1 X1295.885 Y430.831 Z4.000
G1 X1296.001 Y428.403 Z4.000
G1 X1296.707 Y425.502 Z4.000
G1 X1297.001 Y423.757 Z4.000
G1 X1296.806 Y422.970 Z4.000
G1 X1295.980 Y422.247 Z4.000
G1 X1294.648 Y421.936 Z4.000
G1 X1292.745 Y422.375 Z4.000
G1 X1289.875 Y423.926 Z4.000
G1 X1287.828 Y424.901 Z4.000
G1 X1285.455 Y425.701 Z4.000
G1 X1282.697 Y426.128 Z4.000
G1 X1279.584 Y425.989 Z4.000
G1 X1276.919 Y425.055 Z4.000
G1 X1274.688 Y423.419 Z4.000
G1 X1272.913 Y421.221 Z4.000
G1 X1271.614 Y418.598 Z4.000
G1 X1270.809 Y415.691 Z4.000
G1 X1270.521 Y412.638 Z4.000
G1 X1270.767 Y409.577 Z4.000
G1 X1271.563 Y406.671 Z4.000
G1 X1272.890 Y404.077 Z4.000
G1 X1274.705 Y401.829 Z4.000
G1 X1276.948 Y399.999 Z4.000
G1 X1279.276 Y398.796 Z4.000
G1 X1281.617 Y398.232 Z4.000
G1 X1285.384 Y397.839 Z4.000
G1 X1291.829 Y397.760 Z4.000
G1 X1296.846 Y397.649 Z4.000
G1 X1299.362 Y397.393 Z4.000
G1 X1301.351 Y396.878 Z4.000
G1 X1302.865 Y395.883 Z4.000
G1 X1303.936 Y394.492 Z4.000
G1 X1304.708 Y392.786 Z4.000
G1 X1305.529 Y390.190 Z4.000
G1 X1306.675 Y386.592 Z4.000
G1 X1307.693 Y384.441 Z4.000
G1 X1309.271 Y382.195 Z4.000
G1 X1311.703 Y380.122 Z4.000
G1 X1314.557 Y378.647 Z4.000
G1 X1317.654 Y377.742 Z4.000
G1 X1320.795 Y377.380 Z4.000
G1 X1323.780 Y377.549 Z4.000
G1 X1326.581 Y378.222 Z4.000
G1 X1329.134 Y379.374 Z4.000
G1 X1331.374 Y380.980 Z4.000
G1 X1333.237 Y383.015 Z4.000
G1 X1334.658 Y385.452 Z4.000
G1 X1335.572 Y388.267 Z4.000
G1 X1335.925 Y391.574 Z4.000
G1 X1335.497 Y395.123 Z4.000
G1 X1334.367 Y398.507 Z4.000
G1 X1332.681 Y401.677 Z4.000
G1 X1331.301 Y403.629 Z4.000
(stops stroke 124)
G0 X1331.301 Y403.629 Z0.000
(shape postamble)
(shape preamble)
G0 X1319.354 Y387.950 Z0.000
(start stroke 125)
G1 X1319.354 Y387.950 Z4.000
(pause)
G4 P0.5
G1 X1318.958 Y388.109 Z4.000
G1 X1317.990 Y388.868 Z4.000
G1 X1316.981 Y390.270 Z4.000
G1 X1315.877 Y393.081 Z4.000
G1 X1314.736 Y396.222 Z4.000
G1 X1313.028 Y399.243 Z4.000
G1 X1310.839 Y401.878 Z4.000
G1 X1308.474 Y404.012 Z4.000
G1 X1306.124 Y405.579 Z4.000
G1 X1304.074 Y406.479 Z4.000
G1 X1301.869 Y406.839 Z4.000
G1 X1298.438 Y406.907 Z4.000
G1 X1292.630 Y406.608 Z4.000
G1 X1287.943 Y406.805 Z4.000
G1 X1285.440 Y407.366 Z4.000
G1 X1283.412 Y408.375 Z4.000
G1 X1281.989 Y409.593 Z4.000
G1 X1280.991 Y410.982 Z4.000
G1 X1280.435 Y412.447 Z4.000
G1 X1280.339 Y413.892 Z4.000
