
(Created with svg2gcode_grbl)
(https://github.com/arcadeperfect/svg2gcode_grbl)


(forked from svg2gcode by visphat)
(https://github.com/vishpat/svg2gcode)


F2000

(shape preamble)

G0 X180.367 Y786.197 Z0.000
G1 X180.367 Y786.197 Z4.000
G1 X180.367 Y787.747 Z4.000
G1 X180.400 Y792.158 Z4.000
G1 X180.566 Y796.302 Z4.000
G1 X180.964 Y800.208 Z4.000
G1 X181.562 Y803.292 Z4.000
G1 X182.048 Y805.084 Z4.000
G1 X182.650 Y806.831 Z4.000
G1 X183.380 Y808.538 Z4.000
G1 X184.252 Y810.208 Z4.000
G1 X185.277 Y811.844 Z4.000
G1 X186.468 Y813.449 Z4.000
G1 X187.838 Y815.027 Z4.000
G1 X189.284 Y816.524 Z4.000
G1 X190.568 Y817.797 Z4.000
G1 X191.892 Y818.948 Z4.000
G1 X193.253 Y819.982 Z4.000
G1 X195.114 Y821.206 Z4.000
G1 X198.015 Y822.670 Z4.000
G1 X201.016 Y823.762 Z4.000
G1 X204.096 Y824.523 Z4.000
G1 X207.234 Y824.997 Z4.000
G1 X210.407 Y825.226 Z4.000
G1 X213.337 Y825.255 Z4.000
G1 X215.744 Y825.146 Z4.000
G1 X218.134 Y824.900 Z4.000
G1 X220.493 Y824.512 Z4.000
G1 X222.807 Y823.977 Z4.000
G1 X225.062 Y823.290 Z4.000
G1 X227.246 Y822.444 Z4.000
G1 X229.344 Y821.435 Z4.000
G1 X231.315 Y820.287 Z4.000
G1 X233.368 Y818.869 Z4.000
G1 X235.145 Y817.336 Z4.000
G1 X236.207 Y816.260 Z4.000
G1 X237.248 Y815.045 Z4.000
G1 X238.255 Y813.682 Z4.000
G1 X239.213 Y812.159 Z4.000
G1 X240.106 Y810.465 Z4.000
G1 X240.921 Y808.591 Z4.000
G1 X241.641 Y806.524 Z4.000
G1 X242.253 Y804.254 Z4.000
G1 X242.742 Y801.771 Z4.000
G1 X243.093 Y799.063 Z4.000
G1 X243.290 Y796.120 Z4.000
G1 X243.320 Y794.008 Z4.000
G1 X243.320 Y771.262 Z4.000
G1 X232.062 Y777.466 Z4.000
G1 X231.997 Y788.410 Z4.000
G1 X231.868 Y793.324 Z4.000
G1 X231.631 Y797.160 Z4.000
G1 X231.254 Y800.162 Z4.000
G1 X230.705 Y802.576 Z4.000
G1 X229.951 Y804.645 Z4.000
G1 X228.931 Y806.702 Z4.000
G1 X227.572 Y808.709 Z4.000
G1 X225.957 Y810.436 Z4.000
G1 X224.123 Y811.883 Z4.000
G1 X222.103 Y813.049 Z4.000
G1 X219.934 Y813.936 Z4.000
G1 X217.650 Y814.543 Z4.000
G1 X215.286 Y814.869 Z4.000
G1 X212.676 Y814.916 Z4.000
G1 X209.852 Y814.721 Z4.000
G1 X207.252 Y814.296 Z4.000
G1 X204.871 Y813.647 Z4.000
G1 X202.703 Y812.781 Z4.000
G1 X200.744 Y811.703 Z4.000
G1 X198.988 Y810.418 Z4.000
G1 X197.429 Y808.932 Z4.000
G1 X196.062 Y807.252 Z4.000
G1 X194.882 Y805.382 Z4.000
G1 X193.883 Y803.328 Z4.000
G1 X193.060 Y801.097 Z4.000
G1 X192.407 Y798.694 Z4.000
G1 X191.920 Y796.124 Z4.000
G1 X191.592 Y793.394 Z4.000
G1 X191.419 Y790.509 Z4.000
G1 X191.395 Y788.494 Z4.000
G1 X191.395 Y706.874 Z4.000
G1 X191.461 Y700.550 Z4.000
G1 X191.593 Y696.870 Z4.000
G1 X191.835 Y693.309 Z4.000
G1 X192.219 Y689.894 Z4.000
G1 X192.780 Y686.652 Z4.000
G1 X193.550 Y683.608 Z4.000
G1 X194.561 Y680.789 Z4.000
G1 X195.847 Y678.221 Z4.000
G1 X197.167 Y676.304 Z4.000
G1 X198.061 Y675.246 Z4.000
G1 X199.044 Y674.266 Z4.000
G1 X200.119 Y673.367 Z4.000
G1 X201.290 Y672.553 Z4.000
G1 X202.561 Y671.827 Z4.000
G1 X203.936 Y671.192 Z4.000
G1 X205.421 Y670.651 Z4.000
G1 X207.018 Y670.208 Z4.000
G1 X208.731 Y669.867 Z4.000
G1 X210.566 Y669.629 Z4.000
G1 X212.526 Y669.499 Z4.000
G1 X214.528 Y669.481 Z4.000
G1 X216.286 Y669.566 Z4.000
G1 X217.932 Y669.749 Z4.000
G1 X219.471 Y670.024 Z4.000
G1 X220.906 Y670.385 Z4.000
G1 X222.241 Y670.826 Z4.000
G1 X223.887 Y671.518 Z4.000
G1 X226.029 Y672.795 Z4.000
G1 X227.833 Y674.295 Z4.000
G1 X229.328 Y675.973 Z4.000
G1 X230.544 Y677.783 Z4.000
G1 X231.509 Y679.680 Z4.000
G1 X232.252 Y681.618 Z4.000
G1 X232.802 Y683.552 Z4.000
G1 X233.188 Y685.437 Z4.000
G1 X233.516 Y687.816 Z4.000
G1 X233.670 Y690.816 Z4.000
G1 X233.670 Y692.227 Z4.000
G1 X233.670 Y717.270 Z4.000
G1 X245.158 Y717.270 Z4.000
G1 X245.158 Y691.193 Z4.000
G1 X245.061 Y687.682 Z4.000
G1 X244.867 Y685.263 Z4.000
G1 X244.511 Y682.654 Z4.000
G1 X243.946 Y679.918 Z4.000
G1 X243.122 Y677.115 Z4.000
G1 X241.991 Y674.307 Z4.000
G1 X240.764 Y672.012 Z4.000
G1 X239.905 Y670.667 Z4.000
G1 X238.942 Y669.356 Z4.000
G1 X237.868 Y668.088 Z4.000
G1 X236.676 Y666.869 Z4.000
G1 X235.362 Y665.708 Z4.000
G1 X233.918 Y664.611 Z4.000
G1 X232.339 Y663.588 Z4.000
G1 X230.618 Y662.645 Z4.000
G1 X228.751 Y661.789 Z4.000
G1 X226.729 Y661.030 Z4.000
G1 X224.548 Y660.374 Z4.000
G1 X222.202 Y659.829 Z4.000
G1 X219.684 Y659.403 Z4.000
G1 X216.988 Y659.102 Z4.000
G1 X214.108 Y658.936 Z4.000
G1 X211.312 Y658.912 Z4.000
G1 X209.117 Y659.004 Z4.000
G1 X207.027 Y659.202 Z4.000
G1 X205.038 Y659.500 Z4.000
G1 X203.148 Y659.891 Z4.000
G1 X201.354 Y660.371 Z4.000
G1 X199.092 Y661.125 Z4.000
G1 X196.019 Y662.523 Z4.000
G1 X193.283 Y664.176 Z4.000
G1 X190.864 Y666.036 Z4.000
G1 X188.738 Y668.059 Z4.000
G1 X186.886 Y670.227 Z4.000
G1 X185.273 Y672.555 Z4.000
G1 X183.894 Y675.085 Z4.000
G1 X182.745 Y677.917 Z4.000
G1 X181.824 Y681.155 Z4.000
G1 X181.129 Y684.901 Z4.000
G1 X180.656 Y689.258 Z4.000
G1 X180.402 Y694.327 Z4.000
G1 X180.367 Y698.200 Z4.000
G1 X180.367 Y786.197 Z4.000
G1 X180.367 Y786.197 Z4.000
G0 X180.367 Y786.197 Z0.000

(shape postamble)


(shape preamble)

G0 X281.404 Y823.647 Z0.000
G1 X281.404 Y823.647 Z4.000
G1 X281.404 Y751.503 Z4.000
G1 X323.220 Y751.503 Z4.000
G1 X323.220 Y823.647 Z4.000
G1 X334.478 Y823.647 Z4.000
G1 X334.478 Y661.439 Z4.000
G1 X323.220 Y661.439 Z4.000
G1 X323.220 Y741.624 Z4.000
G1 X281.404 Y741.624 Z4.000
G1 X281.404 Y661.439 Z4.000
G1 X270.146 Y661.439 Z4.000
G1 X270.146 Y823.647 Z4.000
G1 X281.404 Y823.647 Z4.000
G0 X281.404 Y823.647 Z0.000

(shape postamble)


(shape preamble)

G0 X398.578 Y824.566 Z0.000
G1 X398.578 Y824.566 Z4.000
G1 X427.987 Y661.439 Z4.000
G1 X416.039 Y661.439 Z4.000
G1 X407.768 Y710.837 Z4.000
G1 X373.765 Y710.837 Z4.000
G1 X365.264 Y661.439 Z4.000
G1 X353.316 Y661.439 Z4.000
G1 X382.955 Y824.566 Z4.000
G1 X398.578 Y824.566 Z4.000
G0 X398.578 Y824.566 Z0.000

(shape postamble)


(shape preamble)

G0 X393.064 Y796.536 Z0.000
G1 X393.064 Y796.536 Z4.000
G1 X392.834 Y797.684 Z4.000
G1 X391.685 Y805.668 Z4.000
G1 X390.537 Y809.632 Z4.000
G1 X389.847 Y804.118 Z4.000
G1 X389.330 Y800.442 Z4.000
G1 X388.928 Y797.914 Z4.000
G1 X375.602 Y721.406 Z4.000
G1 X405.701 Y721.406 Z4.000
G1 X393.064 Y796.536 Z4.000
G0 X393.064 Y796.536 Z0.000

(shape postamble)


(shape preamble)

G0 X447.515 Y823.647 Z0.000
G1 X447.515 Y823.647 Z4.000
G1 X480.313 Y823.647 Z4.000
G1 X484.570 Y823.465 Z4.000
G1 X487.226 Y823.210 Z4.000
G1 X489.921 Y822.801 Z4.000
G1 X492.617 Y822.204 Z4.000
G1 X495.273 Y821.386 Z4.000
G1 X497.851 Y820.314 Z4.000
G1 X500.309 Y818.955 Z4.000
G1 X502.608 Y817.275 Z4.000
G1 X504.366 Y815.590 Z4.000
G1 X505.349 Y814.462 Z4.000
G1 X506.270 Y813.234 Z4.000
G1 X507.122 Y811.903 Z4.000
G1 X507.902 Y810.463 Z4.000
G1 X508.605 Y808.912 Z4.000
G1 X509.224 Y807.244 Z4.000
G1 X509.756 Y805.455 Z4.000
G1 X510.196 Y803.542 Z4.000
G1 X510.537 Y801.501 Z4.000
G1 X510.777 Y799.326 Z4.000
G1 X510.908 Y797.014 Z4.000
G1 X510.928 Y795.387 Z4.000
G1 X510.928 Y769.281 Z4.000
G1 X510.839 Y766.016 Z4.000
G1 X510.484 Y762.763 Z4.000
G1 X510.095 Y760.681 Z4.000
G1 X509.528 Y758.530 Z4.000
G1 X508.751 Y756.347 Z4.000
G1 X507.729 Y754.167 Z4.000
G1 X506.430 Y752.026 Z4.000
G1 X504.819 Y749.959 Z4.000
G1 X502.865 Y748.003 Z4.000
G1 X500.532 Y746.192 Z4.000
G1 X497.789 Y744.563 Z4.000
G1 X494.601 Y743.151 Z4.000
G1 X490.936 Y741.992 Z4.000
G1 X488.182 Y741.394 Z4.000
G1 X518.050 Y661.439 Z4.000
G1 X506.103 Y661.439 Z4.000
G1 X476.464 Y740.475 Z4.000
G1 X458.773 Y740.475 Z4.000
G1 X458.773 Y661.439 Z4.000
G1 X447.515 Y661.439 Z4.000
G1 X447.515 Y823.647 Z4.000
G0 X447.515 Y823.647 Z0.000

(shape postamble)


(shape preamble)

G0 X458.773 Y813.997 Z0.000
G1 X458.773 Y813.997 Z4.000
G1 X458.773 Y750.125 Z4.000
G1 X480.011 Y750.125 Z4.000
G1 X482.272 Y750.225 Z4.000
G1 X484.401 Y750.447 Z4.000
G1 X486.394 Y750.795 Z4.000
G1 X488.251 Y751.271 Z4.000
G1 X489.968 Y751.879 Z4.000
G1 X491.544 Y752.622 Z4.000
G1 X492.975 Y753.502 Z4.000
G1 X494.260 Y754.523 Z4.000
G1 X495.396 Y755.687 Z4.000
G1 X496.380 Y756.999 Z4.000
G1 X497.211 Y758.460 Z4.000
G1 X497.887 Y760.074 Z4.000
G1 X498.403 Y761.843 Z4.000
G1 X498.760 Y763.772 Z4.000
G1 X498.953 Y765.862 Z4.000
G1 X498.981 Y767.357 Z4.000
G1 X498.981 Y793.563 Z4.000
G1 X498.826 Y796.754 Z4.000
G1 X498.493 Y799.603 Z4.000
G1 X497.988 Y802.129 Z4.000
G1 X497.320 Y804.350 Z4.000
G1 X496.496 Y806.286 Z4.000
G1 X495.522 Y807.954 Z4.000
G1 X494.407 Y809.373 Z4.000
G1 X493.158 Y810.562 Z4.000
G1 X491.782 Y811.538 Z4.000
G1 X490.286 Y812.322 Z4.000
G1 X488.679 Y812.930 Z4.000
G1 X486.967 Y813.382 Z4.000
G1 X485.158 Y813.697 Z4.000
G1 X482.621 Y813.950 Z4.000
G1 X479.911 Y813.997 Z4.000
G1 X458.773 Y813.997 Z4.000
G0 X458.773 Y813.997 Z0.000

(shape postamble)


(shape preamble)

G0 X538.267 Y823.647 Z0.000
G1 X538.267 Y823.647 Z4.000
G1 X549.525 Y823.647 Z4.000
G1 X549.525 Y671.549 Z4.000
G1 X591.800 Y671.549 Z4.000
G1 X591.800 Y661.439 Z4.000
G1 X538.267 Y661.439 Z4.000
G1 X538.267 Y823.647 Z4.000
G0 X538.267 Y823.647 Z0.000

(shape postamble)


(shape preamble)

G0 X610.407 Y823.647 Z0.000
G1 X610.407 Y823.647 Z4.000
G1 X667.846 Y823.647 Z4.000
G1 X667.846 Y813.538 Z4.000
G1 X621.665 Y813.538 Z4.000
G1 X621.665 Y751.044 Z4.000
G1 X659.575 Y751.044 Z4.000
G1 X659.575 Y741.165 Z4.000
G1 X621.435 Y741.165 Z4.000
G1 X621.435 Y671.549 Z4.000
G1 X667.616 Y671.549 Z4.000
G1 X667.616 Y661.439 Z4.000
G1 X610.407 Y661.439 Z4.000
G1 X610.407 Y823.647 Z4.000
G0 X610.407 Y823.647 Z0.000

(shape postamble)


(shape preamble)

G0 X696.509 Y701.647 Z0.000
G1 X696.509 Y701.647 Z4.000
G1 X696.509 Y698.602 Z4.000
G1 X696.622 Y692.252 Z4.000
G1 X696.848 Y688.913 Z4.000
G1 X697.263 Y685.894 Z4.000
G1 X697.922 Y683.135 Z4.000
G1 X698.884 Y680.577 Z4.000
G1 X700.203 Y678.161 Z4.000
G1 X701.664 Y676.187 Z4.000
G1 X702.719 Y675.047 Z4.000
G1 X703.840 Y674.033 Z4.000
G1 X705.016 Y673.137 Z4.000
G1 X706.647 Y672.096 Z4.000
G1 X709.199 Y670.897 Z4.000
G1 X711.788 Y670.048 Z4.000
G1 X714.326 Y669.492 Z4.000
G1 X716.727 Y669.174 Z4.000
G1 X718.906 Y669.036 Z4.000
G1 X721.179 Y669.021 Z4.000
G1 X723.978 Y669.208 Z4.000
G1 X726.525 Y669.617 Z4.000
G1 X728.831 Y670.243 Z4.000
G1 X730.904 Y671.083 Z4.000
G1 X732.754 Y672.133 Z4.000
G1 X734.391 Y673.389 Z4.000
G1 X735.823 Y674.848 Z4.000
G1 X737.061 Y676.506 Z4.000
G1 X738.113 Y678.360 Z4.000
G1 X738.989 Y680.405 Z4.000
G1 X739.699 Y682.638 Z4.000
G1 X740.252 Y685.055 Z4.000
G1 X740.657 Y687.652 Z4.000
G1 X740.924 Y690.427 Z4.000
G1 X741.063 Y693.374 Z4.000
G1 X741.082 Y696.592 Z4.000
G1 X740.979 Y699.825 Z4.000
G1 X740.741 Y702.834 Z4.000
G1 X740.355 Y705.652 Z4.000
G1 X739.810 Y708.313 Z4.000
G1 X739.092 Y710.851 Z4.000
G1 X738.189 Y713.299 Z4.000
G1 X737.089 Y715.690 Z4.000
G1 X735.779 Y718.060 Z4.000
G1 X734.247 Y720.440 Z4.000
G1 X732.480 Y722.866 Z4.000
G1 X730.466 Y725.370 Z4.000
G1 X727.420 Y728.865 Z4.000
G1 X721.857 Y734.681 Z4.000
G1 X715.148 Y741.366 Z4.000
G1 X708.978 Y747.625 Z4.000
G1 X704.469 Y752.489 Z4.000
G1 X702.012 Y755.335 Z4.000
G1 X699.759 Y758.153 Z4.000
G1 X697.715 Y760.976 Z4.000
G1 X695.881 Y763.831 Z4.000
G1 X694.260 Y766.751 Z4.000
G1 X692.857 Y769.765 Z4.000
G1 X691.673 Y772.904 Z4.000
G1 X690.712 Y776.197 Z4.000
G1 X689.977 Y779.675 Z4.000
G1 X689.471 Y783.369 Z4.000
G1 X689.196 Y787.309 Z4.000
G1 X689.157 Y791.797 Z4.000
G1 X689.357 Y796.488 Z4.000
G1 X689.637 Y799.428 Z4.000
G1 X690.085 Y802.420 Z4.000
G1 X690.735 Y805.421 Z4.000
G1 X691.624 Y808.384 Z4.000
G1 X692.788 Y811.264 Z4.000
G1 X694.262 Y814.015 Z4.000
G1 X695.767 Y816.168 Z4.000
G1 X696.786 Y817.396 Z4.000
G1 X697.904 Y818.564 Z4.000
G1 X699.124 Y819.668 Z4.000
G1 X700.451 Y820.702 Z4.000
G1 X701.890 Y821.661 Z4.000
G1 X703.445 Y822.538 Z4.000
G1 X705.121 Y823.328 Z4.000
G1 X706.922 Y824.025 Z4.000
G1 X708.853 Y824.624 Z4.000
G1 X710.917 Y825.119 Z4.000
G1 X713.120 Y825.504 Z4.000
G1 X715.466 Y825.774 Z4.000
G1 X717.959 Y825.923 Z4.000
G1 X720.662 Y825.944 Z4.000
G1 X723.359 Y825.838 Z4.000
G1 X725.886 Y825.610 Z4.000
G1 X728.248 Y825.265 Z4.000
G1 X730.450 Y824.808 Z4.000
G1 X732.499 Y824.245 Z4.000
G1 X734.400 Y823.581 Z4.000
G1 X736.159 Y822.820 Z4.000
G1 X737.781 Y821.969 Z4.000
G1 X739.271 Y821.033 Z4.000
G1 X740.635 Y820.016 Z4.000
G1 X741.879 Y818.924 Z4.000
G1 X743.008 Y817.763 Z4.000
G1 X744.028 Y816.537 Z4.000
G1 X744.944 Y815.253 Z4.000
G1 X745.762 Y813.914 Z4.000
G1 X746.725 Y812.062 Z4.000
G1 X747.865 Y809.136 Z4.000
G1 X748.709 Y806.086 Z4.000
G1 X749.301 Y802.954 Z4.000
G1 X749.687 Y799.782 Z4.000
G1 X749.909 Y796.611 Z4.000
G1 X750.042 Y792.447 Z4.000
G1 X750.042 Y788.494 Z4.000
G1 X750.042 Y776.777 Z4.000
G1 X739.014 Y776.777 Z4.000
G1 X739.014 Y792.486 Z4.000
G1 X738.939 Y796.524 Z4.000
G1 X738.641 Y800.035 Z4.000
G1 X738.315 Y802.137 Z4.000
G1 X737.840 Y804.202 Z4.000
G1 X737.189 Y806.202 Z4.000
G1 X736.332 Y808.106 Z4.000
G1 X735.243 Y809.884 Z4.000
G1 X733.892 Y811.507 Z4.000
G1 X732.254 Y812.944 Z4.000
G1 X730.298 Y814.165 Z4.000
G1 X727.998 Y815.141 Z4.000
G1 X725.326 Y815.841 Z4.000
G1 X722.253 Y816.235 Z4.000
G1 X719.025 Y816.295 Z4.000
G1 X716.458 Y816.129 Z4.000
G1 X714.113 Y815.767 Z4.000
G1 X711.983 Y815.209 Z4.000
G1 X710.059 Y814.458 Z4.000
G1 X708.335 Y813.514 Z4.000
G1 X706.803 Y812.381 Z4.000
G1 X705.455 Y811.058 Z4.000
G1 X704.285 Y809.549 Z4.000
G1 X703.284 Y807.855 Z4.000
G1 X702.446 Y805.977 Z4.000
G1 X701.763 Y803.917 Z4.000
G1 X701.228 Y801.677 Z4.000
G1 X700.833 Y799.259 Z4.000
G1 X700.570 Y796.664 Z4.000
G1 X700.434 Y793.894 Z4.000
G1 X700.415 Y790.950 Z4.000
G1 X700.486 Y788.143 Z4.000
G1 X700.668 Y785.499 Z4.000
G1 X700.987 Y782.977 Z4.000
G1 X701.468 Y780.536 Z4.000
G1 X702.139 Y778.138 Z4.000
G1 X703.025 Y775.741 Z4.000
G1 X704.153 Y773.306 Z4.000
G1 X705.548 Y770.792 Z4.000
G1 X707.238 Y768.160 Z4.000
G1 X709.248 Y765.370 Z4.000
G1 X711.605 Y762.382 Z4.000
G1 X714.335 Y759.155 Z4.000
G1 X717.463 Y755.649 Z4.000
G1 X722.227 Y750.531 Z4.000
G1 X730.082 Y742.457 Z4.000
G1 X735.660 Y736.638 Z4.000
G1 X739.634 Y732.209 Z4.000
G1 X741.765 Y729.640 Z4.000
G1 X743.693 Y727.108 Z4.000
G1 X745.421 Y724.577 Z4.000
G1 X746.951 Y722.012 Z4.000
G1 X748.285 Y719.380 Z4.000
G1 X749.426 Y716.644 Z4.000
G1 X750.375 Y713.771 Z4.000
G1 X751.136 Y710.726 Z4.000
G1 X751.710 Y707.475 Z4.000
G1 X752.101 Y703.982 Z4.000
G1 X752.310 Y700.212 Z4.000
G1 X752.339 Y695.587 Z4.000
G1 X752.131 Y690.379 Z4.000
G1 X751.837 Y687.156 Z4.000
G1 X751.362 Y683.901 Z4.000
G1 X750.668 Y680.659 Z4.000
G1 X749.716 Y677.478 Z4.000
G1 X748.466 Y674.400 Z4.000
G1 X747.154 Y671.956 Z4.000
G1 X746.253 Y670.547 Z4.000
G1 X745.254 Y669.191 Z4.000
G1 X744.153 Y667.892 Z4.000
G1 X742.945 Y666.658 Z4.000
G1 X741.624 Y665.494 Z4.000
G1 X740.186 Y664.405 Z4.000
G1 X738.627 Y663.397 Z4.000
G1 X736.940 Y662.476 Z4.000
G1 X735.121 Y661.648 Z4.000
G1 X733.166 Y660.917 Z4.000
G1 X731.069 Y660.290 Z4.000
G1 X728.825 Y659.773 Z4.000
G1 X726.430 Y659.371 Z4.000
G1 X723.878 Y659.089 Z4.000
G1 X721.165 Y658.935 Z4.000
G1 X718.077 Y658.912 Z4.000
G1 X714.622 Y659.102 Z4.000
G1 X711.276 Y659.526 Z4.000
G1 X708.055 Y660.190 Z4.000
G1 X704.976 Y661.099 Z4.000
G1 X702.056 Y662.259 Z4.000
G1 X699.312 Y663.676 Z4.000
G1 X696.761 Y665.355 Z4.000
G1 X694.420 Y667.302 Z4.000
G1 X692.304 Y669.523 Z4.000
G1 X690.432 Y672.023 Z4.000
G1 X688.821 Y674.809 Z4.000
G1 X687.486 Y677.886 Z4.000
G1 X686.444 Y681.259 Z4.000
G1 X685.713 Y684.935 Z4.000
G1 X685.310 Y688.919 Z4.000
G1 X685.251 Y691.767 Z4.000
G1 X685.251 Y714.513 Z4.000
G1 X696.509 Y714.513 Z4.000
G1 X696.509 Y701.647 Z4.000
G1 X696.509 Y701.647 Z4.000
G0 X696.509 Y701.647 Z0.000

(shape postamble)


(shape preamble)

G0 X1582.728 Y169.366 Z0.000
G1 X1582.728 Y169.366 Z4.000
G1 X1582.728 Y169.163 Z4.000
G1 X1582.859 Y168.580 Z4.000
G1 X1583.132 Y168.055 Z4.000
G1 X1583.533 Y167.616 Z4.000
G1 X1584.045 Y167.289 Z4.000
G1 X1584.616 Y167.111 Z4.000
G1 X1585.206 Y167.085 Z4.000
G1 X1585.787 Y167.213 Z4.000
G1 X1586.326 Y167.493 Z4.000
G1 X1586.766 Y167.898 Z4.000
G1 X1587.083 Y168.396 Z4.000
G1 X1587.263 Y168.963 Z4.000
G1 X1587.290 Y169.570 Z4.000
G1 X1587.160 Y170.153 Z4.000
G1 X1586.886 Y170.677 Z4.000
G1 X1586.486 Y171.117 Z4.000
G1 X1585.973 Y171.444 Z4.000
G1 X1585.403 Y171.622 Z4.000
G1 X1584.812 Y171.647 Z4.000
G1 X1584.232 Y171.520 Z4.000
G1 X1583.692 Y171.240 Z4.000
G1 X1583.253 Y170.835 Z4.000
G1 X1582.935 Y170.336 Z4.000
G1 X1582.755 Y169.770 Z4.000
G1 X1582.728 Y169.366 Z4.000
G0 X1582.728 Y169.366 Z0.000

(shape postamble)


(shape preamble)

G0 X1529.504 Y168.606 Z0.000
G1 X1529.504 Y168.606 Z4.000
G1 X1529.504 Y168.425 Z4.000
G1 X1529.727 Y167.948 Z4.000
G1 X1530.167 Y167.638 Z4.000
G1 X1530.692 Y167.592 Z4.000
G1 X1531.181 Y167.819 Z4.000
G1 X1531.483 Y168.251 Z4.000
G1 X1531.531 Y168.787 Z4.000
G1 X1531.308 Y169.265 Z4.000
G1 X1530.867 Y169.575 Z4.000
G1 X1530.342 Y169.620 Z4.000
G1 X1529.854 Y169.394 Z4.000
G1 X1529.552 Y168.961 Z4.000
G1 X1529.504 Y168.606 Z4.000
G0 X1529.504 Y168.606 Z0.000

(shape postamble)


(shape preamble)

G0 X1565.747 Y184.574 Z0.000
G1 X1565.747 Y184.574 Z4.000
G1 X1565.747 Y184.234 Z4.000
G1 X1565.965 Y183.262 Z4.000
G1 X1566.420 Y182.388 Z4.000
G1 X1567.088 Y181.657 Z4.000
G1 X1567.942 Y181.111 Z4.000
G1 X1568.892 Y180.814 Z4.000
G1 X1569.877 Y180.772 Z4.000
G1 X1570.844 Y180.984 Z4.000
G1 X1571.744 Y181.451 Z4.000
G1 X1572.476 Y182.125 Z4.000
G1 X1573.005 Y182.957 Z4.000
G1 X1573.305 Y183.901 Z4.000
G1 X1573.351 Y184.913 Z4.000
G1 X1573.133 Y185.885 Z4.000
G1 X1572.677 Y186.759 Z4.000
G1 X1572.010 Y187.490 Z4.000
G1 X1571.156 Y188.036 Z4.000
G1 X1570.205 Y188.333 Z4.000
G1 X1569.221 Y188.375 Z4.000
G1 X1568.253 Y188.163 Z4.000
G1 X1567.354 Y187.696 Z4.000
G1 X1566.621 Y187.022 Z4.000
G1 X1566.092 Y186.190 Z4.000
G1 X1565.792 Y185.246 Z4.000
G1 X1565.747 Y184.574 Z4.000
G0 X1565.747 Y184.574 Z0.000

(shape postamble)


(shape preamble)

G0 X1614.663 Y172.661 Z0.000
G1 X1614.663 Y172.661 Z4.000
G1 X1614.663 Y172.525 Z4.000
G1 X1614.831 Y172.167 Z4.000
G1 X1615.161 Y171.935 Z4.000
G1 X1615.555 Y171.901 Z4.000
G1 X1615.921 Y172.071 Z4.000
G1 X1616.148 Y172.395 Z4.000
G1 X1616.184 Y172.797 Z4.000
G1 X1616.016 Y173.155 Z4.000
G1 X1615.686 Y173.388 Z4.000
G1 X1615.292 Y173.422 Z4.000
G1 X1614.926 Y173.252 Z4.000
G1 X1614.699 Y172.928 Z4.000
G1 X1614.663 Y172.661 Z4.000
G0 X1614.663 Y172.661 Z0.000

(shape postamble)


(shape preamble)

G0 X1561.945 Y112.760 Z0.000
G1 X1561.945 Y112.760 Z4.000
G1 X1561.945 Y112.190 Z4.000
G1 X1562.132 Y110.514 Z4.000
G1 X1562.532 Y108.895 Z4.000
G1 X1563.135 Y107.352 Z4.000
G1 X1563.930 Y105.903 Z4.000
G1 X1564.907 Y104.567 Z4.000
G1 X1566.054 Y103.363 Z4.000
G1 X1567.362 Y102.310 Z4.000
G1 X1568.819 Y101.425 Z4.000
G1 X1570.363 Y100.748 Z4.000
G1 X1571.965 Y100.285 Z4.000
G1 X1573.603 Y100.036 Z4.000
G1 X1575.256 Y100.000 Z4.000
G1 X1576.901 Y100.178 Z4.000
G1 X1578.517 Y100.570 Z4.000
G1 X1580.083 Y101.175 Z4.000
G1 X1581.578 Y101.994 Z4.000
G1 X1582.937 Y102.994 Z4.000
G1 X1584.139 Y104.150 Z4.000
G1 X1585.173 Y105.444 Z4.000
G1 X1586.030 Y106.857 Z4.000
G1 X1586.699 Y108.370 Z4.000
G1 X1587.168 Y109.966 Z4.000
G1 X1587.427 Y111.625 Z4.000
G1 X1587.465 Y113.329 Z4.000
G1 X1587.278 Y115.006 Z4.000
G1 X1586.878 Y116.625 Z4.000
G1 X1586.275 Y118.168 Z4.000
G1 X1585.480 Y119.616 Z4.000
G1 X1584.503 Y120.952 Z4.000
G1 X1583.355 Y122.156 Z4.000
G1 X1582.048 Y123.210 Z4.000
G1 X1580.591 Y124.095 Z4.000
G1 X1579.046 Y124.771 Z4.000
G1 X1577.444 Y125.234 Z4.000
G1 X1575.806 Y125.484 Z4.000
G1 X1574.154 Y125.519 Z4.000
G1 X1572.509 Y125.341 Z4.000
G1 X1570.893 Y124.950 Z4.000
G1 X1569.326 Y124.344 Z4.000
G1 X1567.832 Y123.525 Z4.000
G1 X1566.473 Y122.525 Z4.000
G1 X1565.271 Y121.369 Z4.000
G1 X1564.236 Y120.076 Z4.000
G1 X1563.379 Y118.663 Z4.000
G1 X1562.711 Y117.149 Z4.000
G1 X1562.242 Y115.553 Z4.000
G1 X1561.983 Y113.894 Z4.000
G1 X1561.945 Y112.760 Z4.000
G0 X1561.945 Y112.760 Z0.000

(shape postamble)


(shape preamble)

G0 X1629.363 Y134.390 Z0.000
G1 X1629.363 Y134.390 Z4.000
G1 X1629.363 Y134.186 Z4.000
G1 X1629.494 Y133.603 Z4.000
G1 X1629.767 Y133.079 Z4.000
G1 X1630.168 Y132.640 Z4.000
G1 X1630.680 Y132.313 Z4.000
G1 X1631.251 Y132.135 Z4.000
G1 X1631.841 Y132.109 Z4.000
G1 X1632.422 Y132.236 Z4.000
G1 X1632.961 Y132.517 Z4.000
G1 X1633.401 Y132.921 Z4.000
G1 X1633.718 Y133.420 Z4.000
G1 X1633.898 Y133.987 Z4.000
G1 X1633.925 Y134.594 Z4.000
G1 X1633.795 Y135.177 Z4.000
G1 X1633.521 Y135.701 Z4.000
G1 X1633.121 Y136.140 Z4.000
G1 X1632.609 Y136.467 Z4.000
G1 X1632.038 Y136.646 Z4.000
G1 X1631.448 Y136.671 Z4.000
G1 X1630.867 Y136.544 Z4.000
G1 X1630.327 Y136.264 Z4.000
G1 X1629.888 Y135.859 Z4.000
G1 X1629.571 Y135.360 Z4.000
G1 X1629.391 Y134.794 Z4.000
G1 X1629.363 Y134.390 Z4.000
G0 X1629.363 Y134.390 Z0.000

(shape postamble)


(shape preamble)

G0 X1589.571 Y148.837 Z0.000
G1 X1589.571 Y148.837 Z4.000
G1 X1589.571 Y148.452 Z4.000
G1 X1589.818 Y147.351 Z4.000
G1 X1590.335 Y146.360 Z4.000
G1 X1591.091 Y145.531 Z4.000
G1 X1592.059 Y144.913 Z4.000
G1 X1593.136 Y144.576 Z4.000
G1 X1594.252 Y144.528 Z4.000
G1 X1595.349 Y144.769 Z4.000
G1 X1596.368 Y145.298 Z4.000
G1 X1597.198 Y146.062 Z4.000
G1 X1597.798 Y147.005 Z4.000
G1 X1598.137 Y148.075 Z4.000
G1 X1598.189 Y149.222 Z4.000
G1 X1597.942 Y150.323 Z4.000
G1 X1597.426 Y151.313 Z4.000
G1 X1596.669 Y152.143 Z4.000
G1 X1595.701 Y152.761 Z4.000
G1 X1594.624 Y153.098 Z4.000
G1 X1593.508 Y153.146 Z4.000
G1 X1592.412 Y152.905 Z4.000
G1 X1591.392 Y152.376 Z4.000
G1 X1590.562 Y151.611 Z4.000
G1 X1589.963 Y150.669 Z4.000
G1 X1589.623 Y149.599 Z4.000
G1 X1589.571 Y148.837 Z4.000
G0 X1589.571 Y148.837 Z0.000

(shape postamble)


(shape preamble)

G0 X1617.198 Y154.666 Z0.000
G1 X1617.198 Y154.666 Z4.000
G1 X1617.198 Y154.485 Z4.000
G1 X1617.314 Y153.967 Z4.000
G1 X1617.557 Y153.501 Z4.000
G1 X1617.913 Y153.111 Z4.000
G1 X1618.368 Y152.820 Z4.000
G1 X1618.875 Y152.661 Z4.000
G1 X1619.400 Y152.639 Z4.000
G1 X1619.916 Y152.752 Z4.000
G1 X1620.396 Y153.001 Z4.000
G1 X1620.787 Y153.361 Z4.000
G1 X1621.069 Y153.804 Z4.000
G1 X1621.229 Y154.308 Z4.000
G1 X1621.253 Y154.847 Z4.000
G1 X1621.137 Y155.366 Z4.000
G1 X1620.894 Y155.832 Z4.000
G1 X1620.538 Y156.222 Z4.000
G1 X1620.082 Y156.513 Z4.000
G1 X1619.575 Y156.671 Z4.000
G1 X1619.050 Y156.694 Z4.000
G1 X1618.534 Y156.581 Z4.000
G1 X1618.055 Y156.332 Z4.000
G1 X1617.664 Y155.972 Z4.000
G1 X1617.382 Y155.529 Z4.000
G1 X1617.222 Y155.025 Z4.000
G1 X1617.198 Y154.666 Z4.000
G0 X1617.198 Y154.666 Z0.000

(shape postamble)


(shape preamble)

G0 X1635.953 Y181.532 Z0.000
G1 X1635.953 Y181.532 Z4.000
G1 X1635.953 Y181.238 Z4.000
G1 X1636.142 Y180.396 Z4.000
G1 X1636.537 Y179.638 Z4.000
G1 X1637.115 Y179.004 Z4.000
G1 X1637.855 Y178.531 Z4.000
G1 X1638.679 Y178.274 Z4.000
G1 X1639.532 Y178.237 Z4.000
G1 X1640.371 Y178.421 Z4.000
G1 X1641.150 Y178.826 Z4.000
G1 X1641.785 Y179.410 Z4.000
G1 X1642.244 Y180.131 Z4.000
G1 X1642.504 Y180.949 Z4.000
G1 X1642.543 Y181.826 Z4.000
G1 X1642.354 Y182.668 Z4.000
G1 X1641.959 Y183.426 Z4.000
G1 X1641.381 Y184.060 Z4.000
G1 X1640.641 Y184.533 Z4.000
G1 X1639.817 Y184.790 Z4.000
G1 X1638.963 Y184.827 Z4.000
G1 X1638.125 Y184.643 Z4.000
G1 X1637.346 Y184.238 Z4.000
G1 X1636.711 Y183.654 Z4.000
G1 X1636.252 Y182.933 Z4.000
G1 X1635.992 Y182.115 Z4.000
G1 X1635.953 Y181.532 Z4.000
G0 X1635.953 Y181.532 Z0.000

(shape postamble)


(shape preamble)

G0 X1595.401 Y198.260 Z0.000
G1 X1595.401 Y198.260 Z4.000
G1 X1595.401 Y197.943 Z4.000
G1 X1595.604 Y197.036 Z4.000
G1 X1596.029 Y196.220 Z4.000
G1 X1596.652 Y195.537 Z4.000
G1 X1597.449 Y195.028 Z4.000
G1 X1598.336 Y194.751 Z4.000
G1 X1599.255 Y194.712 Z4.000
G1 X1600.158 Y194.910 Z4.000
G1 X1600.998 Y195.345 Z4.000
G1 X1601.681 Y195.975 Z4.000
G1 X1602.175 Y196.751 Z4.000
G1 X1602.455 Y197.632 Z4.000
G1 X1602.497 Y198.577 Z4.000
G1 X1602.294 Y199.484 Z4.000
G1 X1601.869 Y200.299 Z4.000
G1 X1601.246 Y200.982 Z4.000
G1 X1600.449 Y201.491 Z4.000
G1 X1599.562 Y201.769 Z4.000
G1 X1598.643 Y201.808 Z4.000
G1 X1597.740 Y201.610 Z4.000
G1 X1596.900 Y201.174 Z4.000
G1 X1596.217 Y200.545 Z4.000
G1 X1595.723 Y199.769 Z4.000
G1 X1595.443 Y198.888 Z4.000
G1 X1595.401 Y198.260 Z4.000
G0 X1595.401 Y198.260 Z0.000

(shape postamble)


(shape preamble)

G0 X1643.050 Y156.947 Z0.000
G1 X1643.050 Y156.947 Z4.000
G1 X1643.050 Y156.766 Z4.000
G1 X1643.166 Y156.248 Z4.000
G1 X1643.409 Y155.782 Z4.000
G1 X1643.765 Y155.392 Z4.000
G1 X1644.220 Y155.101 Z4.000
G1 X1644.727 Y154.942 Z4.000
G1 X1645.252 Y154.920 Z4.000
G1 X1645.768 Y155.033 Z4.000
G1 X1646.248 Y155.282 Z4.000
G1 X1646.639 Y155.642 Z4.000
G1 X1646.921 Y156.085 Z4.000
G1 X1647.081 Y156.589 Z4.000
G1 X1647.105 Y157.128 Z4.000
G1 X1646.989 Y157.647 Z4.000
G1 X1646.746 Y158.113 Z4.000
G1 X1646.390 Y158.503 Z4.000
G1 X1645.934 Y158.794 Z4.000
G1 X1645.427 Y158.952 Z4.000
G1 X1644.902 Y158.975 Z4.000
G1 X1644.386 Y158.862 Z4.000
G1 X1643.907 Y158.613 Z4.000
G1 X1643.516 Y158.253 Z4.000
G1 X1643.234 Y157.810 Z4.000
G1 X1643.074 Y157.306 Z4.000
G1 X1643.050 Y156.947 Z4.000
G0 X1643.050 Y156.947 Z0.000

(shape postamble)


(shape preamble)

G0 X1626.829 Y169.366 Z0.000
G1 X1626.829 Y169.366 Z4.000
G1 X1626.829 Y169.185 Z4.000
G1 X1627.052 Y168.708 Z4.000
G1 X1627.493 Y168.398 Z4.000
G1 X1628.018 Y168.353 Z4.000
G1 X1628.506 Y168.579 Z4.000
G1 X1628.808 Y169.011 Z4.000
G1 X1628.856 Y169.548 Z4.000
G1 X1628.633 Y170.025 Z4.000
G1 X1628.193 Y170.335 Z4.000
G1 X1627.668 Y170.380 Z4.000
G1 X1627.179 Y170.154 Z4.000
G1 X1626.877 Y169.722 Z4.000
G1 X1626.829 Y169.366 Z4.000
G0 X1626.829 Y169.366 Z0.000

(shape postamble)


(shape preamble)

G0 X1625.055 Y185.334 Z0.000
G1 X1625.055 Y185.334 Z4.000
G1 X1625.055 Y185.107 Z4.000
G1 X1625.334 Y184.511 Z4.000
G1 X1625.884 Y184.123 Z4.000
G1 X1626.541 Y184.067 Z4.000
G1 X1627.152 Y184.350 Z4.000
G1 X1627.529 Y184.890 Z4.000
G1 X1627.589 Y185.560 Z4.000
G1 X1627.310 Y186.157 Z4.000
G1 X1626.760 Y186.545 Z4.000
G1 X1626.103 Y186.601 Z4.000
G1 X1625.492 Y186.318 Z4.000
G1 X1625.115 Y185.778 Z4.000
G1 X1625.055 Y185.334 Z4.000
G0 X1625.055 Y185.334 Z0.000

(shape postamble)


(shape preamble)

G0 X1634.432 Y197.246 Z0.000
G1 X1634.432 Y197.246 Z4.000
G1 X1634.432 Y196.725 Z4.000
G1 X1634.766 Y195.236 Z4.000
G1 X1635.465 Y193.896 Z4.000
G1 X1636.488 Y192.774 Z4.000
G1 X1637.798 Y191.937 Z4.000
G1 X1639.255 Y191.482 Z4.000
G1 X1640.765 Y191.417 Z4.000
G1 X1642.248 Y191.742 Z4.000
G1 X1643.627 Y192.458 Z4.000
G1 X1644.750 Y193.492 Z4.000
G1 X1645.562 Y194.767 Z4.000
G1 X1646.022 Y196.215 Z4.000
G1 X1646.091 Y197.767 Z4.000
G1 X1645.757 Y199.257 Z4.000
G1 X1645.058 Y200.597 Z4.000
G1 X1644.035 Y201.719 Z4.000
G1 X1642.725 Y202.555 Z4.000
G1 X1641.268 Y203.010 Z4.000
G1 X1639.758 Y203.075 Z4.000
G1 X1638.275 Y202.750 Z4.000
G1 X1636.896 Y202.034 Z4.000
G1 X1635.773 Y201.000 Z4.000
G1 X1634.962 Y199.725 Z4.000
G1 X1634.502 Y198.277 Z4.000
G1 X1634.432 Y197.246 Z4.000
G0 X1634.432 Y197.246 Z0.000

(shape postamble)


(shape preamble)

G0 X1664.846 Y190.656 Z0.000
G1 X1664.846 Y190.656 Z4.000
G1 X1664.846 Y190.362 Z4.000
G1 X1665.035 Y189.520 Z4.000
G1 X1665.430 Y188.763 Z4.000
G1 X1666.009 Y188.128 Z4.000
G1 X1666.749 Y187.656 Z4.000
G1 X1667.572 Y187.398 Z4.000
G1 X1668.426 Y187.361 Z4.000
G1 X1669.264 Y187.545 Z4.000
G1 X1670.044 Y187.950 Z4.000
G1 X1670.678 Y188.535 Z4.000
G1 X1671.137 Y189.255 Z4.000
G1 X1671.397 Y190.073 Z4.000
G1 X1671.436 Y190.951 Z4.000
G1 X1671.247 Y191.793 Z4.000
G1 X1670.852 Y192.550 Z4.000
G1 X1670.274 Y193.184 Z4.000
G1 X1669.534 Y193.657 Z4.000
G1 X1668.710 Y193.914 Z4.000
G1 X1667.857 Y193.951 Z4.000
G1 X1667.018 Y193.767 Z4.000
G1 X1666.239 Y193.363 Z4.000
G1 X1665.604 Y192.778 Z4.000
G1 X1665.146 Y192.057 Z4.000
G1 X1664.886 Y191.239 Z4.000
G1 X1664.846 Y190.656 Z4.000
G0 X1664.846 Y190.656 Z0.000

(shape postamble)


(shape preamble)

G0 X1554.595 Y154.666 Z0.000
G1 X1554.595 Y154.666 Z4.000
G1 X1554.595 Y154.146 Z4.000
G1 X1554.929 Y152.656 Z4.000
G1 X1555.628 Y151.316 Z4.000
G1 X1556.651 Y150.194 Z4.000
G1 X1557.961 Y149.358 Z4.000
G1 X1559.418 Y148.902 Z4.000
G1 X1560.928 Y148.837 Z4.000
G1 X1562.411 Y149.162 Z4.000
G1 X1563.790 Y149.878 Z4.000
G1 X1564.913 Y150.913 Z4.000
G1 X1565.725 Y152.187 Z4.000
G1 X1566.185 Y153.635 Z4.000
G1 X1566.254 Y155.187 Z4.000
G1 X1565.920 Y156.677 Z4.000
G1 X1565.221 Y158.017 Z4.000
G1 X1564.198 Y159.139 Z4.000
G1 X1562.888 Y159.975 Z4.000
G1 X1561.431 Y160.431 Z4.000
G1 X1559.921 Y160.496 Z4.000
G1 X1558.438 Y160.170 Z4.000
G1 X1557.059 Y159.454 Z4.000
G1 X1555.936 Y158.420 Z4.000
G1 X1555.125 Y157.145 Z4.000
G1 X1554.665 Y155.698 Z4.000
G1 X1554.595 Y154.666 Z4.000
G0 X1554.595 Y154.666 Z0.000

(shape postamble)


(shape preamble)

G0 X1539.895 Y192.684 Z0.000
G1 X1539.895 Y192.684 Z4.000
G1 X1539.895 Y192.525 Z4.000
G1 X1539.997 Y192.072 Z4.000
G1 X1540.209 Y191.664 Z4.000
G1 X1540.521 Y191.323 Z4.000
G1 X1540.919 Y191.068 Z4.000
G1 X1541.363 Y190.930 Z4.000
G1 X1541.822 Y190.910 Z4.000
G1 X1542.274 Y191.009 Z4.000
G1 X1542.693 Y191.227 Z4.000
G1 X1543.035 Y191.542 Z4.000
G1 X1543.282 Y191.930 Z4.000
G1 X1543.422 Y192.370 Z4.000
G1 X1543.443 Y192.842 Z4.000
G1 X1543.342 Y193.296 Z4.000
G1 X1543.129 Y193.704 Z4.000
G1 X1542.818 Y194.045 Z4.000
G1 X1542.419 Y194.300 Z4.000
G1 X1541.975 Y194.438 Z4.000
G1 X1541.516 Y194.458 Z4.000
G1 X1541.064 Y194.359 Z4.000
G1 X1540.645 Y194.141 Z4.000
G1 X1540.303 Y193.826 Z4.000
G1 X1540.056 Y193.438 Z4.000
G1 X1539.916 Y192.998 Z4.000
G1 X1539.895 Y192.684 Z4.000
G0 X1539.895 Y192.684 Z0.000

(shape postamble)


(shape preamble)

G0 X1525.195 Y198.006 Z0.000
G1 X1525.195 Y198.006 Z4.000
G1 X1525.195 Y197.644 Z4.000
G1 X1525.427 Y196.608 Z4.000
G1 X1525.913 Y195.676 Z4.000
G1 X1526.625 Y194.895 Z4.000
G1 X1527.536 Y194.313 Z4.000
G1 X1528.550 Y193.997 Z4.000
G1 X1529.600 Y193.951 Z4.000
G1 X1530.632 Y194.178 Z4.000
G1 X1531.591 Y194.676 Z4.000
G1 X1532.373 Y195.395 Z4.000
G1 X1532.937 Y196.282 Z4.000
G1 X1533.257 Y197.289 Z4.000
G1 X1533.305 Y198.369 Z4.000
G1 X1533.073 Y199.405 Z4.000
G1 X1532.587 Y200.337 Z4.000
G1 X1531.875 Y201.118 Z4.000
G1 X1530.964 Y201.699 Z4.000
G1 X1529.950 Y202.016 Z4.000
G1 X1528.900 Y202.062 Z4.000
G1 X1527.868 Y201.835 Z4.000
G1 X1526.909 Y201.337 Z4.000
G1 X1526.127 Y200.618 Z4.000
G1 X1525.563 Y199.731 Z4.000
G1 X1525.243 Y198.724 Z4.000
G1 X1525.195 Y198.006 Z4.000
G0 X1525.195 Y198.006 Z0.000

(shape postamble)


(shape preamble)

G0 X1597.682 Y182.292 Z0.000
G1 X1597.682 Y182.292 Z4.000
G1 X1597.682 Y182.134 Z4.000
G1 X1597.784 Y181.681 Z4.000
G1 X1597.996 Y181.273 Z4.000
G1 X1598.308 Y180.931 Z4.000
G1 X1598.706 Y180.677 Z4.000
G1 X1599.150 Y180.538 Z4.000
G1 X1599.609 Y180.518 Z4.000
G1 X1600.061 Y180.617 Z4.000
G1 X1600.480 Y180.835 Z4.000
G1 X1600.822 Y181.150 Z4.000
G1 X1601.069 Y181.538 Z4.000
G1 X1601.209 Y181.979 Z4.000
G1 X1601.230 Y182.451 Z4.000
G1 X1601.128 Y182.904 Z4.000
G1 X1600.916 Y183.312 Z4.000
G1 X1600.604 Y183.654 Z4.000
G1 X1600.206 Y183.908 Z4.000
G1 X1599.762 Y184.047 Z4.000
G1 X1599.303 Y184.067 Z4.000
G1 X1598.851 Y183.968 Z4.000
G1 X1598.432 Y183.750 Z4.000
G1 X1598.090 Y183.435 Z4.000
G1 X1597.843 Y183.047 Z4.000
G1 X1597.703 Y182.606 Z4.000
G1 X1597.682 Y182.292 Z4.000
G0 X1597.682 Y182.292 Z0.000

(shape postamble)


(shape preamble)

G0 X1605.032 Y117.662 Z0.000
G1 X1605.032 Y117.662 Z4.000
G1 X1605.032 Y117.255 Z4.000
G1 X1605.293 Y116.089 Z4.000
G1 X1605.840 Y115.040 Z4.000
G1 X1606.641 Y114.162 Z4.000
G1 X1607.666 Y113.508 Z4.000
G1 X1608.806 Y113.151 Z4.000
G1 X1609.988 Y113.100 Z4.000
G1 X1611.149 Y113.355 Z4.000
G1 X1612.228 Y113.915 Z4.000
G1 X1613.107 Y114.725 Z4.000
G1 X1613.742 Y115.722 Z4.000
G1 X1614.102 Y116.855 Z4.000
G1 X1614.156 Y118.070 Z4.000
G1 X1613.895 Y119.236 Z4.000
G1 X1613.348 Y120.285 Z4.000
G1 X1612.547 Y121.163 Z4.000
G1 X1611.522 Y121.817 Z4.000
G1 X1610.382 Y122.174 Z4.000
G1 X1609.200 Y122.225 Z4.000
G1 X1608.039 Y121.970 Z4.000
G1 X1606.960 Y121.410 Z4.000
G1 X1606.081 Y120.600 Z4.000
G1 X1605.446 Y119.602 Z4.000
G1 X1605.086 Y118.470 Z4.000
G1 X1605.032 Y117.662 Z4.000
G0 X1605.032 Y117.662 Z0.000

(shape postamble)


(shape preamble)

G0 X1659.777 Y122.985 Z0.000
G1 X1659.777 Y122.985 Z4.000
G1 X1659.777 Y122.645 Z4.000
G1 X1659.995 Y121.674 Z4.000
G1 X1660.451 Y120.800 Z4.000
G1 X1661.118 Y120.068 Z4.000
G1 X1661.972 Y119.523 Z4.000
G1 X1662.923 Y119.225 Z4.000
G1 X1663.907 Y119.183 Z4.000
G1 X1664.875 Y119.395 Z4.000
G1 X1665.774 Y119.862 Z4.000
G1 X1666.507 Y120.537 Z4.000
G1 X1667.036 Y121.368 Z4.000
G1 X1667.336 Y122.312 Z4.000
G1 X1667.381 Y123.324 Z4.000
G1 X1667.163 Y124.296 Z4.000
G1 X1666.708 Y125.170 Z4.000
G1 X1666.040 Y125.902 Z4.000
G1 X1665.186 Y126.447 Z4.000
G1 X1664.236 Y126.744 Z4.000
G1 X1663.251 Y126.787 Z4.000
G1 X1662.284 Y126.574 Z4.000
G1 X1661.384 Y126.107 Z4.000
G1 X1660.652 Y125.433 Z4.000
G1 X1660.123 Y124.602 Z4.000
G1 X1659.823 Y123.658 Z4.000
G1 X1659.777 Y122.985 Z4.000
G0 X1659.777 Y122.985 Z0.000

(shape postamble)


(shape preamble)

G0 X1663.072 Y158.721 Z0.000
G1 X1663.072 Y158.721 Z4.000
G1 X1663.072 Y158.291 Z4.000
G1 X1663.348 Y157.061 Z4.000
G1 X1663.925 Y155.954 Z4.000
G1 X1664.771 Y155.027 Z4.000
G1 X1665.853 Y154.336 Z4.000
G1 X1667.056 Y153.960 Z4.000
G1 X1668.304 Y153.906 Z4.000
G1 X1669.529 Y154.175 Z4.000
G1 X1670.668 Y154.766 Z4.000
G1 X1671.596 Y155.621 Z4.000
G1 X1672.266 Y156.674 Z4.000
G1 X1672.646 Y157.869 Z4.000
G1 X1672.703 Y159.152 Z4.000
G1 X1672.427 Y160.382 Z4.000
G1 X1671.850 Y161.489 Z4.000
G1 X1671.005 Y162.416 Z4.000
G1 X1669.923 Y163.107 Z4.000
G1 X1668.719 Y163.483 Z4.000
G1 X1667.472 Y163.537 Z4.000
G1 X1666.247 Y163.268 Z4.000
G1 X1665.108 Y162.677 Z4.000
G1 X1664.180 Y161.822 Z4.000
G1 X1663.510 Y160.769 Z4.000
G1 X1663.130 Y159.574 Z4.000
G1 X1663.072 Y158.721 Z4.000
G0 X1663.072 Y158.721 Z0.000

(shape postamble)


(shape preamble)

G0 X1646.852 Y172.154 Z0.000
G1 X1646.852 Y172.154 Z4.000
G1 X1646.852 Y171.883 Z4.000
G1 X1647.026 Y171.105 Z4.000
G1 X1647.390 Y170.406 Z4.000
G1 X1647.924 Y169.821 Z4.000
G1 X1648.607 Y169.385 Z4.000
G1 X1649.368 Y169.147 Z4.000
G1 X1650.155 Y169.113 Z4.000
G1 X1650.929 Y169.283 Z4.000
G1 X1651.649 Y169.656 Z4.000
G1 X1652.235 Y170.196 Z4.000
G1 X1652.658 Y170.861 Z4.000
G1 X1652.898 Y171.616 Z4.000
G1 X1652.934 Y172.426 Z4.000
G1 X1652.760 Y173.203 Z4.000
G1 X1652.396 Y173.902 Z4.000
G1 X1651.862 Y174.488 Z4.000
G1 X1651.178 Y174.924 Z4.000
G1 X1650.418 Y175.162 Z4.000
G1 X1649.630 Y175.196 Z4.000
G1 X1648.856 Y175.026 Z4.000
G1 X1648.137 Y174.652 Z4.000
G1 X1647.551 Y174.113 Z4.000
G1 X1647.128 Y173.448 Z4.000
G1 X1646.888 Y172.692 Z4.000
G1 X1646.852 Y172.154 Z4.000
G0 X1646.852 Y172.154 Z0.000

(shape postamble)


(shape preamble)

G0 X1641.782 Y140.473 Z0.000
G1 X1641.782 Y140.473 Z4.000
G1 X1641.782 Y140.088 Z4.000
G1 X1642.029 Y138.987 Z4.000
G1 X1642.546 Y137.997 Z4.000
G1 X1643.302 Y137.167 Z4.000
G1 X1644.270 Y136.549 Z4.000
G1 X1645.347 Y136.212 Z4.000
G1 X1646.463 Y136.164 Z4.000
G1 X1647.560 Y136.405 Z4.000
G1 X1648.579 Y136.934 Z4.000
G1 X1649.409 Y137.698 Z4.000
G1 X1650.008 Y138.641 Z4.000
G1 X1650.348 Y139.711 Z4.000
G1 X1650.400 Y140.858 Z4.000
G1 X1650.153 Y141.959 Z4.000
G1 X1649.637 Y142.949 Z4.000
G1 X1648.880 Y143.779 Z4.000
G1 X1647.912 Y144.397 Z4.000
G1 X1646.835 Y144.734 Z4.000
G1 X1645.719 Y144.782 Z4.000
G1 X1644.623 Y144.541 Z4.000
G1 X1643.603 Y144.012 Z4.000
G1 X1642.773 Y143.248 Z4.000
G1 X1642.174 Y142.305 Z4.000
G1 X1641.834 Y141.235 Z4.000
G1 X1641.782 Y140.473 Z4.000
G0 X1641.782 Y140.473 Z0.000

(shape postamble)


(shape preamble)

G0 X1634.686 Y122.224 Z0.000
G1 X1634.686 Y122.224 Z4.000
G1 X1634.686 Y121.953 Z4.000
G1 X1634.775 Y121.154 Z4.000
G1 X1635.034 Y120.127 Z4.000
G1 X1635.763 Y118.728 Z4.000
G1 X1636.645 Y117.745 Z4.000
G1 X1637.268 Y117.243 Z4.000
G1 X1637.962 Y116.821 Z4.000
G1 X1638.699 Y116.498 Z4.000
G1 X1639.718 Y116.210 Z4.000
G1 X1641.294 Y116.142 Z4.000
G1 X1642.586 Y116.413 Z4.000
G1 X1643.333 Y116.702 Z4.000
G1 X1644.045 Y117.092 Z4.000
G1 X1644.693 Y117.569 Z4.000
G1 X1645.453 Y118.308 Z4.000
G1 X1646.299 Y119.638 Z4.000
G1 X1646.710 Y120.893 Z4.000
G1 X1646.833 Y121.684 Z4.000
G1 X1646.851 Y122.496 Z4.000
G1 X1646.763 Y123.295 Z4.000
G1 X1646.503 Y124.322 Z4.000
G1 X1645.774 Y125.721 Z4.000
G1 X1644.893 Y126.704 Z4.000
G1 X1644.269 Y127.206 Z4.000
G1 X1643.575 Y127.628 Z4.000
G1 X1642.838 Y127.951 Z4.000
G1 X1641.819 Y128.239 Z4.000
G1 X1640.243 Y128.307 Z4.000
G1 X1638.951 Y128.036 Z4.000
G1 X1638.204 Y127.747 Z4.000
G1 X1637.492 Y127.357 Z4.000
G1 X1636.844 Y126.880 Z4.000
G1 X1636.085 Y126.141 Z4.000
G1 X1635.238 Y124.811 Z4.000
G1 X1634.827 Y123.556 Z4.000
G1 X1634.704 Y122.765 Z4.000
G1 X1634.686 Y122.224 Z4.000
G0 X1634.686 Y122.224 Z0.000

(shape postamble)


(shape preamble)

G0 X1652.174 Y113.861 Z0.000
G1 X1652.174 Y113.861 Z4.000
G1 X1652.174 Y113.657 Z4.000
G1 X1652.305 Y113.074 Z4.000
G1 X1652.578 Y112.549 Z4.000
G1 X1652.978 Y112.110 Z4.000
G1 X1653.491 Y111.783 Z4.000
G1 X1654.061 Y111.605 Z4.000
G1 X1654.652 Y111.579 Z4.000
G1 X1655.232 Y111.707 Z4.000
G1 X1655.772 Y111.987 Z4.000
G1 X1656.211 Y112.392 Z4.000
G1 X1656.529 Y112.891 Z4.000
G1 X1656.709 Y113.457 Z4.000
G1 X1656.736 Y114.064 Z4.000
G1 X1656.605 Y114.647 Z4.000
G1 X1656.332 Y115.172 Z4.000
G1 X1655.931 Y115.611 Z4.000
G1 X1655.419 Y115.938 Z4.000
G1 X1654.849 Y116.116 Z4.000
G1 X1654.258 Y116.142 Z4.000
G1 X1653.677 Y116.014 Z4.000
G1 X1653.138 Y115.734 Z4.000
G1 X1652.698 Y115.329 Z4.000
G1 X1652.381 Y114.831 Z4.000
G1 X1652.201 Y114.264 Z4.000
G1 X1652.174 Y113.861 Z4.000
G0 X1652.174 Y113.861 Z0.000

(shape postamble)


(shape preamble)

G0 X1583.235 Y130.842 Z0.000
G1 X1583.235 Y130.842 Z4.000
G1 X1583.235 Y130.638 Z4.000
G1 X1583.366 Y130.055 Z4.000
G1 X1583.639 Y129.531 Z4.000
G1 X1584.040 Y129.092 Z4.000
G1 X1584.552 Y128.765 Z4.000
G1 X1585.122 Y128.586 Z4.000
G1 X1585.713 Y128.561 Z4.000
G1 X1586.294 Y128.688 Z4.000
G1 X1586.833 Y128.968 Z4.000
G1 X1587.273 Y129.373 Z4.000
G1 X1587.590 Y129.872 Z4.000
G1 X1587.770 Y130.438 Z4.000
G1 X1587.797 Y131.046 Z4.000
G1 X1587.667 Y131.629 Z4.000
G1 X1587.393 Y132.153 Z4.000
G1 X1586.993 Y132.592 Z4.000
G1 X1586.480 Y132.919 Z4.000
G1 X1585.910 Y133.097 Z4.000
G1 X1585.319 Y133.123 Z4.000
G1 X1584.739 Y132.996 Z4.000
G1 X1584.199 Y132.715 Z4.000
G1 X1583.760 Y132.311 Z4.000
G1 X1583.442 Y131.812 Z4.000
G1 X1583.262 Y131.245 Z4.000
G1 X1583.235 Y130.842 Z4.000
G0 X1583.235 Y130.842 Z0.000

(shape postamble)


(shape preamble)

G0 X1537.867 Y138.952 Z0.000
G1 X1537.867 Y138.952 Z4.000
G1 X1537.867 Y138.567 Z4.000
G1 X1538.114 Y137.466 Z4.000
G1 X1538.631 Y136.476 Z4.000
G1 X1539.387 Y135.646 Z4.000
G1 X1540.355 Y135.028 Z4.000
G1 X1541.432 Y134.692 Z4.000
G1 X1542.548 Y134.644 Z4.000
G1 X1543.645 Y134.884 Z4.000
G1 X1544.664 Y135.413 Z4.000
G1 X1545.494 Y136.178 Z4.000
G1 X1546.093 Y137.120 Z4.000
G1 X1546.433 Y138.190 Z4.000
G1 X1546.485 Y139.337 Z4.000
G1 X1546.238 Y140.438 Z4.000
G1 X1545.722 Y141.429 Z4.000
G1 X1544.965 Y142.258 Z4.000
G1 X1543.997 Y142.876 Z4.000
G1 X1542.920 Y143.213 Z4.000
G1 X1541.804 Y143.261 Z4.000
G1 X1540.708 Y143.020 Z4.000
G1 X1539.688 Y142.491 Z4.000
G1 X1538.858 Y141.727 Z4.000
G1 X1538.259 Y140.784 Z4.000
G1 X1537.919 Y139.715 Z4.000
G1 X1537.867 Y138.952 Z4.000
G0 X1537.867 Y138.952 Z0.000

(shape postamble)


(shape preamble)

G0 X1523.928 Y115.635 Z0.000
G1 X1523.928 Y115.635 Z4.000
G1 X1523.928 Y115.386 Z4.000
G1 X1524.087 Y114.673 Z4.000
G1 X1524.421 Y114.032 Z4.000
G1 X1524.911 Y113.496 Z4.000
G1 X1525.537 Y113.096 Z4.000
G1 X1526.234 Y112.878 Z4.000
G1 X1526.956 Y112.847 Z4.000
G1 X1527.666 Y113.002 Z4.000
G1 X1528.325 Y113.345 Z4.000
G1 X1528.862 Y113.839 Z4.000
G1 X1529.250 Y114.449 Z4.000
G1 X1529.470 Y115.141 Z4.000
G1 X1529.503 Y115.884 Z4.000
G1 X1529.344 Y116.596 Z4.000
G1 X1529.010 Y117.237 Z4.000
G1 X1528.520 Y117.774 Z4.000
G1 X1527.894 Y118.174 Z4.000
G1 X1527.197 Y118.392 Z4.000
G1 X1526.475 Y118.423 Z4.000
G1 X1525.765 Y118.267 Z4.000
G1 X1525.106 Y117.925 Z4.000
G1 X1524.569 Y117.430 Z4.000
G1 X1524.181 Y116.820 Z4.000
G1 X1523.961 Y116.128 Z4.000
G1 X1523.928 Y115.635 Z4.000
G0 X1523.928 Y115.635 Z0.000

(shape postamble)


(shape preamble)

G0 X1541.162 Y122.985 Z0.000
G1 X1541.162 Y122.985 Z4.000
G1 X1541.162 Y122.758 Z4.000
G1 X1541.308 Y122.111 Z4.000
G1 X1541.611 Y121.528 Z4.000
G1 X1542.056 Y121.040 Z4.000
G1 X1542.626 Y120.677 Z4.000
G1 X1543.259 Y120.479 Z4.000
G1 X1543.916 Y120.450 Z4.000
G1 X1544.561 Y120.592 Z4.000
G1 X1545.160 Y120.903 Z4.000
G1 X1545.648 Y121.353 Z4.000
G1 X1546.001 Y121.907 Z4.000
G1 X1546.201 Y122.536 Z4.000
G1 X1546.231 Y123.211 Z4.000
G1 X1546.086 Y123.859 Z4.000
G1 X1545.782 Y124.442 Z4.000
G1 X1545.337 Y124.929 Z4.000
G1 X1544.768 Y125.293 Z4.000
G1 X1544.134 Y125.491 Z4.000
G1 X1543.478 Y125.519 Z4.000
G1 X1542.833 Y125.378 Z4.000
G1 X1542.233 Y125.067 Z4.000
G1 X1541.745 Y124.617 Z4.000
G1 X1541.392 Y124.063 Z4.000
G1 X1541.192 Y123.433 Z4.000
G1 X1541.162 Y122.985 Z4.000
G0 X1541.162 Y122.985 Z0.000

(shape postamble)


(shape preamble)

G0 X1536.093 Y107.524 Z0.000
G1 X1536.093 Y107.524 Z4.000
G1 X1536.093 Y107.321 Z4.000
G1 X1536.224 Y106.738 Z4.000
G1 X1536.497 Y106.213 Z4.000
G1 X1536.898 Y105.774 Z4.000
G1 X1537.410 Y105.447 Z4.000
G1 X1537.980 Y105.269 Z4.000
G1 X1538.571 Y105.243 Z4.000
G1 X1539.152 Y105.371 Z4.000
G1 X1539.691 Y105.651 Z4.000
G1 X1540.131 Y106.055 Z4.000
G1 X1540.448 Y106.554 Z4.000
G1 X1540.628 Y107.121 Z4.000
G1 X1540.655 Y107.728 Z4.000
G1 X1540.525 Y108.311 Z4.000
G1 X1540.251 Y108.835 Z4.000
G1 X1539.851 Y109.274 Z4.000
G1 X1539.338 Y109.602 Z4.000
G1 X1538.768 Y109.780 Z4.000
G1 X1538.177 Y109.805 Z4.000
G1 X1537.597 Y109.678 Z4.000
G1 X1537.057 Y109.398 Z4.000
G1 X1536.618 Y108.993 Z4.000
G1 X1536.300 Y108.494 Z4.000
G1 X1536.120 Y107.928 Z4.000
G1 X1536.093 Y107.524 Z4.000
G0 X1536.093 Y107.524 Z0.000

(shape postamble)


(shape preamble)

G0 X1522.153 Y142.754 Z0.000
G1 X1522.153 Y142.754 Z4.000
G1 X1522.153 Y142.437 Z4.000
G1 X1522.357 Y141.530 Z4.000
G1 X1522.782 Y140.715 Z4.000
G1 X1523.405 Y140.032 Z4.000
G1 X1524.202 Y139.523 Z4.000
G1 X1525.089 Y139.245 Z4.000
G1 X1526.008 Y139.206 Z4.000
G1 X1526.911 Y139.404 Z4.000
G1 X1527.750 Y139.840 Z4.000
G1 X1528.434 Y140.469 Z4.000
G1 X1528.928 Y141.245 Z4.000
G1 X1529.208 Y142.126 Z4.000
G1 X1529.250 Y143.071 Z4.000
G1 X1529.047 Y143.978 Z4.000
G1 X1528.621 Y144.794 Z4.000
G1 X1527.998 Y145.476 Z4.000
G1 X1527.201 Y145.985 Z4.000
G1 X1526.314 Y146.263 Z4.000
G1 X1525.395 Y146.302 Z4.000
G1 X1524.492 Y146.104 Z4.000
G1 X1523.653 Y145.669 Z4.000
G1 X1522.969 Y145.039 Z4.000
G1 X1522.476 Y144.263 Z4.000
G1 X1522.196 Y143.382 Z4.000
G1 X1522.153 Y142.754 Z4.000
G0 X1522.153 Y142.754 Z0.000

(shape postamble)


(shape preamble)

G0 X1545.724 Y168.606 Z0.000
G1 X1545.724 Y168.606 Z4.000
G1 X1545.724 Y168.425 Z4.000
G1 X1545.948 Y167.948 Z4.000
G1 X1546.388 Y167.638 Z4.000
G1 X1546.913 Y167.592 Z4.000
G1 X1547.402 Y167.819 Z4.000
G1 X1547.704 Y168.251 Z4.000
G1 X1547.752 Y168.787 Z4.000
G1 X1547.529 Y169.265 Z4.000
G1 X1547.088 Y169.575 Z4.000
G1 X1546.563 Y169.620 Z4.000
G1 X1546.074 Y169.394 Z4.000
G1 X1545.773 Y168.961 Z4.000
G1 X1545.724 Y168.606 Z4.000
G0 X1545.724 Y168.606 Z0.000

(shape postamble)


(shape preamble)

G0 X1523.674 Y183.306 Z0.000
G1 X1523.674 Y183.306 Z4.000
G1 X1523.674 Y183.125 Z4.000
G1 X1523.897 Y182.648 Z4.000
G1 X1524.338 Y182.338 Z4.000
G1 X1524.863 Y182.292 Z4.000
G1 X1525.352 Y182.519 Z4.000
G1 X1525.653 Y182.951 Z4.000
G1 X1525.702 Y183.487 Z4.000
G1 X1525.478 Y183.965 Z4.000
G1 X1525.038 Y184.275 Z4.000
G1 X1524.513 Y184.320 Z4.000
G1 X1524.024 Y184.094 Z4.000
G1 X1523.722 Y183.662 Z4.000
G1 X1523.674 Y183.306 Z4.000
G0 X1523.674 Y183.306 Z0.000

(shape postamble)


(shape preamble)

G0 X1631.137 Y105.497 Z0.000
G1 X1631.137 Y105.497 Z4.000
G1 X1631.137 Y105.225 Z4.000
G1 X1631.472 Y104.509 Z4.000
G1 X1632.133 Y104.044 Z4.000
G1 X1632.921 Y103.976 Z4.000
G1 X1633.654 Y104.316 Z4.000
G1 X1634.106 Y104.964 Z4.000
G1 X1634.179 Y105.768 Z4.000
G1 X1633.844 Y106.484 Z4.000
G1 X1633.183 Y106.950 Z4.000
G1 X1632.396 Y107.017 Z4.000
G1 X1631.663 Y106.678 Z4.000
G1 X1631.210 Y106.030 Z4.000
G1 X1631.137 Y105.497 Z4.000
G0 X1631.137 Y105.497 Z0.000

(shape postamble)


(shape preamble)

G0 X1670.169 Y107.271 Z0.000
G1 X1670.169 Y107.271 Z4.000
G1 X1670.169 Y107.022 Z4.000
G1 X1670.329 Y106.309 Z4.000
G1 X1670.663 Y105.668 Z4.000
G1 X1671.152 Y105.132 Z4.000
G1 X1671.779 Y104.732 Z4.000
G1 X1672.476 Y104.514 Z4.000
G1 X1673.198 Y104.483 Z4.000
G1 X1673.907 Y104.639 Z4.000
G1 X1674.567 Y104.981 Z4.000
G1 X1675.104 Y105.476 Z4.000
G1 X1675.492 Y106.085 Z4.000
G1 X1675.712 Y106.778 Z4.000
G1 X1675.745 Y107.520 Z4.000
G1 X1675.585 Y108.232 Z4.000
G1 X1675.251 Y108.873 Z4.000
G1 X1674.762 Y109.410 Z4.000
G1 X1674.135 Y109.810 Z4.000
G1 X1673.438 Y110.028 Z4.000
G1 X1672.716 Y110.059 Z4.000
G1 X1672.007 Y109.903 Z4.000
G1 X1671.347 Y109.561 Z4.000
G1 X1670.810 Y109.066 Z4.000
G1 X1670.422 Y108.456 Z4.000
G1 X1670.202 Y107.764 Z4.000
G1 X1670.169 Y107.271 Z4.000
G0 X1670.169 Y107.271 Z0.000

(shape postamble)


(shape preamble)

G0 X1670.169 Y203.836 Z0.000
G1 X1670.169 Y203.836 Z4.000
G1 X1670.169 Y203.587 Z4.000
G1 X1670.329 Y202.874 Z4.000
G1 X1670.663 Y202.233 Z4.000
G1 X1671.152 Y201.697 Z4.000
G1 X1671.779 Y201.297 Z4.000
G1 X1672.476 Y201.079 Z4.000
G1 X1673.198 Y201.048 Z4.000
G1 X1673.907 Y201.203 Z4.000
G1 X1674.567 Y201.546 Z4.000
G1 X1675.104 Y202.041 Z4.000
G1 X1675.492 Y202.650 Z4.000
G1 X1675.712 Y203.343 Z4.000
G1 X1675.745 Y204.085 Z4.000
G1 X1675.585 Y204.797 Z4.000
G1 X1675.251 Y205.438 Z4.000
G1 X1674.762 Y205.975 Z4.000
G1 X1674.135 Y206.375 Z4.000
G1 X1673.438 Y206.593 Z4.000
G1 X1672.716 Y206.624 Z4.000
G1 X1672.007 Y206.468 Z4.000
G1 X1671.347 Y206.126 Z4.000
G1 X1670.810 Y205.631 Z4.000
G1 X1670.422 Y205.021 Z4.000
G1 X1670.202 Y204.329 Z4.000
G1 X1670.169 Y203.836 Z4.000
G0 X1670.169 Y203.836 Z0.000

(shape postamble)


(shape preamble)

G0 X1514.803 Y107.271 Z0.000
G1 X1514.803 Y107.271 Z4.000
G1 X1514.803 Y107.022 Z4.000
G1 X1514.963 Y106.309 Z4.000
G1 X1515.297 Y105.668 Z4.000
G1 X1515.787 Y105.132 Z4.000
G1 X1516.413 Y104.732 Z4.000
G1 X1517.110 Y104.514 Z4.000
G1 X1517.832 Y104.483 Z4.000
G1 X1518.541 Y104.639 Z4.000
G1 X1519.201 Y104.981 Z4.000
G1 X1519.738 Y105.476 Z4.000
G1 X1520.126 Y106.085 Z4.000
G1 X1520.346 Y106.778 Z4.000
G1 X1520.379 Y107.520 Z4.000
G1 X1520.219 Y108.232 Z4.000
G1 X1519.885 Y108.873 Z4.000
G1 X1519.396 Y109.410 Z4.000
G1 X1518.770 Y109.810 Z4.000
G1 X1518.073 Y110.028 Z4.000
G1 X1517.351 Y110.059 Z4.000
G1 X1516.641 Y109.903 Z4.000
G1 X1515.982 Y109.561 Z4.000
G1 X1515.444 Y109.066 Z4.000
G1 X1515.056 Y108.456 Z4.000
G1 X1514.836 Y107.764 Z4.000
G1 X1514.803 Y107.271 Z4.000
G0 X1514.803 Y107.271 Z0.000

(shape postamble)


(shape preamble)

G0 X1514.803 Y203.836 Z0.000
G1 X1514.803 Y203.836 Z4.000
G1 X1514.803 Y203.587 Z4.000
G1 X1514.963 Y202.874 Z4.000
G1 X1515.297 Y202.233 Z4.000
G1 X1515.787 Y201.697 Z4.000
G1 X1516.413 Y201.297 Z4.000
G1 X1517.110 Y201.079 Z4.000
G1 X1517.832 Y201.048 Z4.000
G1 X1518.541 Y201.203 Z4.000
G1 X1519.201 Y201.546 Z4.000
G1 X1519.738 Y202.041 Z4.000
G1 X1520.126 Y202.650 Z4.000
G1 X1520.346 Y203.343 Z4.000
G1 X1520.379 Y204.085 Z4.000
G1 X1520.219 Y204.797 Z4.000
G1 X1519.885 Y205.438 Z4.000
G1 X1519.396 Y205.975 Z4.000
G1 X1518.770 Y206.375 Z4.000
G1 X1518.073 Y206.593 Z4.000
G1 X1517.351 Y206.624 Z4.000
G1 X1516.641 Y206.468 Z4.000
G1 X1515.982 Y206.126 Z4.000
G1 X1515.444 Y205.631 Z4.000
G1 X1515.056 Y205.021 Z4.000
G1 X1514.836 Y204.329 Z4.000
G1 X1514.803 Y203.836 Z4.000
G0 X1514.803 Y203.836 Z0.000

(shape postamble)


(shape preamble)

G0 X1091.585 Y771.400 Z0.000
G1 X1091.585 Y771.400 Z4.000
G1 X1091.585 Y522.339 Z4.000
G1 X1076.025 Y522.339 Z4.000
G1 X1075.476 Y540.154 Z4.000
G1 X1073.339 Y537.114 Z4.000
G1 X1071.033 Y534.364 Z4.000
G1 X1069.430 Y532.687 Z4.000
G1 X1067.639 Y531.019 Z4.000
G1 X1065.653 Y529.386 Z4.000
G1 X1063.463 Y527.818 Z4.000
G1 X1061.059 Y526.342 Z4.000
G1 X1058.433 Y524.986 Z4.000
G1 X1055.577 Y523.777 Z4.000
G1 X1052.480 Y522.744 Z4.000
G1 X1049.135 Y521.915 Z4.000
G1 X1045.533 Y521.317 Z4.000
G1 X1041.666 Y520.979 Z4.000
G1 X1037.673 Y520.928 Z4.000
G1 X1034.125 Y521.102 Z4.000
G1 X1030.801 Y521.472 Z4.000
G1 X1027.693 Y522.028 Z4.000
G1 X1024.795 Y522.758 Z4.000
G1 X1022.100 Y523.650 Z4.000
G1 X1019.599 Y524.692 Z4.000
G1 X1017.285 Y525.873 Z4.000
G1 X1015.152 Y527.180 Z4.000
G1 X1013.192 Y528.602 Z4.000
G1 X1011.397 Y530.128 Z4.000
G1 X1009.761 Y531.745 Z4.000
G1 X1008.275 Y533.441 Z4.000
G1 X1006.933 Y535.205 Z4.000
G1 X1005.728 Y537.026 Z4.000
G1 X1004.652 Y538.891 Z4.000
G1 X1003.697 Y540.788 Z4.000
G1 X1002.857 Y542.707 Z4.000
G1 X1001.885 Y545.277 Z4.000
G1 X1000.775 Y549.105 Z4.000
G1 X999.996 Y552.814 Z4.000
G1 X999.489 Y556.308 Z4.000
G1 X999.197 Y559.494 Z4.000
G1 X999.021 Y563.179 Z4.000
G1 X999.021 Y565.731 Z4.000
G1 X999.021 Y655.899 Z4.000
G1 X999.157 Y659.528 Z4.000
G1 X999.448 Y662.955 Z4.000
G1 X999.885 Y666.184 Z4.000
G1 X1000.462 Y669.221 Z4.000
G1 X1001.168 Y672.072 Z4.000
G1 X1001.997 Y674.744 Z4.000
G1 X1002.941 Y677.240 Z4.000
G1 X1003.990 Y679.569 Z4.000
G1 X1005.137 Y681.734 Z4.000
G1 X1006.374 Y683.742 Z4.000
G1 X1007.692 Y685.598 Z4.000
G1 X1009.083 Y687.309 Z4.000
G1 X1010.540 Y688.880 Z4.000
G1 X1012.053 Y690.317 Z4.000
G1 X1013.615 Y691.625 Z4.000
G1 X1015.218 Y692.811 Z4.000
G1 X1016.852 Y693.880 Z4.000
G1 X1019.066 Y695.150 Z4.000
G1 X1022.430 Y696.687 Z4.000
G1 X1025.783 Y697.856 Z4.000
G1 X1029.057 Y698.702 Z4.000
G1 X1032.188 Y699.272 Z4.000
G1 X1035.110 Y699.613 Z4.000
G1 X1037.758 Y699.769 Z4.000
G1 X1040.640 Y699.786 Z4.000
G1 X1044.361 Y699.600 Z4.000
G1 X1047.802 Y699.206 Z4.000
G1 X1050.980 Y698.625 Z4.000
G1 X1053.909 Y697.874 Z4.000
G1 X1056.605 Y696.972 Z4.000
G1 X1059.083 Y695.938 Z4.000
G1 X1061.357 Y694.790 Z4.000
G1 X1063.444 Y693.547 Z4.000
G1 X1065.359 Y692.227 Z4.000
G1 X1067.115 Y690.850 Z4.000
G1 X1068.730 Y689.433 Z4.000
G1 X1070.707 Y687.516 Z4.000
G1 X1073.294 Y684.661 Z4.000
G1 X1074.828 Y682.853 Z4.000
G1 X1074.828 Y771.400 Z4.000
G1 X1091.585 Y771.400 Z4.000
G0 X1091.585 Y771.400 Z0.000

(shape postamble)


(shape preamble)

G0 X1074.828 Y654.278 Z0.000
G1 X1074.828 Y654.278 Z4.000
G1 X1074.828 Y654.565 Z4.000
G1 X1074.719 Y655.835 Z4.000
G1 X1074.458 Y657.530 Z4.000
G1 X1074.022 Y659.578 Z4.000
G1 X1073.389 Y661.908 Z4.000
G1 X1072.536 Y664.448 Z4.000
G1 X1071.439 Y667.125 Z4.000
G1 X1070.077 Y669.869 Z4.000
G1 X1068.425 Y672.606 Z4.000
G1 X1066.462 Y675.266 Z4.000
G1 X1064.558 Y677.363 Z4.000
G1 X1063.307 Y678.558 Z4.000
G1 X1061.964 Y679.691 Z4.000
G1 X1060.527 Y680.754 Z4.000
G1 X1058.994 Y681.738 Z4.000
G1 X1057.361 Y682.633 Z4.000
G1 X1055.625 Y683.431 Z4.000
G1 X1053.784 Y684.123 Z4.000
G1 X1051.834 Y684.700 Z4.000
G1 X1049.774 Y685.152 Z4.000
G1 X1047.599 Y685.472 Z4.000
G1 X1045.308 Y685.649 Z4.000
G1 X1043.009 Y685.675 Z4.000
G1 X1040.331 Y685.509 Z4.000
G1 X1038.400 Y685.258 Z4.000
G1 X1036.267 Y684.843 Z4.000
G1 X1033.990 Y684.225 Z4.000
G1 X1031.625 Y683.364 Z4.000
G1 X1029.230 Y682.222 Z4.000
G1 X1026.863 Y680.759 Z4.000
G1 X1024.580 Y678.935 Z4.000
G1 X1022.791 Y677.094 Z4.000
G1 X1021.775 Y675.856 Z4.000
G1 X1020.814 Y674.506 Z4.000
G1 X1019.915 Y673.037 Z4.000
G1 X1019.084 Y671.446 Z4.000
G1 X1018.330 Y669.727 Z4.000
G1 X1017.659 Y667.875 Z4.000
G1 X1017.078 Y665.886 Z4.000
G1 X1016.594 Y663.754 Z4.000
G1 X1016.216 Y661.475 Z4.000
G1 X1015.949 Y659.044 Z4.000
G1 X1015.801 Y656.455 Z4.000
G1 X1015.779 Y654.631 Z4.000
G1 X1015.779 Y567.495 Z4.000
G1 X1015.859 Y563.895 Z4.000
G1 X1016.021 Y561.411 Z4.000
G1 X1016.316 Y558.733 Z4.000
G1 X1016.787 Y555.923 Z4.000
G1 X1017.472 Y553.044 Z4.000
G1 X1018.413 Y550.159 Z4.000
G1 X1019.650 Y547.331 Z4.000
G1 X1020.951 Y545.071 Z4.000
G1 X1021.845 Y543.767 Z4.000
G1 X1022.836 Y542.514 Z4.000
G1 X1023.930 Y541.320 Z4.000
G1 X1025.131 Y540.193 Z4.000
G1 X1026.445 Y539.141 Z4.000
G1 X1027.877 Y538.171 Z4.000
G1 X1029.431 Y537.292 Z4.000
G1 X1031.113 Y536.512 Z4.000
G1 X1032.928 Y535.837 Z4.000
G1 X1034.880 Y535.277 Z4.000
G1 X1036.975 Y534.838 Z4.000
G1 X1039.218 Y534.530 Z4.000
G1 X1041.614 Y534.359 Z4.000
G1 X1044.031 Y534.334 Z4.000
G1 X1046.129 Y534.435 Z4.000
G1 X1048.142 Y534.651 Z4.000
G1 X1050.071 Y534.974 Z4.000
G1 X1051.917 Y535.399 Z4.000
G1 X1053.682 Y535.918 Z4.000
G1 X1055.924 Y536.730 Z4.000
G1 X1059.006 Y538.227 Z4.000
G1 X1061.781 Y539.979 Z4.000
G1 X1064.261 Y541.933 Z4.000
G1 X1066.454 Y544.033 Z4.000
G1 X1068.369 Y546.223 Z4.000
G1 X1070.017 Y548.449 Z4.000
G1 X1071.405 Y550.655 Z4.000
G1 X1072.544 Y552.785 Z4.000
G1 X1073.444 Y554.785 Z4.000
G1 X1074.112 Y556.599 Z4.000
G1 X1074.560 Y558.172 Z4.000
G1 X1074.795 Y559.448 Z4.000
G1 X1074.828 Y560.086 Z4.000
G1 X1074.828 Y654.278 Z4.000
G0 X1074.828 Y654.278 Z0.000

(shape postamble)


(shape preamble)

G0 X1133.075 Y661.334 Z0.000
G1 X1133.075 Y661.334 Z4.000
G1 X1133.075 Y662.480 Z4.000
G1 X1133.225 Y665.976 Z4.000
G1 X1133.581 Y669.505 Z4.000
G1 X1134.172 Y673.030 Z4.000
G1 X1135.028 Y676.514 Z4.000
G1 X1136.175 Y679.919 Z4.000
G1 X1137.644 Y683.209 Z4.000
G1 X1139.149 Y685.827 Z4.000
G1 X1140.167 Y687.342 Z4.000
G1 X1141.282 Y688.806 Z4.000
G1 X1142.497 Y690.215 Z4.000
G1 X1143.817 Y691.564 Z4.000
G1 X1145.244 Y692.848 Z4.000
G1 X1146.783 Y694.063 Z4.000
G1 X1148.436 Y695.205 Z4.000
G1 X1150.208 Y696.267 Z4.000
G1 X1152.102 Y697.247 Z4.000
G1 X1154.122 Y698.138 Z4.000
G1 X1156.271 Y698.937 Z4.000
G1 X1158.552 Y699.639 Z4.000
G1 X1160.970 Y700.240 Z4.000
G1 X1163.528 Y700.733 Z4.000
G1 X1166.229 Y701.116 Z4.000
G1 X1169.077 Y701.383 Z4.000
G1 X1172.076 Y701.529 Z4.000
G1 X1175.392 Y701.550 Z4.000
G1 X1178.850 Y701.358 Z4.000
G1 X1182.071 Y700.953 Z4.000
G1 X1185.063 Y700.359 Z4.000
G1 X1187.838 Y699.595 Z4.000
G1 X1190.406 Y698.683 Z4.000
G1 X1192.778 Y697.645 Z4.000
G1 X1194.963 Y696.501 Z4.000
G1 X1196.974 Y695.272 Z4.000
G1 X1198.820 Y693.980 Z4.000
G1 X1201.067 Y692.200 Z4.000
G1 X1203.937 Y689.487 Z4.000
G1 X1206.331 Y686.888 Z4.000
G1 X1207.684 Y685.323 Z4.000
G1 X1207.684 Y700.492 Z4.000
G1 X1224.840 Y700.492 Z4.000
G1 X1224.840 Y512.946 Z4.000
G1 X1224.780 Y508.732 Z4.000
G1 X1224.536 Y504.935 Z4.000
G1 X1224.271 Y502.574 Z4.000
G1 X1223.883 Y500.160 Z4.000
G1 X1223.351 Y497.708 Z4.000
G1 X1222.652 Y495.230 Z4.000
G1 X1221.763 Y492.741 Z4.000
G1 X1220.662 Y490.252 Z4.000
G1 X1219.324 Y487.779 Z4.000
G1 X1217.729 Y485.333 Z4.000
G1 X1215.852 Y482.930 Z4.000
G1 X1213.671 Y480.581 Z4.000
G1 X1211.164 Y478.301 Z4.000
G1 X1208.706 Y476.368 Z4.000
G1 X1206.925 Y475.067 Z4.000
G1 X1205.075 Y473.871 Z4.000
G1 X1203.161 Y472.776 Z4.000
G1 X1201.188 Y471.780 Z4.000
G1 X1199.161 Y470.881 Z4.000
G1 X1196.388 Y469.811 Z4.000
G1 X1192.074 Y468.529 Z4.000
G1 X1187.623 Y467.588 Z4.000
G1 X1183.072 Y466.967 Z4.000
G1 X1178.459 Y466.644 Z4.000
G1 X1174.270 Y466.600 Z4.000
G1 X1171.133 Y466.712 Z4.000
G1 X1168.183 Y466.944 Z4.000
G1 X1165.416 Y467.280 Z4.000
G1 X1161.982 Y467.851 Z4.000
G1 X1157.481 Y468.948 Z4.000
G1 X1153.697 Y470.194 Z4.000
G1 X1150.621 Y471.465 Z4.000
G1 X1147.488 Y473.016 Z4.000
G1 X1145.019 Y474.516 Z4.000
G1 X1142.786 Y476.097 Z4.000
G1 X1140.820 Y477.747 Z4.000
G1 X1139.102 Y479.458 Z4.000
G1 X1137.616 Y481.227 Z4.000
G1 X1136.344 Y483.047 Z4.000
G1 X1135.268 Y484.915 Z4.000
G1 X1134.371 Y486.824 Z4.000
G1 X1133.636 Y488.770 Z4.000
G1 X1133.044 Y490.747 Z4.000
G1 X1132.430 Y493.420 Z4.000
G1 X1131.872 Y497.496 Z4.000
G1 X1131.585 Y501.608 Z4.000
G1 X1131.479 Y504.347 Z4.000
G1 X1148.286 Y503.510 Z4.000
G1 X1148.488 Y500.875 Z4.000
G1 X1148.717 Y499.117 Z4.000
G1 X1149.075 Y497.257 Z4.000
G1 X1149.599 Y495.334 Z4.000
G1 X1150.330 Y493.386 Z4.000
G1 X1151.305 Y491.451 Z4.000
G1 X1152.563 Y489.569 Z4.000
G1 X1154.142 Y487.779 Z4.000
G1 X1156.081 Y486.119 Z4.000
G1 X1158.419 Y484.628 Z4.000
G1 X1161.194 Y483.345 Z4.000
G1 X1164.444 Y482.308 Z4.000
G1 X1168.209 Y481.556 Z4.000
G1 X1172.527 Y481.129 Z4.000
G1 X1176.264 Y481.064 Z4.000
G1 X1178.855 Y481.165 Z4.000
G1 X1180.889 Y481.345 Z4.000
G1 X1183.231 Y481.665 Z4.000
G1 X1185.804 Y482.163 Z4.000
G1 X1188.534 Y482.879 Z4.000
G1 X1191.343 Y483.852 Z4.000
G1 X1194.156 Y485.121 Z4.000
G1 X1196.897 Y486.726 Z4.000
G1 X1199.064 Y488.364 Z4.000
G1 X1200.299 Y489.473 Z4.000
G1 X1201.472 Y490.688 Z4.000
G1 X1202.573 Y492.015 Z4.000
G1 X1203.593 Y493.458 Z4.000
G1 X1204.522 Y495.023 Z4.000
G1 X1205.351 Y496.715 Z4.000
G1 X1206.070 Y498.537 Z4.000
G1 X1206.669 Y500.497 Z4.000
G1 X1207.140 Y502.597 Z4.000
G1 X1207.472 Y504.843 Z4.000
G1 X1207.657 Y507.240 Z4.000
G1 X1207.684 Y508.934 Z4.000
G1 X1206.786 Y537.685 Z4.000
G1 X1203.908 Y534.968 Z4.000
G1 X1200.724 Y532.272 Z4.000
G1 X1197.754 Y530.135 Z4.000
G1 X1195.829 Y528.923 Z4.000
G1 X1193.776 Y527.785 Z4.000
G1 X1191.583 Y526.734 Z4.000
G1 X1189.240 Y525.786 Z4.000
G1 X1186.736 Y524.953 Z4.000
G1 X1184.058 Y524.252 Z4.000
G1 X1181.198 Y523.696 Z4.000
G1 X1178.142 Y523.300 Z4.000
G1 X1174.880 Y523.078 Z4.000
G1 X1171.339 Y523.045 Z4.000
G1 X1167.827 Y523.205 Z4.000
G1 X1164.536 Y523.549 Z4.000
G1 X1161.460 Y524.068 Z4.000
G1 X1158.591 Y524.751 Z4.000
G1 X1155.922 Y525.589 Z4.000
G1 X1153.446 Y526.573 Z4.000
G1 X1151.156 Y527.694 Z4.000
G1 X1149.044 Y528.941 Z4.000
G1 X1147.103 Y530.305 Z4.000
G1 X1145.327 Y531.777 Z4.000
G1 X1143.706 Y533.347 Z4.000
G1 X1142.236 Y535.006 Z4.000
G1 X1140.908 Y536.745 Z4.000
G1 X1139.714 Y538.553 Z4.000
G1 X1138.649 Y540.421 Z4.000
G1 X1137.704 Y542.340 Z4.000
G1 X1136.872 Y544.300 Z4.000
G1 X1135.910 Y546.958 Z4.000
G1 X1134.811 Y551.010 Z4.000
G1 X1134.039 Y555.063 Z4.000
G1 X1133.538 Y559.040 Z4.000
G1 X1133.248 Y562.866 Z4.000
G1 X1133.075 Y567.649 Z4.000
G1 X1133.075 Y571.728 Z4.000
G1 X1133.075 Y661.334 Z4.000
G0 X1133.075 Y661.334 Z0.000

(shape postamble)


(shape preamble)

G0 X1207.684 Y663.450 Z0.000
G1 X1207.684 Y663.450 Z4.000
G1 X1207.684 Y663.759 Z4.000
G1 X1207.518 Y664.958 Z4.000
G1 X1207.145 Y666.436 Z4.000
G1 X1206.558 Y668.143 Z4.000
G1 X1205.750 Y670.029 Z4.000
G1 X1204.712 Y672.043 Z4.000
G1 X1203.438 Y674.134 Z4.000
G1 X1201.918 Y676.251 Z4.000
G1 X1200.147 Y678.344 Z4.000
G1 X1198.116 Y680.363 Z4.000
G1 X1195.818 Y682.256 Z4.000
G1 X1193.245 Y683.973 Z4.000
G1 X1190.389 Y685.463 Z4.000
G1 X1187.243 Y686.676 Z4.000
G1 X1184.382 Y687.424 Z4.000
G1 X1182.572 Y687.759 Z4.000
G1 X1180.685 Y687.995 Z4.000
G1 X1178.720 Y688.126 Z4.000
G1 X1176.501 Y688.145 Z4.000
G1 X1174.053 Y688.032 Z4.000
G1 X1171.759 Y687.789 Z4.000
G1 X1169.615 Y687.423 Z4.000
G1 X1167.616 Y686.940 Z4.000
G1 X1165.756 Y686.348 Z4.000
G1 X1164.030 Y685.652 Z4.000
G1 X1162.434 Y684.859 Z4.000
G1 X1160.962 Y683.976 Z4.000
G1 X1159.609 Y683.010 Z4.000
G1 X1158.371 Y681.966 Z4.000
G1 X1157.242 Y680.853 Z4.000
G1 X1156.217 Y679.675 Z4.000
G1 X1155.291 Y678.440 Z4.000
G1 X1154.187 Y676.724 Z4.000
G1 X1152.843 Y674.001 Z4.000
G1 X1151.808 Y671.163 Z4.000
G1 X1151.042 Y668.263 Z4.000
G1 X1150.504 Y665.354 Z4.000
G1 X1150.155 Y662.488 Z4.000
G1 X1149.953 Y659.719 Z4.000
G1 X1149.832 Y656.235 Z4.000
G1 X1149.832 Y653.220 Z4.000
G1 X1149.832 Y569.611 Z4.000
G1 X1149.909 Y565.477 Z4.000
G1 X1150.063 Y562.809 Z4.000
G1 X1150.346 Y560.042 Z4.000
G1 X1150.796 Y557.226 Z4.000
G1 X1151.452 Y554.409 Z4.000
G1 X1152.352 Y551.642 Z4.000
G1 X1153.535 Y548.974 Z4.000
G1 X1154.779 Y546.870 Z4.000
G1 X1155.634 Y545.665 Z4.000
G1 X1156.582 Y544.515 Z4.000
G1 X1157.629 Y543.424 Z4.000
G1 X1158.778 Y542.399 Z4.000
G1 X1160.035 Y541.447 Z4.000
G1 X1161.404 Y540.573 Z4.000
G1 X1162.891 Y539.784 Z4.000
G1 X1164.499 Y539.086 Z4.000
G1 X1166.235 Y538.486 Z4.000
G1 X1168.103 Y537.988 Z4.000
G1 X1170.107 Y537.600 Z4.000
G1 X1172.253 Y537.328 Z4.000
G1 X1174.545 Y537.178 Z4.000
G1 X1176.888 Y537.156 Z4.000
G1 X1178.986 Y537.259 Z4.000
G1 X1180.998 Y537.478 Z4.000
G1 X1182.927 Y537.808 Z4.000
G1 X1184.774 Y538.241 Z4.000
G1 X1186.539 Y538.769 Z4.000
G1 X1188.781 Y539.598 Z4.000
G1 X1191.862 Y541.126 Z4.000
G1 X1194.638 Y542.919 Z4.000
G1 X1197.117 Y544.921 Z4.000
G1 X1199.310 Y547.077 Z4.000
G1 X1201.226 Y549.332 Z4.000
G1 X1202.873 Y551.631 Z4.000
G1 X1204.262 Y553.918 Z4.000
G1 X1205.401 Y556.138 Z4.000
G1 X1206.300 Y558.236 Z4.000
G1 X1206.969 Y560.156 Z4.000
G1 X1207.416 Y561.843 Z4.000
G1 X1207.651 Y563.242 Z4.000
G1 X1207.684 Y563.967 Z4.000
G1 X1207.684 Y663.450 Z4.000
G1 X1207.684 Y663.450 Z4.000
G0 X1207.684 Y663.450 Z0.000

(shape postamble)


(shape preamble)

G0 X1250.001 Y700.000 Z0.000
G1 X1250.001 Y700.000 Z4.000
G1 X1250.001 Y690.000 Z4.000
G0 X1250.001 Y690.000 Z0.000

(shape postamble)


(shape preamble)

G0 X1260.001 Y690.000 Z0.000
G1 X1260.001 Y690.000 Z4.000
G1 X1260.001 Y700.000 Z4.000
G1 X1270.001 Y700.000 Z4.000
G1 X1270.001 Y690.000 Z4.000
G1 X1260.001 Y690.000 Z4.000
G1 X1270.001 Y700.000 Z4.000
G0 X1270.001 Y700.000 Z0.000

(shape postamble)


(shape preamble)

G0 X1275.001 Y690.000 Z0.000
G1 X1275.001 Y690.000 Z4.000
G1 X1275.001 Y700.000 Z4.000
G1 X1285.001 Y700.000 Z4.000
G1 X1285.001 Y690.000 Z4.000
G1 X1275.001 Y690.000 Z4.000
G1 X1285.001 Y700.000 Z4.000
G0 X1285.001 Y700.000 Z0.000

(shape postamble)


(shape preamble)

G0 X1290.001 Y690.000 Z0.000
G1 X1290.001 Y690.000 Z4.000
G1 X1290.001 Y700.000 Z4.000
G1 X1300.001 Y700.000 Z4.000
G1 X1300.001 Y690.000 Z4.000
G1 X1290.001 Y690.000 Z4.000
G1 X1300.001 Y700.000 Z4.000
G0 X1300.001 Y700.000 Z0.000

(shape postamble)


(shape preamble)

G0 X1310.001 Y690.000 Z0.000
G1 X1310.001 Y690.000 Z4.000
G1 X1310.001 Y695.000 Z4.000
G1 X1310.001 Y700.000 Z4.000
G1 X1320.001 Y700.000 Z4.000
G1 X1320.001 Y695.000 Z4.000
G1 X1310.001 Y695.000 Z4.000
G0 X1310.001 Y695.000 Z0.000

(shape postamble)


(shape preamble)

G0 X1325.001 Y700.000 Z0.000
G1 X1325.001 Y700.000 Z4.000
G1 X1335.001 Y700.000 Z4.000
G0 X1335.001 Y700.000 Z0.000

(shape postamble)


(shape preamble)

G0 X1330.001 Y700.000 Z0.000
G1 X1330.001 Y700.000 Z4.000
G1 X1330.001 Y690.000 Z4.000
G0 X1330.001 Y690.000 Z0.000

(shape postamble)


(shape preamble)

G0 X1570.001 Y120.000 Z0.000
G1 X1570.001 Y120.000 Z4.000
G1 X1580.001 Y120.000 Z4.000
G1 X1580.001 Y110.000 Z4.000
G1 X1570.001 Y110.000 Z4.000
G1 X1570.001 Y120.000 Z4.000
G0 X1570.001 Y120.000 Z0.000

(shape postamble)


(shape preamble)

G0 X1000.001 Y900.000 Z0.000
G1 X1000.001 Y900.000 Z4.000
G1 X800.001 Y100.000 Z4.000
G0 X800.001 Y100.000 Z0.000

(shape postamble)

 
(postamble)

(home)
G0 0
G0 X0 Y0
