(Created with svg2gcode_grbl)
(https://github.com/arcadeperfect/svg2gcode_grbl)
(forked from svg2gcode by visphat)
(https://github.com/vishpat/svg2gcode)
F4000
(shape preamble)
G0 X80.010 Y99.977 Z0.000
G1 X80.010 Y99.977 Z4.000
G1 X120.015 Y99.977 Z4.000
G0 X120.015 Y99.977 Z0.000
(shape postamble)
(shape preamble)
G0 X100.013 Y119.980 Z0.000
G1 X100.013 Y119.980 Z4.000
G1 X100.013 Y79.975 Z4.000
G0 X100.013 Y79.975 Z0.000
(shape postamble)
(shape preamble)
G0 X885.579 Y493.924 Z0.000
G1 X885.579 Y493.924 Z4.000
G1 X902.477 Y493.924 Z4.000
G1 X903.994 Y493.395 Z4.000
G1 X905.175 Y492.355 Z4.000
G1 X905.890 Y490.935 Z4.000
G1 X906.004 Y489.832 Z4.000
G1 X906.004 Y485.176 Z4.000
G1 X905.475 Y483.659 Z4.000
G1 X904.435 Y482.477 Z4.000
G1 X903.015 Y481.762 Z4.000
G1 X901.912 Y481.648 Z4.000
G1 X885.014 Y481.648 Z4.000
G1 X883.497 Y481.119 Z4.000
G1 X882.315 Y480.078 Z4.000
G1 X881.601 Y478.658 Z4.000
G1 X881.486 Y477.556 Z4.000
G1 X881.486 Y472.899 Z4.000
G1 X882.016 Y471.382 Z4.000
G1 X883.056 Y470.200 Z4.000
G1 X884.476 Y469.486 Z4.000
G1 X885.579 Y469.371 Z4.000
G1 X914.753 Y469.371 Z4.000
G1 X916.270 Y469.900 Z4.000
G1 X917.452 Y470.941 Z4.000
G1 X918.166 Y472.361 Z4.000
G1 X918.281 Y473.463 Z4.000
G1 X918.281 Y502.638 Z4.000
G1 X917.752 Y504.155 Z4.000
G1 X916.711 Y505.337 Z4.000
G1 X915.291 Y506.051 Z4.000
G1 X914.189 Y506.166 Z4.000
G1 X897.256 Y506.166 Z4.000
G1 X895.739 Y506.695 Z4.000
G1 X894.557 Y507.736 Z4.000
G1 X893.842 Y509.156 Z4.000
G1 X893.728 Y510.258 Z4.000
G1 X893.728 Y514.915 Z4.000
G1 X894.257 Y516.432 Z4.000
G1 X895.298 Y517.614 Z4.000
G1 X896.718 Y518.328 Z4.000
G1 X897.820 Y518.443 Z4.000
G1 X914.718 Y518.443 Z4.000
G1 X916.235 Y518.972 Z4.000
G1 X917.417 Y520.012 Z4.000
G1 X918.131 Y521.432 Z4.000
G1 X918.246 Y522.535 Z4.000
G1 X918.246 Y527.191 Z4.000
G1 X917.717 Y528.708 Z4.000
G1 X916.676 Y529.890 Z4.000
G1 X915.256 Y530.605 Z4.000
G1 X914.154 Y530.719 Z4.000
G1 X884.979 Y530.719 Z4.000
G1 X883.462 Y530.190 Z4.000
G1 X882.280 Y529.149 Z4.000
G1 X881.566 Y527.729 Z4.000
G1 X881.451 Y526.627 Z4.000
G1 X881.460 Y497.452 Z4.000
G1 X882.006 Y495.935 Z4.000
G1 X883.054 Y494.754 Z4.000
G1 X884.476 Y494.039 Z4.000
G1 X885.579 Y493.924 Z4.000
G0 X885.579 Y493.924 Z0.000
(shape postamble)
(shape preamble)
G0 X918.281 Y557.178 Z0.000
G1 X918.281 Y557.178 Z4.000
G1 X918.281 Y555.998 Z4.000
G1 X918.667 Y552.526 Z4.000
G1 X919.496 Y549.174 Z4.000
G1 X920.745 Y545.978 Z4.000
G1 X922.391 Y542.978 Z4.000
G1 X924.414 Y540.212 Z4.000
G1 X926.790 Y537.719 Z4.000
G1 X929.498 Y535.537 Z4.000
G1 X932.515 Y533.705 Z4.000
G1 X935.714 Y532.303 Z4.000
G1 X939.031 Y531.345 Z4.000
G1 X942.423 Y530.828 Z4.000
G1 X945.845 Y530.755 Z4.000
G1 X949.251 Y531.123 Z4.000
G1 X952.599 Y531.935 Z4.000
G1 X955.842 Y533.188 Z4.000
G1 X958.938 Y534.885 Z4.000
G1 X961.751 Y536.954 Z4.000
G1 X964.240 Y539.348 Z4.000
G1 X966.383 Y542.028 Z4.000
G1 X968.158 Y544.954 Z4.000
G1 X969.541 Y548.088 Z4.000
G1 X970.513 Y551.393 Z4.000
G1 X971.049 Y554.829 Z4.000
G1 X971.127 Y558.358 Z4.000
G1 X970.741 Y561.829 Z4.000
G1 X969.913 Y565.181 Z4.000
G1 X968.664 Y568.377 Z4.000
G1 X967.017 Y571.377 Z4.000
G1 X964.994 Y574.143 Z4.000
G1 X962.618 Y576.636 Z4.000
G1 X959.911 Y578.818 Z4.000
G1 X956.894 Y580.651 Z4.000
G1 X953.695 Y582.052 Z4.000
G1 X950.377 Y583.011 Z4.000
G1 X946.985 Y583.527 Z4.000
G1 X943.564 Y583.601 Z4.000
G1 X940.157 Y583.232 Z4.000
G1 X936.810 Y582.421 Z4.000
G1 X933.566 Y581.167 Z4.000
G1 X930.471 Y579.471 Z4.000
G1 X927.658 Y577.401 Z4.000
G1 X925.169 Y575.007 Z4.000
G1 X923.026 Y572.328 Z4.000
G1 X921.251 Y569.401 Z4.000
G1 X919.867 Y566.267 Z4.000
G1 X918.896 Y562.962 Z4.000
G1 X918.360 Y559.526 Z4.000
G1 X918.281 Y557.178 Z4.000
G0 X918.281 Y557.178 Z0.000
(shape postamble)
(shape preamble)
G0 X929.288 Y557.178 Z0.000
G1 X929.288 Y557.178 Z4.000
G1 X929.288 Y556.489 Z4.000
G1 X929.513 Y554.464 Z4.000
G1 X930.171 Y551.860 Z4.000
G1 X932.019 Y548.317 Z4.000
G1 X934.252 Y545.825 Z4.000
G1 X935.832 Y544.552 Z4.000
G1 X937.592 Y543.482 Z4.000
G1 X939.459 Y542.665 Z4.000
G1 X942.043 Y541.933 Z4.000
G1 X946.035 Y541.761 Z4.000
G1 X949.310 Y542.450 Z4.000
G1 X951.203 Y543.181 Z4.000
G1 X953.009 Y544.171 Z4.000
G1 X954.650 Y545.378 Z4.000
G1 X956.575 Y547.250 Z4.000
G1 X958.721 Y550.622 Z4.000
G1 X959.762 Y553.803 Z4.000
G1 X960.075 Y555.807 Z4.000
G1 X960.121 Y557.866 Z4.000
G1 X959.895 Y559.891 Z4.000
G1 X959.237 Y562.495 Z4.000
G1 X957.390 Y566.038 Z4.000
G1 X955.156 Y568.530 Z4.000
G1 X953.576 Y569.804 Z4.000
G1 X951.816 Y570.873 Z4.000
G1 X949.950 Y571.690 Z4.000
G1 X947.366 Y572.422 Z4.000
G1 X943.373 Y572.594 Z4.000
G1 X940.098 Y571.906 Z4.000
G1 X938.206 Y571.174 Z4.000
G1 X936.400 Y570.184 Z4.000
G1 X934.758 Y568.977 Z4.000
G1 X932.833 Y567.105 Z4.000
G1 X930.688 Y563.733 Z4.000
G1 X929.646 Y560.553 Z4.000
G1 X929.334 Y558.548 Z4.000
G1 X929.288 Y557.178 Z4.000
G0 X929.288 Y557.178 Z0.000
(shape postamble)

(postamble)
(home)
G0 0
G0 X0 Y0
