(Created with svg2gcode_grbl)
(https://github.com/arcadeperfect/svg2gcode_grbl)
(forked from svg2gcode by visphat)
(https://github.com/vishpat/svg2gcode)
F4000
(shape preamble)
G0 X160.000 Y700.000 Z0.000
G1 X160.000 Y700.000 Z4.000
G1 X160.000 Y698.214 Z4.000
G1 X160.585 Y692.959 Z4.000
G1 X161.839 Y687.884 Z4.000
G1 X163.729 Y683.047 Z4.000
G1 X166.222 Y678.505 Z4.000
G1 X169.284 Y674.318 Z4.000
G1 X172.882 Y670.544 Z4.000
G1 X176.980 Y667.240 Z4.000
G1 X181.547 Y664.466 Z4.000
G1 X186.390 Y662.345 Z4.000
G1 X191.412 Y660.894 Z4.000
G1 X196.547 Y660.112 Z4.000
G1 X201.727 Y660.000 Z4.000
G1 X206.884 Y660.559 Z4.000
G1 X211.951 Y661.787 Z4.000
G1 X216.861 Y663.685 Z4.000
G1 X221.547 Y666.253 Z4.000
G1 X225.806 Y669.386 Z4.000
G1 X229.574 Y673.010 Z4.000
G1 X232.818 Y677.066 Z4.000
G1 X235.504 Y681.496 Z4.000
G1 X237.599 Y686.241 Z4.000
G1 X239.070 Y691.243 Z4.000
G1 X239.881 Y696.445 Z4.000
G1 X240.000 Y701.787 Z4.000
G1 X239.416 Y707.041 Z4.000
G1 X238.161 Y712.117 Z4.000
G1 X236.271 Y716.954 Z4.000
G1 X233.778 Y721.496 Z4.000
G1 X230.716 Y725.683 Z4.000
G1 X227.119 Y729.457 Z4.000
G1 X223.020 Y732.760 Z4.000
G1 X218.453 Y735.535 Z4.000
G1 X213.610 Y737.656 Z4.000
G1 X208.588 Y739.107 Z4.000
G1 X203.453 Y739.889 Z4.000
G1 X198.274 Y740.000 Z4.000
G1 X193.117 Y739.442 Z4.000
G1 X188.049 Y738.214 Z4.000
G1 X183.139 Y736.316 Z4.000
G1 X178.453 Y733.748 Z4.000
G1 X174.195 Y730.615 Z4.000
G1 X170.426 Y726.991 Z4.000
G1 X167.182 Y722.935 Z4.000
G1 X164.496 Y718.505 Z4.000
G1 X162.401 Y713.760 Z4.000
G1 X160.931 Y708.757 Z4.000
G1 X160.119 Y703.556 Z4.000
G1 X160.000 Y700.000 Z4.000
G0 X160.000 Y700.000 Z0.000
(shape postamble)
(shape preamble)
G0 X260.000 Y700.000 Z0.000
G1 X260.000 Y700.000 Z4.000
G1 X260.000 Y698.214 Z4.000
G1 X260.585 Y692.959 Z4.000
G1 X261.839 Y687.884 Z4.000
G1 X263.729 Y683.047 Z4.000
G1 X266.222 Y678.505 Z4.000
G1 X269.284 Y674.318 Z4.000
G1 X272.882 Y670.544 Z4.000
G1 X276.980 Y667.240 Z4.000
G1 X281.547 Y664.466 Z4.000
G1 X286.390 Y662.345 Z4.000
G1 X291.413 Y660.894 Z4.000
G1 X296.547 Y660.112 Z4.000
G1 X301.727 Y660.000 Z4.000
G1 X306.884 Y660.559 Z4.000
G1 X311.951 Y661.787 Z4.000
G1 X316.861 Y663.685 Z4.000
G1 X321.547 Y666.253 Z4.000
G1 X325.806 Y669.386 Z4.000
G1 X329.574 Y673.010 Z4.000
G1 X332.818 Y677.066 Z4.000
G1 X335.504 Y681.496 Z4.000
G1 X337.600 Y686.241 Z4.000
G1 X339.070 Y691.243 Z4.000
G1 X339.881 Y696.445 Z4.000
G1 X340.000 Y701.787 Z4.000
G1 X339.416 Y707.041 Z4.000
G1 X338.162 Y712.117 Z4.000
G1 X336.271 Y716.954 Z4.000
G1 X333.778 Y721.496 Z4.000
G1 X330.716 Y725.683 Z4.000
G1 X327.119 Y729.457 Z4.000
G1 X323.020 Y732.760 Z4.000
G1 X318.453 Y735.535 Z4.000
G1 X313.610 Y737.656 Z4.000
G1 X308.588 Y739.107 Z4.000
G1 X303.453 Y739.889 Z4.000
G1 X298.274 Y740.000 Z4.000
G1 X293.117 Y739.442 Z4.000
G1 X288.049 Y738.214 Z4.000
G1 X283.139 Y736.316 Z4.000
G1 X278.453 Y733.748 Z4.000
G1 X274.195 Y730.615 Z4.000
G1 X270.426 Y726.991 Z4.000
G1 X267.182 Y722.935 Z4.000
G1 X264.496 Y718.505 Z4.000
G1 X262.401 Y713.760 Z4.000
G1 X260.931 Y708.757 Z4.000
G1 X260.119 Y703.556 Z4.000
G1 X260.000 Y700.000 Z4.000
G0 X260.000 Y700.000 Z0.000
(shape postamble)
(shape preamble)
G0 X360.000 Y700.000 Z0.000
G1 X360.000 Y700.000 Z4.000
G1 X360.000 Y698.214 Z4.000
G1 X360.585 Y692.959 Z4.000
G1 X361.839 Y687.884 Z4.000
G1 X363.729 Y683.047 Z4.000
G1 X366.222 Y678.505 Z4.000
G1 X369.284 Y674.318 Z4.000
G1 X372.882 Y670.544 Z4.000
G1 X376.980 Y667.240 Z4.000
G1 X381.547 Y664.466 Z4.000
G1 X386.390 Y662.345 Z4.000
G1 X391.413 Y660.894 Z4.000
G1 X396.547 Y660.112 Z4.000
G1 X401.727 Y660.000 Z4.000
G1 X406.884 Y660.559 Z4.000
G1 X411.951 Y661.787 Z4.000
G1 X416.861 Y663.685 Z4.000
G1 X421.547 Y666.253 Z4.000
G1 X425.806 Y669.386 Z4.000
G1 X429.574 Y673.010 Z4.000
G1 X432.818 Y677.066 Z4.000
G1 X435.505 Y681.496 Z4.000
G1 X437.600 Y686.241 Z4.000
G1 X439.070 Y691.243 Z4.000
G1 X439.881 Y696.445 Z4.000
G1 X440.000 Y701.787 Z4.000
G1 X439.416 Y707.041 Z4.000
G1 X438.162 Y712.117 Z4.000
G1 X436.271 Y716.954 Z4.000
G1 X433.778 Y721.496 Z4.000
G1 X430.716 Y725.683 Z4.000
G1 X427.119 Y729.457 Z4.000
G1 X423.020 Y732.760 Z4.000
G1 X418.453 Y735.535 Z4.000
G1 X413.610 Y737.656 Z4.000
G1 X408.588 Y739.107 Z4.000
G1 X403.453 Y739.889 Z4.000
G1 X398.274 Y740.000 Z4.000
G1 X393.117 Y739.442 Z4.000
G1 X388.049 Y738.214 Z4.000
G1 X383.139 Y736.316 Z4.000
G1 X378.453 Y733.748 Z4.000
G1 X374.195 Y730.615 Z4.000
G1 X370.427 Y726.991 Z4.000
G1 X367.182 Y722.935 Z4.000
G1 X364.496 Y718.505 Z4.000
G1 X362.401 Y713.760 Z4.000
G1 X360.931 Y708.757 Z4.000
G1 X360.119 Y703.556 Z4.000
G1 X360.000 Y700.000 Z4.000
G0 X360.000 Y700.000 Z0.000
(shape postamble)
(shape preamble)
G0 X460.000 Y700.000 Z0.000
G1 X460.000 Y700.000 Z4.000
G1 X460.000 Y698.214 Z4.000
G1 X460.585 Y692.959 Z4.000
G1 X461.839 Y687.884 Z4.000
G1 X463.729 Y683.047 Z4.000
G1 X466.223 Y678.505 Z4.000
G1 X469.285 Y674.318 Z4.000
G1 X472.882 Y670.544 Z4.000
G1 X476.981 Y667.240 Z4.000
G1 X481.547 Y664.466 Z4.000
G1 X486.390 Y662.345 Z4.000
G1 X491.413 Y660.894 Z4.000
G1 X496.547 Y660.112 Z4.000
G1 X501.727 Y660.000 Z4.000
G1 X506.884 Y660.559 Z4.000
G1 X511.951 Y661.787 Z4.000
G1 X516.861 Y663.685 Z4.000
G1 X521.547 Y666.253 Z4.000
G1 X525.806 Y669.386 Z4.000
G1 X529.574 Y673.010 Z4.000
G1 X532.818 Y677.066 Z4.000
G1 X535.505 Y681.496 Z4.000
G1 X537.600 Y686.241 Z4.000
G1 X539.070 Y691.243 Z4.000
G1 X539.881 Y696.445 Z4.000
G1 X540.000 Y701.787 Z4.000
G1 X539.416 Y707.041 Z4.000
G1 X538.162 Y712.117 Z4.000
G1 X536.271 Y716.954 Z4.000
G1 X533.778 Y721.496 Z4.000
G1 X530.716 Y725.683 Z4.000
G1 X527.119 Y729.457 Z4.000
G1 X523.020 Y732.760 Z4.000
G1 X518.453 Y735.535 Z4.000
G1 X513.610 Y737.656 Z4.000
G1 X508.588 Y739.107 Z4.000
G1 X503.453 Y739.889 Z4.000
G1 X498.274 Y740.000 Z4.000
G1 X493.117 Y739.442 Z4.000
G1 X488.049 Y738.214 Z4.000
G1 X483.139 Y736.316 Z4.000
G1 X478.453 Y733.748 Z4.000
G1 X474.195 Y730.615 Z4.000
G1 X470.427 Y726.991 Z4.000
G1 X467.182 Y722.935 Z4.000
G1 X464.496 Y718.505 Z4.000
G1 X462.401 Y713.760 Z4.000
G1 X460.931 Y708.757 Z4.000
G1 X460.119 Y703.556 Z4.000
G1 X460.000 Y700.000 Z4.000
G0 X460.000 Y700.000 Z0.000
(shape postamble)
(shape preamble)
G0 X160.000 Y600.000 Z0.000
G1 X160.000 Y600.000 Z4.000
G1 X160.000 Y598.214 Z4.000
G1 X160.585 Y592.959 Z4.000
G1 X161.839 Y587.884 Z4.000
G1 X163.729 Y583.047 Z4.000
G1 X166.222 Y578.505 Z4.000
G1 X169.284 Y574.318 Z4.000
G1 X172.882 Y570.544 Z4.000
G1 X176.980 Y567.240 Z4.000
G1 X181.547 Y564.466 Z4.000
G1 X186.390 Y562.345 Z4.000
G1 X191.412 Y560.893 Z4.000
G1 X196.547 Y560.112 Z4.000
G1 X201.727 Y560.000 Z4.000
G1 X206.884 Y560.559 Z4.000
G1 X211.951 Y561.787 Z4.000
G1 X216.861 Y563.685 Z4.000
G1 X221.547 Y566.252 Z4.000
G1 X225.806 Y569.386 Z4.000
G1 X229.574 Y573.010 Z4.000
G1 X232.818 Y577.066 Z4.000
G1 X235.504 Y581.495 Z4.000
G1 X237.599 Y586.241 Z4.000
G1 X239.070 Y591.243 Z4.000
G1 X239.881 Y596.445 Z4.000
G1 X240.000 Y601.787 Z4.000
G1 X239.416 Y607.041 Z4.000
G1 X238.161 Y612.117 Z4.000
G1 X236.271 Y616.954 Z4.000
G1 X233.778 Y621.496 Z4.000
G1 X230.716 Y625.683 Z4.000
G1 X227.119 Y629.457 Z4.000
G1 X223.020 Y632.760 Z4.000
G1 X218.453 Y635.535 Z4.000
G1 X213.610 Y637.656 Z4.000
G1 X208.588 Y639.107 Z4.000
G1 X203.453 Y639.889 Z4.000
G1 X198.274 Y640.000 Z4.000
G1 X193.117 Y639.442 Z4.000
G1 X188.049 Y638.214 Z4.000
G1 X183.139 Y636.316 Z4.000
G1 X178.453 Y633.748 Z4.000
G1 X174.195 Y630.615 Z4.000
G1 X170.426 Y626.991 Z4.000
G1 X167.182 Y622.935 Z4.000
G1 X164.496 Y618.505 Z4.000
G1 X162.401 Y613.760 Z4.000
G1 X160.931 Y608.757 Z4.000
G1 X160.119 Y603.556 Z4.000
G1 X160.000 Y600.000 Z4.000
G0 X160.000 Y600.000 Z0.000
(shape postamble)
(shape preamble)
G0 X260.000 Y600.000 Z0.000
G1 X260.000 Y600.000 Z4.000
G1 X260.000 Y598.214 Z4.000
G1 X260.585 Y592.959 Z4.000
G1 X261.839 Y587.884 Z4.000
G1 X263.729 Y583.047 Z4.000
G1 X266.222 Y578.505 Z4.000
G1 X269.284 Y574.318 Z4.000
G1 X272.882 Y570.544 Z4.000
G1 X276.980 Y567.240 Z4.000
G1 X281.547 Y564.466 Z4.000
G1 X286.390 Y562.345 Z4.000
G1 X291.413 Y560.893 Z4.000
G1 X296.547 Y560.112 Z4.000
G1 X301.727 Y560.000 Z4.000
G1 X306.884 Y560.559 Z4.000
G1 X311.951 Y561.787 Z4.000
G1 X316.861 Y563.685 Z4.000
G1 X321.547 Y566.252 Z4.000
G1 X325.806 Y569.386 Z4.000
G1 X329.574 Y573.010 Z4.000
G1 X332.818 Y577.066 Z4.000
G1 X335.504 Y581.495 Z4.000
G1 X337.600 Y586.241 Z4.000
G1 X339.070 Y591.243 Z4.000
G1 X339.881 Y596.445 Z4.000
G1 X340.000 Y601.787 Z4.000
G1 X339.416 Y607.041 Z4.000
G1 X338.162 Y612.117 Z4.000
G1 X336.271 Y616.954 Z4.000
G1 X333.778 Y621.496 Z4.000
G1 X330.716 Y625.683 Z4.000
G1 X327.119 Y629.457 Z4.000
G1 X323.020 Y632.760 Z4.000
G1 X318.453 Y635.535 Z4.000
G1 X313.610 Y637.656 Z4.000
G1 X308.588 Y639.107 Z4.000
G1 X303.453 Y639.889 Z4.000
G1 X298.274 Y640.000 Z4.000
G1 X293.117 Y639.442 Z4.000
G1 X288.049 Y638.214 Z4.000
G1 X283.139 Y636.316 Z4.000
G1 X278.453 Y633.748 Z4.000
G1 X274.195 Y630.615 Z4.000
G1 X270.426 Y626.991 Z4.000
G1 X267.182 Y622.935 Z4.000
G1 X264.496 Y618.505 Z4.000
G1 X262.401 Y613.760 Z4.000
G1 X260.931 Y608.757 Z4.000
G1 X260.119 Y603.556 Z4.000
G1 X260.000 Y600.000 Z4.000
G0 X260.000 Y600.000 Z0.000
(shape postamble)
(shape preamble)
G0 X360.000 Y600.000 Z0.000
G1 X360.000 Y600.000 Z4.000
G1 X360.000 Y598.214 Z4.000
G1 X360.585 Y592.959 Z4.000
G1 X361.839 Y587.884 Z4.000
G1 X363.729 Y583.047 Z4.000
G1 X366.222 Y578.505 Z4.000
G1 X369.284 Y574.318 Z4.000
G1 X372.882 Y570.544 Z4.000
G1 X376.980 Y567.240 Z4.000
G1 X381.547 Y564.466 Z4.000
G1 X386.390 Y562.345 Z4.000
G1 X391.413 Y560.893 Z4.000
G1 X396.547 Y560.112 Z4.000
G1 X401.727 Y560.000 Z4.000
G1 X406.884 Y560.559 Z4.000
G1 X411.951 Y561.787 Z4.000
G1 X416.861 Y563.685 Z4.000
G1 X421.547 Y566.252 Z4.000
G1 X425.806 Y569.386 Z4.000
G1 X429.574 Y573.010 Z4.000
G1 X432.818 Y577.066 Z4.000
G1 X435.505 Y581.495 Z4.000
G1 X437.600 Y586.241 Z4.000
G1 X439.070 Y591.243 Z4.000
G1 X439.881 Y596.445 Z4.000
G1 X440.000 Y601.787 Z4.000
G1 X439.416 Y607.041 Z4.000
G1 X438.162 Y612.117 Z4.000
G1 X436.271 Y616.954 Z4.000
G1 X433.778 Y621.496 Z4.000
G1 X430.716 Y625.683 Z4.000
G1 X427.119 Y629.457 Z4.000
G1 X423.020 Y632.760 Z4.000
G1 X418.453 Y635.535 Z4.000
G1 X413.610 Y637.656 Z4.000
G1 X408.588 Y639.107 Z4.000
G1 X403.453 Y639.889 Z4.000
G1 X398.274 Y640.000 Z4.000
G1 X393.117 Y639.442 Z4.000
G1 X388.049 Y638.214 Z4.000
G1 X383.139 Y636.316 Z4.000
G1 X378.453 Y633.748 Z4.000
G1 X374.195 Y630.615 Z4.000
G1 X370.427 Y626.991 Z4.000
G1 X367.182 Y622.935 Z4.000
G1 X364.496 Y618.505 Z4.000
G1 X362.401 Y613.760 Z4.000
G1 X360.931 Y608.757 Z4.000
G1 X360.119 Y603.556 Z4.000
G1 X360.000 Y600.000 Z4.000
G0 X360.000 Y600.000 Z0.000
(shape postamble)
(shape preamble)
G0 X460.000 Y600.000 Z0.000
G1 X460.000 Y600.000 Z4.000
G1 X460.000 Y598.214 Z4.000
G1 X460.585 Y592.959 Z4.000
G1 X461.839 Y587.884 Z4.000
G1 X463.729 Y583.047 Z4.000
G1 X466.223 Y578.505 Z4.000
G1 X469.285 Y574.318 Z4.000
G1 X472.882 Y570.544 Z4.000
G1 X476.981 Y567.240 Z4.000
G1 X481.547 Y564.466 Z4.000
G1 X486.390 Y562.345 Z4.000
G1 X491.413 Y560.893 Z4.000
G1 X496.547 Y560.112 Z4.000
G1 X501.727 Y560.000 Z4.000
G1 X506.884 Y560.559 Z4.000
G1 X511.951 Y561.787 Z4.000
G1 X516.861 Y563.685 Z4.000
G1 X521.547 Y566.252 Z4.000
G1 X525.806 Y569.386 Z4.000
G1 X529.574 Y573.010 Z4.000
G1 X532.818 Y577.066 Z4.000
G1 X535.505 Y581.495 Z4.000
G1 X537.600 Y586.241 Z4.000
G1 X539.070 Y591.243 Z4.000
G1 X539.881 Y596.445 Z4.000
G1 X540.000 Y601.787 Z4.000
G1 X539.416 Y607.041 Z4.000
G1 X538.162 Y612.117 Z4.000
G1 X536.271 Y616.954 Z4.000
G1 X533.778 Y621.496 Z4.000
G1 X530.716 Y625.683 Z4.000
G1 X527.119 Y629.457 Z4.000
G1 X523.020 Y632.760 Z4.000
G1 X518.453 Y635.535 Z4.000
G1 X513.610 Y637.656 Z4.000
G1 X508.588 Y639.107 Z4.000
G1 X503.453 Y639.889 Z4.000
G1 X498.274 Y640.000 Z4.000
G1 X493.117 Y639.442 Z4.000
G1 X488.049 Y638.214 Z4.000
G1 X483.139 Y636.316 Z4.000
G1 X478.453 Y633.748 Z4.000
G1 X474.195 Y630.615 Z4.000
G1 X470.427 Y626.991 Z4.000
G1 X467.182 Y622.935 Z4.000
G1 X464.496 Y618.505 Z4.000
G1 X462.401 Y613.760 Z4.000
G1 X460.931 Y608.757 Z4.000
G1 X460.119 Y603.556 Z4.000
G1 X460.000 Y600.000 Z4.000
G0 X460.000 Y600.000 Z0.000
(shape postamble)
(shape preamble)
G0 X160.000 Y500.000 Z0.000
G1 X160.000 Y500.000 Z4.000
G1 X160.000 Y498.214 Z4.000
G1 X160.585 Y492.959 Z4.000
G1 X161.839 Y487.884 Z4.000
G1 X163.729 Y483.046 Z4.000
G1 X166.222 Y478.505 Z4.000
G1 X169.284 Y474.318 Z4.000
G1 X172.882 Y470.544 Z4.000
G1 X176.980 Y467.240 Z4.000
G1 X181.547 Y464.466 Z4.000
G1 X186.390 Y462.345 Z4.000
G1 X191.412 Y460.893 Z4.000
G1 X196.547 Y460.112 Z4.000
G1 X201.727 Y460.000 Z4.000
G1 X206.884 Y460.558 Z4.000
G1 X211.951 Y461.787 Z4.000
G1 X216.861 Y463.685 Z4.000
G1 X221.547 Y466.252 Z4.000
G1 X225.806 Y469.386 Z4.000
G1 X229.574 Y473.010 Z4.000
G1 X232.818 Y477.066 Z4.000
G1 X235.504 Y481.495 Z4.000
G1 X237.599 Y486.241 Z4.000
G1 X239.070 Y491.243 Z4.000
G1 X239.881 Y496.445 Z4.000
G1 X240.000 Y501.787 Z4.000
G1 X239.416 Y507.041 Z4.000
G1 X238.161 Y512.117 Z4.000
G1 X236.271 Y516.954 Z4.000
G1 X233.778 Y521.495 Z4.000
G1 X230.716 Y525.682 Z4.000
G1 X227.119 Y529.457 Z4.000
G1 X223.020 Y532.760 Z4.000
G1 X218.453 Y535.534 Z4.000
G1 X213.610 Y537.656 Z4.000
G1 X208.588 Y539.107 Z4.000
G1 X203.453 Y539.889 Z4.000
G1 X198.274 Y540.000 Z4.000
G1 X193.117 Y539.442 Z4.000
G1 X188.049 Y538.214 Z4.000
G1 X183.139 Y536.316 Z4.000
G1 X178.453 Y533.748 Z4.000
G1 X174.195 Y530.615 Z4.000
G1 X170.426 Y526.991 Z4.000
G1 X167.182 Y522.935 Z4.000
G1 X164.496 Y518.505 Z4.000
G1 X162.401 Y513.760 Z4.000
G1 X160.931 Y508.757 Z4.000
G1 X160.119 Y503.556 Z4.000
G1 X160.000 Y500.000 Z4.000
G0 X160.000 Y500.000 Z0.000
(shape postamble)
(shape preamble)
G0 X260.000 Y500.000 Z0.000
G1 X260.000 Y500.000 Z4.000
G1 X260.000 Y498.214 Z4.000
G1 X260.585 Y492.959 Z4.000
G1 X261.839 Y487.884 Z4.000
G1 X263.729 Y483.046 Z4.000
G1 X266.222 Y478.505 Z4.000
G1 X269.284 Y474.318 Z4.000
G1 X272.882 Y470.544 Z4.000
G1 X276.980 Y467.240 Z4.000
G1 X281.547 Y464.466 Z4.000
G1 X286.390 Y462.345 Z4.000
G1 X291.413 Y460.893 Z4.000
G1 X296.547 Y460.112 Z4.000
G1 X301.727 Y460.000 Z4.000
G1 X306.884 Y460.558 Z4.000
G1 X311.951 Y461.787 Z4.000
G1 X316.861 Y463.685 Z4.000
G1 X321.547 Y466.252 Z4.000
G1 X325.806 Y469.386 Z4.000
G1 X329.574 Y473.010 Z4.000
G1 X332.818 Y477.066 Z4.000
G1 X335.504 Y481.495 Z4.000
G1 X337.600 Y486.241 Z4.000
G1 X339.070 Y491.243 Z4.000
G1 X339.881 Y496.445 Z4.000
G1 X340.000 Y501.787 Z4.000
G1 X339.416 Y507.041 Z4.000
G1 X338.162 Y512.117 Z4.000
G1 X336.271 Y516.954 Z4.000
G1 X333.778 Y521.495 Z4.000
G1 X330.716 Y525.682 Z4.000
G1 X327.119 Y529.457 Z4.000
G1 X323.020 Y532.760 Z4.000
G1 X318.453 Y535.534 Z4.000
G1 X313.610 Y537.656 Z4.000
G1 X308.588 Y539.107 Z4.000
G1 X303.453 Y539.889 Z4.000
G1 X298.274 Y540.000 Z4.000
G1 X293.117 Y539.442 Z4.000
G1 X288.049 Y538.214 Z4.000
G1 X283.139 Y536.316 Z4.000
G1 X278.453 Y533.748 Z4.000
G1 X274.195 Y530.615 Z4.000
G1 X270.426 Y526.991 Z4.000
G1 X267.182 Y522.935 Z4.000
G1 X264.496 Y518.505 Z4.000
G1 X262.401 Y513.760 Z4.000
G1 X260.931 Y508.757 Z4.000
G1 X260.119 Y503.556 Z4.000
G1 X260.000 Y500.000 Z4.000
G0 X260.000 Y500.000 Z0.000
(shape postamble)
(shape preamble)
G0 X360.000 Y500.000 Z0.000
G1 X360.000 Y500.000 Z4.000
G1 X360.000 Y498.214 Z4.000
G1 X360.585 Y492.959 Z4.000
G1 X361.839 Y487.884 Z4.000
G1 X363.729 Y483.046 Z4.000
G1 X366.222 Y478.505 Z4.000
G1 X369.284 Y474.318 Z4.000
G1 X372.882 Y470.544 Z4.000
G1 X376.980 Y467.240 Z4.000
G1 X381.547 Y464.466 Z4.000
G1 X386.390 Y462.345 Z4.000
G1 X391.413 Y460.893 Z4.000
G1 X396.547 Y460.112 Z4.000
G1 X401.727 Y460.000 Z4.000
G1 X406.884 Y460.558 Z4.000
G1 X411.951 Y461.787 Z4.000
G1 X416.861 Y463.685 Z4.000
G1 X421.547 Y466.252 Z4.000
G1 X425.806 Y469.386 Z4.000
G1 X429.574 Y473.010 Z4.000
G1 X432.818 Y477.066 Z4.000
G1 X435.505 Y481.495 Z4.000
G1 X437.600 Y486.241 Z4.000
G1 X439.070 Y491.243 Z4.000
G1 X439.881 Y496.445 Z4.000
G1 X440.000 Y501.787 Z4.000
G1 X439.416 Y507.041 Z4.000
G1 X438.162 Y512.117 Z4.000
G1 X436.271 Y516.954 Z4.000
G1 X433.778 Y521.495 Z4.000
G1 X430.716 Y525.682 Z4.000
G1 X427.119 Y529.457 Z4.000
G1 X423.020 Y532.760 Z4.000
G1 X418.453 Y535.534 Z4.000
G1 X413.610 Y537.656 Z4.000
G1 X408.588 Y539.107 Z4.000
G1 X403.453 Y539.889 Z4.000
G1 X398.274 Y540.000 Z4.000
G1 X393.117 Y539.442 Z4.000
G1 X388.049 Y538.214 Z4.000
G1 X383.139 Y536.316 Z4.000
G1 X378.453 Y533.748 Z4.000
G1 X374.195 Y530.615 Z4.000
G1 X370.427 Y526.991 Z4.000
G1 X367.182 Y522.935 Z4.000
G1 X364.496 Y518.505 Z4.000
G1 X362.401 Y513.760 Z4.000
G1 X360.931 Y508.757 Z4.000
G1 X360.119 Y503.556 Z4.000
G1 X360.000 Y500.000 Z4.000
G0 X360.000 Y500.000 Z0.000
(shape postamble)
(shape preamble)
G0 X460.000 Y500.000 Z0.000
G1 X460.000 Y500.000 Z4.000
G1 X460.000 Y498.214 Z4.000
G1 X460.585 Y492.959 Z4.000
G1 X461.839 Y487.884 Z4.000
G1 X463.729 Y483.046 Z4.000
G1 X466.223 Y478.505 Z4.000
G1 X469.285 Y474.318 Z4.000
G1 X472.882 Y470.544 Z4.000
G1 X476.981 Y467.240 Z4.000
G1 X481.547 Y464.466 Z4.000
G1 X486.390 Y462.345 Z4.000
G1 X491.413 Y460.893 Z4.000
G1 X496.547 Y460.112 Z4.000
G1 X501.727 Y460.000 Z4.000
G1 X506.884 Y460.558 Z4.000
G1 X511.951 Y461.787 Z4.000
G1 X516.861 Y463.685 Z4.000
G1 X521.547 Y466.252 Z4.000
G1 X525.806 Y469.386 Z4.000
G1 X529.574 Y473.010 Z4.000
G1 X532.818 Y477.066 Z4.000
G1 X535.505 Y481.495 Z4.000
G1 X537.600 Y486.241 Z4.000
G1 X539.070 Y491.243 Z4.000
G1 X539.881 Y496.445 Z4.000
G1 X540.000 Y501.787 Z4.000
G1 X539.416 Y507.041 Z4.000
G1 X538.162 Y512.117 Z4.000
G1 X536.271 Y516.954 Z4.000
G1 X533.778 Y521.495 Z4.000
G1 X530.716 Y525.682 Z4.000
G1 X527.119 Y529.457 Z4.000
G1 X523.020 Y532.760 Z4.000
G1 X518.453 Y535.534 Z4.000
G1 X513.610 Y537.656 Z4.000
G1 X508.588 Y539.107 Z4.000
G1 X503.453 Y539.889 Z4.000
G1 X498.274 Y540.000 Z4.000
G1 X493.117 Y539.442 Z4.000
G1 X488.049 Y538.214 Z4.000
G1 X483.139 Y536.316 Z4.000
G1 X478.453 Y533.748 Z4.000
G1 X474.195 Y530.615 Z4.000
G1 X470.427 Y526.991 Z4.000
G1 X467.182 Y522.935 Z4.000
G1 X464.496 Y518.505 Z4.000
G1 X462.401 Y513.760 Z4.000
G1 X460.931 Y508.757 Z4.000
G1 X460.119 Y503.556 Z4.000
G1 X460.000 Y500.000 Z4.000
G0 X460.000 Y500.000 Z0.000
(shape postamble)
(shape preamble)
G0 X160.000 Y400.000 Z0.000
G1 X160.000 Y400.000 Z4.000
G1 X160.000 Y398.214 Z4.000
G1 X160.585 Y392.959 Z4.000
G1 X161.839 Y387.884 Z4.000
G1 X163.729 Y383.046 Z4.000
G1 X166.222 Y378.505 Z4.000
G1 X169.284 Y374.318 Z4.000
G1 X172.882 Y370.544 Z4.000
G1 X176.980 Y367.240 Z4.000
G1 X181.547 Y364.466 Z4.000
G1 X186.390 Y362.345 Z4.000
G1 X191.412 Y360.893 Z4.000
G1 X196.547 Y360.112 Z4.000
G1 X201.727 Y360.000 Z4.000
G1 X206.884 Y360.558 Z4.000
G1 X211.951 Y361.787 Z4.000
G1 X216.861 Y363.684 Z4.000
G1 X221.547 Y366.252 Z4.000
G1 X225.806 Y369.386 Z4.000
G1 X229.574 Y373.010 Z4.000
G1 X232.818 Y377.066 Z4.000
G1 X235.504 Y381.495 Z4.000
G1 X237.599 Y386.241 Z4.000
G1 X239.070 Y391.243 Z4.000
G1 X239.881 Y396.444 Z4.000
G1 X240.000 Y401.787 Z4.000
G1 X239.416 Y407.041 Z4.000
G1 X238.161 Y412.117 Z4.000
G1 X236.271 Y416.954 Z4.000
G1 X233.778 Y421.495 Z4.000
G1 X230.716 Y425.682 Z4.000
G1 X227.119 Y429.457 Z4.000
G1 X223.020 Y432.760 Z4.000
G1 X218.453 Y435.534 Z4.000
G1 X213.610 Y437.656 Z4.000
G1 X208.588 Y439.107 Z4.000
G1 X203.453 Y439.889 Z4.000
G1 X198.274 Y440.000 Z4.000
G1 X193.117 Y439.442 Z4.000
G1 X188.049 Y438.214 Z4.000
G1 X183.139 Y436.316 Z4.000
G1 X178.453 Y433.748 Z4.000
G1 X174.195 Y430.615 Z4.000
G1 X170.426 Y426.991 Z4.000
G1 X167.182 Y422.935 Z4.000
G1 X164.496 Y418.505 Z4.000
G1 X162.401 Y413.760 Z4.000
G1 X160.931 Y408.757 Z4.000
G1 X160.119 Y403.556 Z4.000
G1 X160.000 Y400.000 Z4.000
G0 X160.000 Y400.000 Z0.000
(shape postamble)
(shape preamble)
G0 X260.000 Y400.000 Z0.000
G1 X260.000 Y400.000 Z4.000
G1 X260.000 Y398.214 Z4.000
G1 X260.585 Y392.959 Z4.000
G1 X261.839 Y387.884 Z4.000
G1 X263.729 Y383.046 Z4.000
G1 X266.222 Y378.505 Z4.000
G1 X269.284 Y374.318 Z4.000
G1 X272.882 Y370.544 Z4.000
G1 X276.980 Y367.240 Z4.000
G1 X281.547 Y364.466 Z4.000
G1 X286.390 Y362.345 Z4.000
G1 X291.413 Y360.893 Z4.000
G1 X296.547 Y360.112 Z4.000
G1 X301.727 Y360.000 Z4.000
G1 X306.884 Y360.558 Z4.000
G1 X311.951 Y361.787 Z4.000
G1 X316.861 Y363.684 Z4.000
G1 X321.547 Y366.252 Z4.000
G1 X325.806 Y369.386 Z4.000
G1 X329.574 Y373.010 Z4.000
G1 X332.818 Y377.066 Z4.000
G1 X335.504 Y381.495 Z4.000
G1 X337.600 Y386.241 Z4.000
G1 X339.070 Y391.243 Z4.000
G1 X339.881 Y396.444 Z4.000
G1 X340.000 Y401.787 Z4.000
G1 X339.416 Y407.041 Z4.000
G1 X338.162 Y412.117 Z4.000
G1 X336.271 Y416.954 Z4.000
G1 X333.778 Y421.495 Z4.000
G1 X330.716 Y425.682 Z4.000
G1 X327.119 Y429.457 Z4.000
G1 X323.020 Y432.760 Z4.000
G1 X318.453 Y435.534 Z4.000
G1 X313.610 Y437.656 Z4.000
G1 X308.588 Y439.107 Z4.000
G1 X303.453 Y439.889 Z4.000
G1 X298.274 Y440.000 Z4.000
G1 X293.117 Y439.442 Z4.000
G1 X288.049 Y438.214 Z4.000
G1 X283.139 Y436.316 Z4.000
G1 X278.453 Y433.748 Z4.000
G1 X274.195 Y430.615 Z4.000
G1 X270.426 Y426.991 Z4.000
G1 X267.182 Y422.935 Z4.000
G1 X264.496 Y418.505 Z4.000
G1 X262.401 Y413.760 Z4.000
G1 X260.931 Y408.757 Z4.000
G1 X260.119 Y403.556 Z4.000
G1 X260.000 Y400.000 Z4.000
G0 X260.000 Y400.000 Z0.000
(shape postamble)
(shape preamble)
G0 X360.000 Y400.000 Z0.000
G1 X360.000 Y400.000 Z4.000
G1 X360.000 Y398.214 Z4.000
G1 X360.585 Y392.959 Z4.000
G1 X361.839 Y387.884 Z4.000
G1 X363.729 Y383.046 Z4.000
G1 X366.222 Y378.505 Z4.000
G1 X369.284 Y374.318 Z4.000
G1 X372.882 Y370.544 Z4.000
G1 X376.980 Y367.240 Z4.000
G1 X381.547 Y364.466 Z4.000
G1 X386.390 Y362.345 Z4.000
G1 X391.413 Y360.893 Z4.000
G1 X396.547 Y360.112 Z4.000
G1 X401.727 Y360.000 Z4.000
G1 X406.884 Y360.558 Z4.000
G1 X411.951 Y361.787 Z4.000
G1 X416.861 Y363.684 Z4.000
G1 X421.547 Y366.252 Z4.000
G1 X425.806 Y369.386 Z4.000
G1 X429.574 Y373.010 Z4.000
G1 X432.818 Y377.066 Z4.000
G1 X435.505 Y381.495 Z4.000
G1 X437.600 Y386.241 Z4.000
G1 X439.070 Y391.243 Z4.000
G1 X439.881 Y396.444 Z4.000
G1 X440.000 Y401.787 Z4.000
G1 X439.416 Y407.041 Z4.000
G1 X438.162 Y412.117 Z4.000
G1 X436.271 Y416.954 Z4.000
G1 X433.778 Y421.495 Z4.000
G1 X430.716 Y425.682 Z4.000
G1 X427.119 Y429.457 Z4.000
G1 X423.020 Y432.760 Z4.000
G1 X418.453 Y435.534 Z4.000
G1 X413.610 Y437.656 Z4.000
G1 X408.588 Y439.107 Z4.000
G1 X403.453 Y439.889 Z4.000
G1 X398.274 Y440.000 Z4.000
G1 X393.117 Y439.442 Z4.000
G1 X388.049 Y438.214 Z4.000
G1 X383.139 Y436.316 Z4.000
G1 X378.453 Y433.748 Z4.000
G1 X374.195 Y430.615 Z4.000
G1 X370.427 Y426.991 Z4.000
G1 X367.182 Y422.935 Z4.000
G1 X364.496 Y418.505 Z4.000
G1 X362.401 Y413.760 Z4.000
G1 X360.931 Y408.757 Z4.000
G1 X360.119 Y403.556 Z4.000
G1 X360.000 Y400.000 Z4.000
G0 X360.000 Y400.000 Z0.000
(shape postamble)
(shape preamble)
G0 X460.000 Y400.000 Z0.000
G1 X460.000 Y400.000 Z4.000
G1 X460.000 Y398.214 Z4.000
G1 X460.585 Y392.959 Z4.000
G1 X461.839 Y387.884 Z4.000
G1 X463.729 Y383.046 Z4.000
G1 X466.223 Y378.505 Z4.000
G1 X469.285 Y374.318 Z4.000
G1 X472.882 Y370.544 Z4.000
G1 X476.981 Y367.240 Z4.000
G1 X481.547 Y364.466 Z4.000
G1 X486.390 Y362.345 Z4.000
G1 X491.413 Y360.893 Z4.000
G1 X496.547 Y360.112 Z4.000
G1 X501.727 Y360.000 Z4.000
G1 X506.884 Y360.558 Z4.000
G1 X511.951 Y361.787 Z4.000
G1 X516.861 Y363.684 Z4.000
G1 X521.547 Y366.252 Z4.000
G1 X525.806 Y369.386 Z4.000
G1 X529.574 Y373.010 Z4.000
G1 X532.818 Y377.066 Z4.000
G1 X535.505 Y381.495 Z4.000
G1 X537.600 Y386.241 Z4.000
G1 X539.070 Y391.243 Z4.000
G1 X539.881 Y396.444 Z4.000
G1 X540.000 Y401.787 Z4.000
G1 X539.416 Y407.041 Z4.000
G1 X538.162 Y412.117 Z4.000
G1 X536.271 Y416.954 Z4.000
G1 X533.778 Y421.495 Z4.000
G1 X530.716 Y425.682 Z4.000
G1 X527.119 Y429.457 Z4.000
G1 X523.020 Y432.760 Z4.000
G1 X518.453 Y435.534 Z4.000
G1 X513.610 Y437.656 Z4.000
G1 X508.588 Y439.107 Z4.000
G1 X503.453 Y439.889 Z4.000
G1 X498.274 Y440.000 Z4.000
G1 X493.117 Y439.442 Z4.000
G1 X488.049 Y438.214 Z4.000
G1 X483.139 Y436.316 Z4.000
G1 X478.453 Y433.748 Z4.000
G1 X474.195 Y430.615 Z4.000
G1 X470.427 Y426.991 Z4.000
G1 X467.182 Y422.935 Z4.000
G1 X464.496 Y418.505 Z4.000
G1 X462.401 Y413.760 Z4.000
G1 X460.931 Y408.757 Z4.000
G1 X460.119 Y403.556 Z4.000
G1 X460.000 Y400.000 Z4.000
G0 X460.000 Y400.000 Z0.000
(shape postamble)
(shape preamble)
G0 X580.000 Y700.000 Z0.000
G1 X580.000 Y700.000 Z4.000
G1 X580.000 Y699.107 Z4.000
G1 X580.293 Y696.480 Z4.000
G1 X580.920 Y693.942 Z4.000
G1 X581.865 Y691.523 Z4.000
G1 X583.111 Y689.253 Z4.000
G1 X584.642 Y687.159 Z4.000
G1 X586.441 Y685.272 Z4.000
G1 X588.490 Y683.620 Z4.000
G1 X590.774 Y682.233 Z4.000
G1 X593.195 Y681.173 Z4.000
G1 X595.707 Y680.447 Z4.000
G1 X598.274 Y680.056 Z4.000
G1 X600.864 Y680.000 Z4.000
G1 X603.442 Y680.279 Z4.000
G1 X605.976 Y680.894 Z4.000
G1 X608.431 Y681.843 Z4.000
G1 X610.774 Y683.126 Z4.000
G1 X612.903 Y684.693 Z4.000
G1 X614.787 Y686.505 Z4.000
G1 X616.409 Y688.533 Z4.000
G1 X617.753 Y690.748 Z4.000
G1 X618.800 Y693.121 Z4.000
G1 X619.535 Y695.622 Z4.000
G1 X619.941 Y698.223 Z4.000
G1 X620.000 Y700.894 Z4.000
G1 X619.708 Y703.521 Z4.000
G1 X619.081 Y706.059 Z4.000
G1 X618.136 Y708.477 Z4.000
G1 X616.889 Y710.748 Z4.000
G1 X615.358 Y712.841 Z4.000
G1 X613.560 Y714.729 Z4.000
G1 X611.510 Y716.380 Z4.000
G1 X609.227 Y717.767 Z4.000
G1 X606.805 Y718.828 Z4.000
G1 X604.294 Y719.554 Z4.000
G1 X601.727 Y719.945 Z4.000
G1 X599.137 Y720.000 Z4.000
G1 X596.559 Y719.721 Z4.000
G1 X594.025 Y719.107 Z4.000
G1 X591.570 Y718.158 Z4.000
G1 X589.227 Y716.874 Z4.000
G1 X587.098 Y715.308 Z4.000
G1 X585.214 Y713.496 Z4.000
G1 X583.591 Y711.468 Z4.000
G1 X582.248 Y709.253 Z4.000
G1 X581.201 Y706.880 Z4.000
G1 X580.466 Y704.379 Z4.000
G1 X580.060 Y701.778 Z4.000
G1 X580.000 Y700.000 Z4.000
G0 X580.000 Y700.000 Z0.000
(shape postamble)
(shape preamble)
G0 X630.000 Y700.000 Z0.000
G1 X630.000 Y700.000 Z4.000
G1 X630.000 Y699.107 Z4.000
G1 X630.293 Y696.480 Z4.000
G1 X630.920 Y693.942 Z4.000
G1 X631.865 Y691.523 Z4.000
G1 X633.112 Y689.253 Z4.000
G1 X634.643 Y687.159 Z4.000
G1 X636.441 Y685.272 Z4.000
G1 X638.491 Y683.620 Z4.000
G1 X640.774 Y682.233 Z4.000
G1 X643.195 Y681.173 Z4.000
G1 X645.707 Y680.447 Z4.000
G1 X648.274 Y680.056 Z4.000
G1 X650.864 Y680.000 Z4.000
G1 X653.442 Y680.279 Z4.000
G1 X655.976 Y680.894 Z4.000
G1 X658.431 Y681.843 Z4.000
G1 X660.774 Y683.126 Z4.000
G1 X662.903 Y684.693 Z4.000
G1 X664.787 Y686.505 Z4.000
G1 X666.409 Y688.533 Z4.000
G1 X667.753 Y690.748 Z4.000
G1 X668.800 Y693.121 Z4.000
G1 X669.535 Y695.622 Z4.000
G1 X669.941 Y698.223 Z4.000
G1 X670.000 Y700.894 Z4.000
G1 X669.708 Y703.521 Z4.000
G1 X669.081 Y706.059 Z4.000
G1 X668.136 Y708.477 Z4.000
G1 X666.889 Y710.748 Z4.000
G1 X665.358 Y712.841 Z4.000
G1 X663.560 Y714.729 Z4.000
G1 X661.510 Y716.380 Z4.000
G1 X659.227 Y717.767 Z4.000
G1 X656.805 Y718.828 Z4.000
G1 X654.294 Y719.554 Z4.000
G1 X651.727 Y719.945 Z4.000
G1 X649.137 Y720.000 Z4.000
G1 X646.559 Y719.721 Z4.000
G1 X644.025 Y719.107 Z4.000
G1 X641.570 Y718.158 Z4.000
G1 X639.227 Y716.874 Z4.000
G1 X637.098 Y715.308 Z4.000
G1 X635.214 Y713.496 Z4.000
G1 X633.591 Y711.468 Z4.000
G1 X632.248 Y709.253 Z4.000
G1 X631.201 Y706.880 Z4.000
G1 X630.466 Y704.379 Z4.000
G1 X630.060 Y701.778 Z4.000
G1 X630.000 Y700.000 Z4.000
G0 X630.000 Y700.000 Z0.000
(shape postamble)
(shape preamble)
G0 X680.000 Y700.000 Z0.000
G1 X680.000 Y700.000 Z4.000
G1 X680.000 Y699.107 Z4.000
G1 X680.293 Y696.480 Z4.000
G1 X680.920 Y693.942 Z4.000
G1 X681.865 Y691.523 Z4.000
G1 X683.112 Y689.253 Z4.000
G1 X684.643 Y687.159 Z4.000
G1 X686.441 Y685.272 Z4.000
G1 X688.491 Y683.620 Z4.000
G1 X690.774 Y682.233 Z4.000
G1 X693.195 Y681.173 Z4.000
G1 X695.707 Y680.447 Z4.000
G1 X698.274 Y680.056 Z4.000
G1 X700.864 Y680.000 Z4.000
G1 X703.442 Y680.279 Z4.000
G1 X705.976 Y680.894 Z4.000
G1 X708.431 Y681.843 Z4.000
G1 X710.774 Y683.126 Z4.000
G1 X712.903 Y684.693 Z4.000
G1 X714.787 Y686.505 Z4.000
G1 X716.409 Y688.533 Z4.000
G1 X717.753 Y690.748 Z4.000
G1 X718.800 Y693.121 Z4.000
G1 X719.535 Y695.622 Z4.000
G1 X719.941 Y698.223 Z4.000
G1 X720.000 Y700.894 Z4.000
G1 X719.708 Y703.521 Z4.000
G1 X719.081 Y706.059 Z4.000
G1 X718.136 Y708.477 Z4.000
G1 X716.889 Y710.748 Z4.000
G1 X715.358 Y712.841 Z4.000
G1 X713.560 Y714.729 Z4.000
G1 X711.510 Y716.380 Z4.000
G1 X709.227 Y717.767 Z4.000
G1 X706.805 Y718.828 Z4.000
G1 X704.294 Y719.554 Z4.000
G1 X701.727 Y719.945 Z4.000
G1 X699.137 Y720.000 Z4.000
G1 X696.559 Y719.721 Z4.000
G1 X694.025 Y719.107 Z4.000
G1 X691.570 Y718.158 Z4.000
G1 X689.227 Y716.874 Z4.000
G1 X687.098 Y715.308 Z4.000
G1 X685.214 Y713.496 Z4.000
G1 X683.592 Y711.468 Z4.000
G1 X682.248 Y709.253 Z4.000
G1 X681.201 Y706.880 Z4.000
G1 X680.466 Y704.379 Z4.000
G1 X680.060 Y701.778 Z4.000
G1 X680.000 Y700.000 Z4.000
G0 X680.000 Y700.000 Z0.000
(shape postamble)
(shape preamble)
G0 X730.000 Y700.000 Z0.000
G1 X730.000 Y700.000 Z4.000
G1 X730.000 Y699.107 Z4.000
G1 X730.293 Y696.480 Z4.000
G1 X730.920 Y693.942 Z4.000
G1 X731.865 Y691.523 Z4.000
G1 X733.112 Y689.253 Z4.000
G1 X734.643 Y687.159 Z4.000
G1 X736.441 Y685.272 Z4.000
G1 X738.491 Y683.620 Z4.000
G1 X740.774 Y682.233 Z4.000
G1 X743.195 Y681.173 Z4.000
G1 X745.707 Y680.447 Z4.000
G1 X748.274 Y680.056 Z4.000
G1 X750.864 Y680.000 Z4.000
G1 X753.442 Y680.279 Z4.000
G1 X755.976 Y680.894 Z4.000
G1 X758.431 Y681.843 Z4.000
G1 X760.774 Y683.126 Z4.000
G1 X762.903 Y684.693 Z4.000
G1 X764.787 Y686.505 Z4.000
G1 X766.409 Y688.533 Z4.000
G1 X767.753 Y690.748 Z4.000
G1 X768.800 Y693.121 Z4.000
G1 X769.535 Y695.622 Z4.000
G1 X769.941 Y698.223 Z4.000
G1 X770.000 Y700.894 Z4.000
G1 X769.708 Y703.521 Z4.000
G1 X769.081 Y706.059 Z4.000
G1 X768.136 Y708.477 Z4.000
G1 X766.889 Y710.748 Z4.000
G1 X765.358 Y712.841 Z4.000
G1 X763.560 Y714.729 Z4.000
G1 X761.510 Y716.380 Z4.000
G1 X759.227 Y717.767 Z4.000
G1 X756.805 Y718.828 Z4.000
G1 X754.294 Y719.554 Z4.000
G1 X751.727 Y719.945 Z4.000
G1 X749.137 Y720.000 Z4.000
G1 X746.559 Y719.721 Z4.000
G1 X744.025 Y719.107 Z4.000
G1 X741.570 Y718.158 Z4.000
G1 X739.227 Y716.874 Z4.000
G1 X737.098 Y715.308 Z4.000
G1 X735.214 Y713.496 Z4.000
G1 X733.591 Y711.468 Z4.000
G1 X732.248 Y709.253 Z4.000
G1 X731.201 Y706.880 Z4.000
G1 X730.466 Y704.379 Z4.000
G1 X730.060 Y701.778 Z4.000
G1 X730.000 Y700.000 Z4.000
G0 X730.000 Y700.000 Z0.000
(shape postamble)
(shape preamble)
G0 X580.000 Y650.000 Z0.000
G1 X580.000 Y650.000 Z4.000
G1 X580.000 Y649.107 Z4.000
G1 X580.293 Y646.480 Z4.000
G1 X580.920 Y643.942 Z4.000
G1 X581.865 Y641.523 Z4.000
G1 X583.111 Y639.253 Z4.000
G1 X584.642 Y637.159 Z4.000
G1 X586.441 Y635.272 Z4.000
G1 X588.490 Y633.620 Z4.000
G1 X590.774 Y632.233 Z4.000
G1 X593.195 Y631.173 Z4.000
G1 X595.707 Y630.447 Z4.000
G1 X598.274 Y630.056 Z4.000
G1 X600.864 Y630.000 Z4.000
G1 X603.442 Y630.279 Z4.000
G1 X605.976 Y630.894 Z4.000
G1 X608.431 Y631.842 Z4.000
G1 X610.774 Y633.126 Z4.000
G1 X612.903 Y634.693 Z4.000
G1 X614.787 Y636.505 Z4.000
G1 X616.409 Y638.533 Z4.000
G1 X617.753 Y640.748 Z4.000
G1 X618.800 Y643.121 Z4.000
G1 X619.535 Y645.622 Z4.000
G1 X619.941 Y648.222 Z4.000
G1 X620.000 Y650.894 Z4.000
G1 X619.708 Y653.521 Z4.000
G1 X619.081 Y656.059 Z4.000
G1 X618.136 Y658.477 Z4.000
G1 X616.889 Y660.748 Z4.000
G1 X615.358 Y662.841 Z4.000
G1 X613.560 Y664.729 Z4.000
G1 X611.510 Y666.380 Z4.000
G1 X609.227 Y667.767 Z4.000
G1 X606.805 Y668.828 Z4.000
G1 X604.294 Y669.554 Z4.000
G1 X601.727 Y669.945 Z4.000
G1 X599.137 Y670.000 Z4.000
G1 X596.559 Y669.721 Z4.000
G1 X594.025 Y669.107 Z4.000
G1 X591.570 Y668.158 Z4.000
G1 X589.227 Y666.874 Z4.000
G1 X587.098 Y665.308 Z4.000
G1 X585.214 Y663.496 Z4.000
G1 X583.591 Y661.468 Z4.000
G1 X582.248 Y659.253 Z4.000
G1 X581.201 Y656.880 Z4.000
G1 X580.466 Y654.379 Z4.000
G1 X580.060 Y651.778 Z4.000
G1 X580.000 Y650.000 Z4.000
G0 X580.000 Y650.000 Z0.000
(shape postamble)
(shape preamble)
G0 X630.000 Y650.000 Z0.000
G1 X630.000 Y650.000 Z4.000
G1 X630.000 Y649.107 Z4.000
G1 X630.293 Y646.480 Z4.000
G1 X630.920 Y643.942 Z4.000
G1 X631.865 Y641.523 Z4.000
G1 X633.112 Y639.253 Z4.000
G1 X634.643 Y637.159 Z4.000
G1 X636.441 Y635.272 Z4.000
G1 X638.491 Y633.620 Z4.000
G1 X640.774 Y632.233 Z4.000
G1 X643.195 Y631.173 Z4.000
G1 X645.707 Y630.447 Z4.000
G1 X648.274 Y630.056 Z4.000
G1 X650.864 Y630.000 Z4.000
G1 X653.442 Y630.279 Z4.000
G1 X655.976 Y630.893 Z4.000
G1 X658.431 Y631.842 Z4.000
G1 X660.774 Y633.126 Z4.000
G1 X662.903 Y634.693 Z4.000
G1 X664.787 Y636.505 Z4.000
G1 X666.409 Y638.533 Z4.000
G1 X667.753 Y640.748 Z4.000
G1 X668.800 Y643.121 Z4.000
G1 X669.535 Y645.622 Z4.000
G1 X669.941 Y648.222 Z4.000
G1 X670.000 Y650.894 Z4.000
G1 X669.708 Y653.521 Z4.000
G1 X669.081 Y656.059 Z4.000
G1 X668.136 Y658.477 Z4.000
G1 X666.889 Y660.748 Z4.000
G1 X665.358 Y662.841 Z4.000
G1 X663.560 Y664.729 Z4.000
G1 X661.510 Y666.380 Z4.000
G1 X659.227 Y667.767 Z4.000
G1 X656.805 Y668.828 Z4.000
G1 X654.294 Y669.554 Z4.000
G1 X651.727 Y669.945 Z4.000
G1 X649.137 Y670.000 Z4.000
G1 X646.559 Y669.721 Z4.000
G1 X644.025 Y669.107 Z4.000
G1 X641.570 Y668.158 Z4.000
G1 X639.227 Y666.874 Z4.000
G1 X637.098 Y665.308 Z4.000
G1 X635.214 Y663.496 Z4.000
G1 X633.591 Y661.468 Z4.000
G1 X632.248 Y659.253 Z4.000
G1 X631.201 Y656.880 Z4.000
G1 X630.466 Y654.379 Z4.000
G1 X630.060 Y651.778 Z4.000
G1 X630.000 Y650.000 Z4.000
G0 X630.000 Y650.000 Z0.000
(shape postamble)
(shape preamble)
G0 X680.000 Y650.000 Z0.000
G1 X680.000 Y650.000 Z4.000
G1 X680.000 Y649.107 Z4.000
G1 X680.293 Y646.480 Z4.000
G1 X680.920 Y643.942 Z4.000
G1 X681.865 Y641.523 Z4.000
G1 X683.112 Y639.253 Z4.000
G1 X684.643 Y637.159 Z4.000
G1 X686.441 Y635.272 Z4.000
G1 X688.491 Y633.620 Z4.000
G1 X690.774 Y632.233 Z4.000
G1 X693.195 Y631.173 Z4.000
G1 X695.707 Y630.447 Z4.000
G1 X698.274 Y630.056 Z4.000
G1 X700.864 Y630.000 Z4.000
G1 X703.442 Y630.279 Z4.000
G1 X705.976 Y630.894 Z4.000
G1 X708.431 Y631.842 Z4.000
G1 X710.774 Y633.126 Z4.000
G1 X712.903 Y634.693 Z4.000
G1 X714.787 Y636.505 Z4.000
G1 X716.409 Y638.533 Z4.000
G1 X717.753 Y640.748 Z4.000
G1 X718.800 Y643.121 Z4.000
G1 X719.535 Y645.622 Z4.000
G1 X719.941 Y648.222 Z4.000
G1 X720.000 Y650.894 Z4.000
G1 X719.708 Y653.521 Z4.000
G1 X719.081 Y656.059 Z4.000
G1 X718.136 Y658.477 Z4.000
G1 X716.889 Y660.748 Z4.000
G1 X715.358 Y662.841 Z4.000
G1 X713.560 Y664.729 Z4.000
G1 X711.510 Y666.380 Z4.000
G1 X709.227 Y667.767 Z4.000
G1 X706.805 Y668.828 Z4.000
G1 X704.294 Y669.554 Z4.000
G1 X701.727 Y669.945 Z4.000
G1 X699.137 Y670.000 Z4.000
G1 X696.559 Y669.721 Z4.000
G1 X694.025 Y669.107 Z4.000
G1 X691.570 Y668.158 Z4.000
G1 X689.227 Y666.874 Z4.000
G1 X687.098 Y665.308 Z4.000
G1 X685.214 Y663.496 Z4.000
G1 X683.592 Y661.468 Z4.000
G1 X682.248 Y659.253 Z4.000
G1 X681.201 Y656.880 Z4.000
G1 X680.466 Y654.379 Z4.000
G1 X680.060 Y651.778 Z4.000
G1 X680.000 Y650.000 Z4.000
G0 X680.000 Y650.000 Z0.000
(shape postamble)
(shape preamble)
G0 X730.000 Y650.000 Z0.000
G1 X730.000 Y650.000 Z4.000
G1 X730.000 Y649.107 Z4.000
G1 X730.293 Y646.480 Z4.000
G1 X730.920 Y643.942 Z4.000
G1 X731.865 Y641.523 Z4.000
G1 X733.112 Y639.253 Z4.000
G1 X734.643 Y637.159 Z4.000
G1 X736.441 Y635.272 Z4.000
G1 X738.491 Y633.620 Z4.000
G1 X740.774 Y632.233 Z4.000
G1 X743.195 Y631.173 Z4.000
G1 X745.707 Y630.447 Z4.000
G1 X748.274 Y630.056 Z4.000
G1 X750.864 Y630.000 Z4.000
G1 X753.442 Y630.279 Z4.000
G1 X755.976 Y630.894 Z4.000
G1 X758.431 Y631.842 Z4.000
G1 X760.774 Y633.126 Z4.000
G1 X762.903 Y634.693 Z4.000
G1 X764.787 Y636.505 Z4.000
G1 X766.409 Y638.533 Z4.000
G1 X767.753 Y640.748 Z4.000
G1 X768.800 Y643.121 Z4.000
G1 X769.535 Y645.622 Z4.000
G1 X769.941 Y648.222 Z4.000
G1 X770.000 Y650.894 Z4.000
G1 X769.708 Y653.521 Z4.000
G1 X769.081 Y656.059 Z4.000
G1 X768.136 Y658.477 Z4.000
G1 X766.889 Y660.748 Z4.000
G1 X765.358 Y662.841 Z4.000
G1 X763.560 Y664.729 Z4.000
G1 X761.510 Y666.380 Z4.000
G1 X759.227 Y667.767 Z4.000
G1 X756.805 Y668.828 Z4.000
G1 X754.294 Y669.554 Z4.000
G1 X751.727 Y669.945 Z4.000
G1 X749.137 Y670.000 Z4.000
G1 X746.559 Y669.721 Z4.000
G1 X744.025 Y669.107 Z4.000
G1 X741.570 Y668.158 Z4.000
G1 X739.227 Y666.874 Z4.000
G1 X737.098 Y665.308 Z4.000
G1 X735.214 Y663.496 Z4.000
G1 X733.591 Y661.468 Z4.000
G1 X732.248 Y659.253 Z4.000
G1 X731.201 Y656.880 Z4.000
G1 X730.466 Y654.379 Z4.000
G1 X730.060 Y651.778 Z4.000
G1 X730.000 Y650.000 Z4.000
G0 X730.000 Y650.000 Z0.000
(shape postamble)
(shape preamble)
G0 X580.000 Y600.000 Z0.000
G1 X580.000 Y600.000 Z4.000
G1 X580.000 Y599.107 Z4.000
G1 X580.293 Y596.480 Z4.000
G1 X580.920 Y593.942 Z4.000
G1 X581.865 Y591.523 Z4.000
G1 X583.111 Y589.253 Z4.000
G1 X584.642 Y587.159 Z4.000
G1 X586.441 Y585.272 Z4.000
G1 X588.490 Y583.620 Z4.000
G1 X590.774 Y582.233 Z4.000
G1 X593.195 Y581.173 Z4.000
G1 X595.707 Y580.447 Z4.000
G1 X598.274 Y580.056 Z4.000
G1 X600.864 Y580.000 Z4.000
G1 X603.442 Y580.279 Z4.000
G1 X605.976 Y580.893 Z4.000
G1 X608.431 Y581.842 Z4.000
G1 X610.774 Y583.126 Z4.000
G1 X612.903 Y584.693 Z4.000
G1 X614.787 Y586.505 Z4.000
G1 X616.409 Y588.533 Z4.000
G1 X617.753 Y590.748 Z4.000
G1 X618.800 Y593.121 Z4.000
G1 X619.535 Y595.622 Z4.000
G1 X619.941 Y598.222 Z4.000
G1 X620.000 Y600.893 Z4.000
G1 X619.708 Y603.521 Z4.000
G1 X619.081 Y606.058 Z4.000
G1 X618.136 Y608.477 Z4.000
G1 X616.889 Y610.748 Z4.000
G1 X615.358 Y612.841 Z4.000
G1 X613.560 Y614.729 Z4.000
G1 X611.510 Y616.380 Z4.000
G1 X609.227 Y617.767 Z4.000
G1 X606.805 Y618.828 Z4.000
G1 X604.294 Y619.554 Z4.000
G1 X601.727 Y619.944 Z4.000
G1 X599.137 Y620.000 Z4.000
G1 X596.559 Y619.721 Z4.000
G1 X594.025 Y619.107 Z4.000
G1 X591.570 Y618.158 Z4.000
G1 X589.227 Y616.874 Z4.000
G1 X587.098 Y615.307 Z4.000
G1 X585.214 Y613.496 Z4.000
G1 X583.591 Y611.468 Z4.000
G1 X582.248 Y609.253 Z4.000
G1 X581.201 Y606.880 Z4.000
G1 X580.466 Y604.379 Z4.000
G1 X580.060 Y601.778 Z4.000
G1 X580.000 Y600.000 Z4.000
G0 X580.000 Y600.000 Z0.000
(shape postamble)
(shape preamble)
G0 X630.000 Y600.000 Z0.000
G1 X630.000 Y600.000 Z4.000
G1 X630.000 Y599.107 Z4.000
G1 X630.293 Y596.480 Z4.000
G1 X630.920 Y593.942 Z4.000
G1 X631.865 Y591.523 Z4.000
G1 X633.112 Y589.253 Z4.000
G1 X634.643 Y587.159 Z4.000
G1 X636.441 Y585.272 Z4.000
G1 X638.491 Y583.620 Z4.000
G1 X640.774 Y582.233 Z4.000
G1 X643.195 Y581.173 Z4.000
G1 X645.707 Y580.447 Z4.000
G1 X648.274 Y580.056 Z4.000
G1 X650.864 Y580.000 Z4.000
G1 X653.442 Y580.279 Z4.000
G1 X655.976 Y580.893 Z4.000
G1 X658.431 Y581.842 Z4.000
G1 X660.774 Y583.126 Z4.000
G1 X662.903 Y584.693 Z4.000
G1 X664.787 Y586.505 Z4.000
G1 X666.409 Y588.533 Z4.000
G1 X667.753 Y590.748 Z4.000
G1 X668.800 Y593.121 Z4.000
G1 X669.535 Y595.622 Z4.000
G1 X669.941 Y598.222 Z4.000
G1 X670.000 Y600.893 Z4.000
G1 X669.708 Y603.521 Z4.000
G1 X669.081 Y606.058 Z4.000
G1 X668.136 Y608.477 Z4.000
G1 X666.889 Y610.748 Z4.000
G1 X665.358 Y612.841 Z4.000
G1 X663.560 Y614.729 Z4.000
G1 X661.510 Y616.380 Z4.000
G1 X659.227 Y617.767 Z4.000
G1 X656.805 Y618.828 Z4.000
G1 X654.294 Y619.554 Z4.000
G1 X651.727 Y619.944 Z4.000
G1 X649.137 Y620.000 Z4.000
G1 X646.559 Y619.721 Z4.000
G1 X644.025 Y619.107 Z4.000
G1 X641.570 Y618.158 Z4.000
G1 X639.227 Y616.874 Z4.000
G1 X637.098 Y615.307 Z4.000
G1 X635.214 Y613.496 Z4.000
G1 X633.591 Y611.468 Z4.000
G1 X632.248 Y609.253 Z4.000
G1 X631.201 Y606.880 Z4.000
G1 X630.466 Y604.379 Z4.000
G1 X630.060 Y601.778 Z4.000
G1 X630.000 Y600.000 Z4.000
G0 X630.000 Y600.000 Z0.000
(shape postamble)
(shape preamble)
G0 X680.000 Y600.000 Z0.000
G1 X680.000 Y600.000 Z4.000
G1 X680.000 Y599.107 Z4.000
G1 X680.293 Y596.480 Z4.000
G1 X680.920 Y593.942 Z4.000
G1 X681.865 Y591.523 Z4.000
G1 X683.112 Y589.253 Z4.000
G1 X684.643 Y587.159 Z4.000
G1 X686.441 Y585.272 Z4.000
G1 X688.491 Y583.620 Z4.000
G1 X690.774 Y582.233 Z4.000
G1 X693.195 Y581.173 Z4.000
G1 X695.707 Y580.447 Z4.000
G1 X698.274 Y580.056 Z4.000
G1 X700.864 Y580.000 Z4.000
G1 X703.442 Y580.279 Z4.000
G1 X705.976 Y580.893 Z4.000
G1 X708.431 Y581.842 Z4.000
G1 X710.774 Y583.126 Z4.000
G1 X712.903 Y584.693 Z4.000
G1 X714.787 Y586.505 Z4.000
G1 X716.409 Y588.533 Z4.000
G1 X717.753 Y590.748 Z4.000
G1 X718.800 Y593.121 Z4.000
G1 X719.535 Y595.622 Z4.000
G1 X719.941 Y598.222 Z4.000
G1 X720.000 Y600.893 Z4.000
G1 X719.708 Y603.521 Z4.000
G1 X719.081 Y606.058 Z4.000
G1 X718.136 Y608.477 Z4.000
G1 X716.889 Y610.748 Z4.000
G1 X715.358 Y612.841 Z4.000
G1 X713.560 Y614.729 Z4.000
G1 X711.510 Y616.380 Z4.000
G1 X709.227 Y617.767 Z4.000
G1 X706.805 Y618.828 Z4.000
G1 X704.294 Y619.554 Z4.000
G1 X701.727 Y619.944 Z4.000
G1 X699.137 Y620.000 Z4.000
G1 X696.559 Y619.721 Z4.000
G1 X694.025 Y619.107 Z4.000
G1 X691.570 Y618.158 Z4.000
G1 X689.227 Y616.874 Z4.000
G1 X687.098 Y615.307 Z4.000
G1 X685.214 Y613.496 Z4.000
G1 X683.592 Y611.468 Z4.000
G1 X682.248 Y609.253 Z4.000
G1 X681.201 Y606.880 Z4.000
G1 X680.466 Y604.379 Z4.000
G1 X680.060 Y601.778 Z4.000
G1 X680.000 Y600.000 Z4.000
G0 X680.000 Y600.000 Z0.000
(shape postamble)
(shape preamble)
G0 X730.000 Y600.000 Z0.000
G1 X730.000 Y600.000 Z4.000
G1 X730.000 Y599.107 Z4.000
G1 X730.293 Y596.480 Z4.000
G1 X730.920 Y593.942 Z4.000
G1 X731.865 Y591.523 Z4.000
G1 X733.112 Y589.253 Z4.000
G1 X734.643 Y587.159 Z4.000
G1 X736.441 Y585.272 Z4.000
G1 X738.491 Y583.620 Z4.000
G1 X740.774 Y582.233 Z4.000
G1 X743.195 Y581.173 Z4.000
G1 X745.707 Y580.447 Z4.000
G1 X748.274 Y580.056 Z4.000
G1 X750.864 Y580.000 Z4.000
G1 X753.442 Y580.279 Z4.000
G1 X755.976 Y580.893 Z4.000
G1 X758.431 Y581.842 Z4.000
G1 X760.774 Y583.126 Z4.000
G1 X762.903 Y584.693 Z4.000
G1 X764.787 Y586.505 Z4.000
G1 X766.409 Y588.533 Z4.000
G1 X767.753 Y590.748 Z4.000
G1 X768.800 Y593.121 Z4.000
G1 X769.535 Y595.622 Z4.000
G1 X769.941 Y598.222 Z4.000
G1 X770.000 Y600.893 Z4.000
G1 X769.708 Y603.521 Z4.000
G1 X769.081 Y606.058 Z4.000
G1 X768.136 Y608.477 Z4.000
G1 X766.889 Y610.748 Z4.000
G1 X765.358 Y612.841 Z4.000
G1 X763.560 Y614.729 Z4.000
G1 X761.510 Y616.380 Z4.000
G1 X759.227 Y617.767 Z4.000
G1 X756.805 Y618.828 Z4.000
G1 X754.294 Y619.554 Z4.000
G1 X751.727 Y619.944 Z4.000
G1 X749.137 Y620.000 Z4.000
G1 X746.559 Y619.721 Z4.000
G1 X744.025 Y619.107 Z4.000
G1 X741.570 Y618.158 Z4.000
G1 X739.227 Y616.874 Z4.000
G1 X737.098 Y615.307 Z4.000
G1 X735.214 Y613.496 Z4.000
G1 X733.591 Y611.468 Z4.000
G1 X732.248 Y609.253 Z4.000
G1 X731.201 Y606.880 Z4.000
G1 X730.466 Y604.379 Z4.000
G1 X730.060 Y601.778 Z4.000
G1 X730.000 Y600.000 Z4.000
G0 X730.000 Y600.000 Z0.000
(shape postamble)
(shape preamble)
G0 X580.000 Y550.000 Z0.000
G1 X580.000 Y550.000 Z4.000
G1 X580.000 Y549.107 Z4.000
G1 X580.293 Y546.480 Z4.000
G1 X580.920 Y543.942 Z4.000
G1 X581.865 Y541.523 Z4.000
G1 X583.111 Y539.253 Z4.000
G1 X584.642 Y537.159 Z4.000
G1 X586.441 Y535.272 Z4.000
G1 X588.490 Y533.620 Z4.000
G1 X590.774 Y532.233 Z4.000
G1 X593.195 Y531.173 Z4.000
G1 X595.707 Y530.447 Z4.000
G1 X598.274 Y530.056 Z4.000
G1 X600.864 Y530.000 Z4.000
G1 X603.442 Y530.279 Z4.000
G1 X605.976 Y530.893 Z4.000
G1 X608.431 Y531.842 Z4.000
G1 X610.774 Y533.126 Z4.000
G1 X612.903 Y534.693 Z4.000
G1 X614.787 Y536.505 Z4.000
G1 X616.409 Y538.533 Z4.000
G1 X617.753 Y540.748 Z4.000
G1 X618.800 Y543.120 Z4.000
G1 X619.535 Y545.622 Z4.000
G1 X619.941 Y548.222 Z4.000
G1 X620.000 Y550.893 Z4.000
G1 X619.708 Y553.521 Z4.000
G1 X619.081 Y556.058 Z4.000
G1 X618.136 Y558.477 Z4.000
G1 X616.889 Y560.748 Z4.000
G1 X615.358 Y562.841 Z4.000
G1 X613.560 Y564.729 Z4.000
G1 X611.510 Y566.380 Z4.000
G1 X609.227 Y567.767 Z4.000
G1 X606.805 Y568.828 Z4.000
G1 X604.294 Y569.554 Z4.000
G1 X601.727 Y569.944 Z4.000
G1 X599.137 Y570.000 Z4.000
G1 X596.559 Y569.721 Z4.000
G1 X594.025 Y569.107 Z4.000
G1 X591.570 Y568.158 Z4.000
G1 X589.227 Y566.874 Z4.000
G1 X587.098 Y565.307 Z4.000
G1 X585.214 Y563.496 Z4.000
G1 X583.591 Y561.468 Z4.000
G1 X582.248 Y559.253 Z4.000
G1 X581.201 Y556.880 Z4.000
G1 X580.466 Y554.379 Z4.000
G1 X580.060 Y551.778 Z4.000
G1 X580.000 Y550.000 Z4.000
G0 X580.000 Y550.000 Z0.000
(shape postamble)
(shape preamble)
G0 X630.000 Y550.000 Z0.000
G1 X630.000 Y550.000 Z4.000
G1 X630.000 Y549.107 Z4.000
G1 X630.293 Y546.480 Z4.000
G1 X630.920 Y543.942 Z4.000
G1 X631.865 Y541.523 Z4.000
G1 X633.112 Y539.253 Z4.000
G1 X634.643 Y537.159 Z4.000
G1 X636.441 Y535.272 Z4.000
G1 X638.491 Y533.620 Z4.000
G1 X640.774 Y532.233 Z4.000
G1 X643.195 Y531.173 Z4.000
G1 X645.707 Y530.447 Z4.000
G1 X648.274 Y530.056 Z4.000
G1 X650.864 Y530.000 Z4.000
G1 X653.442 Y530.279 Z4.000
G1 X655.976 Y530.893 Z4.000
G1 X658.431 Y531.842 Z4.000
G1 X660.774 Y533.126 Z4.000
G1 X662.903 Y534.693 Z4.000
G1 X664.787 Y536.505 Z4.000
G1 X666.409 Y538.533 Z4.000
G1 X667.753 Y540.748 Z4.000
G1 X668.800 Y543.120 Z4.000
G1 X669.535 Y545.622 Z4.000
G1 X669.941 Y548.222 Z4.000
G1 X670.000 Y550.893 Z4.000
G1 X669.708 Y553.521 Z4.000
G1 X669.081 Y556.058 Z4.000
G1 X668.136 Y558.477 Z4.000
G1 X666.889 Y560.748 Z4.000
G1 X665.358 Y562.841 Z4.000
G1 X663.560 Y564.729 Z4.000
G1 X661.510 Y566.380 Z4.000
G1 X659.227 Y567.767 Z4.000
G1 X656.805 Y568.828 Z4.000
G1 X654.294 Y569.554 Z4.000
G1 X651.727 Y569.944 Z4.000
G1 X649.137 Y570.000 Z4.000
G1 X646.559 Y569.721 Z4.000
G1 X644.025 Y569.107 Z4.000
G1 X641.570 Y568.158 Z4.000
G1 X639.227 Y566.874 Z4.000
G1 X637.098 Y565.307 Z4.000
G1 X635.214 Y563.496 Z4.000
G1 X633.591 Y561.468 Z4.000
G1 X632.248 Y559.253 Z4.000
G1 X631.201 Y556.880 Z4.000
G1 X630.466 Y554.379 Z4.000
G1 X630.060 Y551.778 Z4.000
G1 X630.000 Y550.000 Z4.000
G0 X630.000 Y550.000 Z0.000
(shape postamble)
(shape preamble)
G0 X680.000 Y550.000 Z0.000
G1 X680.000 Y550.000 Z4.000
G1 X680.000 Y549.107 Z4.000
G1 X680.293 Y546.480 Z4.000
G1 X680.920 Y543.942 Z4.000
G1 X681.865 Y541.523 Z4.000
G1 X683.112 Y539.253 Z4.000
G1 X684.643 Y537.159 Z4.000
G1 X686.441 Y535.272 Z4.000
G1 X688.491 Y533.620 Z4.000
G1 X690.774 Y532.233 Z4.000
G1 X693.195 Y531.173 Z4.000
G1 X695.707 Y530.447 Z4.000
G1 X698.274 Y530.056 Z4.000
G1 X700.864 Y530.000 Z4.000
G1 X703.442 Y530.279 Z4.000
G1 X705.976 Y530.893 Z4.000
G1 X708.431 Y531.842 Z4.000
G1 X710.774 Y533.126 Z4.000
G1 X712.903 Y534.693 Z4.000
G1 X714.787 Y536.505 Z4.000
G1 X716.409 Y538.533 Z4.000
G1 X717.753 Y540.748 Z4.000
G1 X718.800 Y543.120 Z4.000
G1 X719.535 Y545.622 Z4.000
G1 X719.941 Y548.222 Z4.000
G1 X720.000 Y550.893 Z4.000
G1 X719.708 Y553.521 Z4.000
G1 X719.081 Y556.058 Z4.000
G1 X718.136 Y558.477 Z4.000
G1 X716.889 Y560.748 Z4.000
G1 X715.358 Y562.841 Z4.000
G1 X713.560 Y564.729 Z4.000
G1 X711.510 Y566.380 Z4.000
G1 X709.227 Y567.767 Z4.000
G1 X706.805 Y568.828 Z4.000
G1 X704.294 Y569.554 Z4.000
G1 X701.727 Y569.944 Z4.000
G1 X699.137 Y570.000 Z4.000
G1 X696.559 Y569.721 Z4.000
G1 X694.025 Y569.107 Z4.000
G1 X691.570 Y568.158 Z4.000
G1 X689.227 Y566.874 Z4.000
G1 X687.098 Y565.307 Z4.000
G1 X685.214 Y563.496 Z4.000
G1 X683.592 Y561.468 Z4.000
G1 X682.248 Y559.253 Z4.000
G1 X681.201 Y556.880 Z4.000
G1 X680.466 Y554.379 Z4.000
G1 X680.060 Y551.778 Z4.000
G1 X680.000 Y550.000 Z4.000
G0 X680.000 Y550.000 Z0.000
(shape postamble)
(shape preamble)
G0 X730.000 Y550.000 Z0.000
G1 X730.000 Y550.000 Z4.000
G1 X730.000 Y549.107 Z4.000
G1 X730.293 Y546.480 Z4.000
G1 X730.920 Y543.942 Z4.000
G1 X731.865 Y541.523 Z4.000
G1 X733.112 Y539.253 Z4.000
G1 X734.643 Y537.159 Z4.000
G1 X736.441 Y535.272 Z4.000
G1 X738.491 Y533.620 Z4.000
G1 X740.774 Y532.233 Z4.000
G1 X743.195 Y531.173 Z4.000
G1 X745.707 Y530.447 Z4.000
G1 X748.274 Y530.056 Z4.000
G1 X750.864 Y530.000 Z4.000
G1 X753.442 Y530.279 Z4.000
G1 X755.976 Y530.893 Z4.000
G1 X758.431 Y531.842 Z4.000
G1 X760.774 Y533.126 Z4.000
G1 X762.903 Y534.693 Z4.000
G1 X764.787 Y536.505 Z4.000
G1 X766.409 Y538.533 Z4.000
G1 X767.753 Y540.748 Z4.000
G1 X768.800 Y543.120 Z4.000
G1 X769.535 Y545.622 Z4.000
G1 X769.941 Y548.222 Z4.000
G1 X770.000 Y550.893 Z4.000
G1 X769.708 Y553.521 Z4.000
G1 X769.081 Y556.058 Z4.000
G1 X768.136 Y558.477 Z4.000
G1 X766.889 Y560.748 Z4.000
G1 X765.358 Y562.841 Z4.000
G1 X763.560 Y564.729 Z4.000
G1 X761.510 Y566.380 Z4.000
G1 X759.227 Y567.767 Z4.000
G1 X756.805 Y568.828 Z4.000
G1 X754.294 Y569.554 Z4.000
G1 X751.727 Y569.944 Z4.000
G1 X749.137 Y570.000 Z4.000
G1 X746.559 Y569.721 Z4.000
G1 X744.025 Y569.107 Z4.000
G1 X741.570 Y568.158 Z4.000
G1 X739.227 Y566.874 Z4.000
G1 X737.098 Y565.307 Z4.000
G1 X735.214 Y563.496 Z4.000
G1 X733.591 Y561.468 Z4.000
G1 X732.248 Y559.253 Z4.000
G1 X731.201 Y556.880 Z4.000
G1 X730.466 Y554.379 Z4.000
G1 X730.060 Y551.778 Z4.000
G1 X730.000 Y550.000 Z4.000
G0 X730.000 Y550.000 Z0.000
(shape postamble)
(shape preamble)
G0 X246.979 Y267.572 Z0.000
G1 X246.979 Y267.572 Z4.000
G1 X247.903 Y267.572 Z4.000
G1 X250.506 Y267.981 Z4.000
G1 X252.906 Y268.880 Z4.000
G1 X255.104 Y270.269 Z4.000
G1 X257.098 Y272.147 Z4.000
G1 X258.649 Y274.275 Z4.000
G1 X259.710 Y276.607 Z4.000
G1 X260.282 Y279.143 Z4.000
G1 X260.364 Y281.883 Z4.000
G1 X259.955 Y284.486 Z4.000
G1 X259.057 Y286.885 Z4.000
G1 X257.669 Y289.082 Z4.000
G1 X255.792 Y291.076 Z4.000
G1 X253.661 Y292.627 Z4.000
G1 X251.329 Y293.689 Z4.000
G1 X248.793 Y294.260 Z4.000
G1 X246.054 Y294.342 Z4.000
G1 X243.451 Y293.934 Z4.000
G1 X241.050 Y293.035 Z4.000
G1 X238.854 Y291.648 Z4.000
G1 X236.861 Y289.770 Z4.000
G1 X235.310 Y287.640 Z4.000
G1 X234.249 Y285.308 Z4.000
G1 X233.677 Y282.773 Z4.000
G1 X233.596 Y280.034 Z4.000
G1 X234.004 Y277.430 Z4.000
G1 X234.902 Y275.030 Z4.000
G1 X236.290 Y272.834 Z4.000
G1 X238.167 Y270.841 Z4.000
G1 X240.296 Y269.288 Z4.000
G1 X242.628 Y268.226 Z4.000
G1 X245.164 Y267.654 Z4.000
G1 X246.979 Y267.572 Z4.000
G0 X246.979 Y267.572 Z0.000
(shape postamble)
(shape preamble)
G0 X731.204 Y217.667 Z0.000
G1 X731.204 Y217.667 Z4.000
G1 X728.876 Y214.544 Z4.000
G1 X720.822 Y205.095 Z4.000
G1 X712.624 Y196.698 Z4.000
G1 X706.585 Y191.535 Z4.000
G1 X700.642 Y187.521 Z4.000
G1 X696.595 Y185.609 Z4.000
G1 X694.580 Y185.051 Z4.000
G1 X692.548 Y184.971 Z4.000
G1 X690.468 Y185.569 Z4.000
G1 X689.106 Y186.886 Z4.000
G1 X688.381 Y188.678 Z4.000
G1 X688.278 Y190.837 Z4.000
G1 X688.637 Y193.217 Z4.000
G1 X689.426 Y195.933 Z4.000
G1 X691.004 Y199.702 Z4.000
G1 X694.301 Y206.385 Z4.000
G1 X703.126 Y222.286 Z4.000
G1 X718.106 Y247.591 Z4.000
G1 X740.063 Y284.113 Z4.000
G1 X759.982 Y317.287 Z4.000
G1 X732.447 Y315.376 Z4.000
G1 X690.158 Y241.536 Z4.000
G1 X689.230 Y244.109 Z4.000
G1 X687.991 Y246.444 Z4.000
G1 X686.442 Y248.541 Z4.000
G1 X684.582 Y250.397 Z4.000
G1 X682.429 Y251.833 Z4.000
G1 X679.991 Y252.818 Z4.000
G1 X677.267 Y253.348 Z4.000
G1 X673.555 Y253.424 Z4.000
G1 X668.363 Y252.985 Z4.000
G1 X663.135 Y252.021 Z4.000
G1 X657.871 Y250.531 Z4.000
G1 X652.570 Y248.517 Z4.000
G1 X647.474 Y246.094 Z4.000
G1 X642.628 Y243.289 Z4.000
G1 X638.033 Y240.103 Z4.000
G1 X633.689 Y236.534 Z4.000
G1 X629.715 Y232.642 Z4.000
G1 X626.136 Y228.439 Z4.000
G1 X622.952 Y223.926 Z4.000
G1 X620.027 Y218.863 Z4.000
G1 X617.651 Y213.082 Z4.000
G1 X616.537 Y209.020 Z4.000
G1 X614.633 Y207.214 Z4.000
G1 X609.394 Y202.592 Z4.000
G1 X604.179 Y198.388 Z4.000
G1 X598.989 Y194.602 Z4.000
G1 X593.824 Y191.234 Z4.000
G1 X588.800 Y188.622 Z4.000
G1 X583.944 Y186.835 Z4.000
G1 X579.255 Y185.873 Z4.000
G1 X574.765 Y185.736 Z4.000
G1 X570.965 Y186.374 Z4.000
G1 X567.881 Y187.776 Z4.000
G1 X565.396 Y189.703 Z4.000
G1 X563.484 Y192.110 Z4.000
G1 X562.104 Y194.954 Z4.000
G1 X561.253 Y198.228 Z4.000
G1 X560.809 Y201.615 Z4.000
G1 X560.745 Y205.175 Z4.000
G1 X561.061 Y208.996 Z4.000
G1 X564.951 Y212.316 Z4.000
G1 X578.653 Y215.627 Z4.000
G1 X587.600 Y218.383 Z4.000
G1 X595.018 Y221.221 Z4.000
G1 X599.214 Y223.139 Z4.000
G1 X603.112 Y225.236 Z4.000
G1 X606.711 Y227.512 Z4.000
G1 X610.011 Y229.968 Z4.000
G1 X612.584 Y232.634 Z4.000
G1 X614.345 Y235.514 Z4.000
G1 X615.293 Y238.610 Z4.000
G1 X615.429 Y241.920 Z4.000
G1 X614.811 Y244.876 Z4.000
G1 X613.452 Y247.367 Z4.000
G1 X611.354 Y249.394 Z4.000
G1 X608.514 Y250.955 Z4.000
G1 X605.211 Y252.128 Z4.000
G1 X601.503 Y252.930 Z4.000
G1 X597.388 Y253.362 Z4.000
G1 X592.867 Y253.424 Z4.000
G1 X588.168 Y253.005 Z4.000
G1 X583.338 Y252.085 Z4.000
G1 X578.376 Y250.663 Z4.000
G1 X573.284 Y248.739 Z4.000
G1 X568.328 Y246.453 Z4.000
G1 X563.564 Y243.832 Z4.000
G1 X558.991 Y240.876 Z4.000
G1 X554.609 Y237.585 Z4.000
G1 X550.568 Y233.999 Z4.000
G1 X546.897 Y230.128 Z4.000
G1 X543.598 Y225.970 Z4.000
G1 X540.981 Y222.015 Z4.000
G1 X539.324 Y218.939 Z4.000
G1 X537.991 Y215.799 Z4.000
G1 X536.983 Y212.594 Z4.000
G1 X535.991 Y209.904 Z4.000
G1 X533.181 Y207.214 Z4.000
G1 X527.942 Y202.592 Z4.000
G1 X522.728 Y198.388 Z4.000
G1 X517.538 Y194.602 Z4.000
G1 X512.372 Y191.234 Z4.000
G1 X507.349 Y188.622 Z4.000
G1 X502.492 Y186.835 Z4.000
G1 X497.803 Y185.873 Z4.000
G1 X493.313 Y185.736 Z4.000
G1 X489.513 Y186.374 Z4.000
G1 X486.430 Y187.776 Z4.000
G1 X483.945 Y189.703 Z4.000
G1 X482.032 Y192.110 Z4.000
G1 X480.653 Y194.954 Z4.000
G1 X479.802 Y198.229 Z4.000
G1 X479.357 Y201.615 Z4.000
G1 X479.294 Y205.175 Z4.000
G1 X479.610 Y208.996 Z4.000
G1 X483.500 Y212.316 Z4.000
G1 X497.202 Y215.627 Z4.000
G1 X506.149 Y218.383 Z4.000
G1 X513.567 Y221.221 Z4.000
G1 X517.763 Y223.139 Z4.000
G1 X521.661 Y225.236 Z4.000
G1 X525.260 Y227.512 Z4.000
G1 X528.560 Y229.968 Z4.000
G1 X531.133 Y232.634 Z4.000
G1 X532.894 Y235.514 Z4.000
G1 X533.842 Y238.610 Z4.000
G1 X533.977 Y241.920 Z4.000
G1 X533.360 Y244.876 Z4.000
G1 X532.001 Y247.367 Z4.000
G1 X529.902 Y249.394 Z4.000
G1 X527.063 Y250.955 Z4.000
G1 X523.760 Y252.128 Z4.000
G1 X520.052 Y252.930 Z4.000
G1 X515.937 Y253.362 Z4.000
G1 X511.416 Y253.424 Z4.000
G1 X506.717 Y253.005 Z4.000
G1 X501.887 Y252.085 Z4.000
G1 X496.925 Y250.663 Z4.000
G1 X491.832 Y248.739 Z4.000
G1 X486.877 Y246.453 Z4.000
G1 X482.113 Y243.832 Z4.000
G1 X477.540 Y240.876 Z4.000
G1 X473.158 Y237.585 Z4.000
G1 X469.117 Y233.999 Z4.000
G1 X465.446 Y230.128 Z4.000
G1 X462.146 Y225.971 Z4.000
G1 X459.447 Y221.886 Z4.000
G1 X457.616 Y218.407 Z4.000
G1 X456.197 Y214.846 Z4.000
G1 X455.192 Y211.203 Z4.000
G1 X451.901 Y205.413 Z4.000
G1 X443.409 Y196.698 Z4.000
G1 X437.369 Y191.535 Z4.000
G1 X431.426 Y187.521 Z4.000
G1 X427.379 Y185.609 Z4.000
G1 X425.365 Y185.051 Z4.000
G1 X423.332 Y184.971 Z4.000
G1 X421.253 Y185.569 Z4.000
G1 X419.890 Y186.886 Z4.000
G1 X419.166 Y188.678 Z4.000
G1 X419.063 Y190.837 Z4.000
G1 X419.421 Y193.217 Z4.000
G1 X420.210 Y195.933 Z4.000
G1 X421.788 Y199.702 Z4.000
G1 X425.086 Y206.385 Z4.000
G1 X433.911 Y222.286 Z4.000
G1 X448.891 Y247.591 Z4.000
G1 X470.848 Y284.113 Z4.000
G1 X490.766 Y317.287 Z4.000
G1 X463.231 Y315.376 Z4.000
G1 X420.942 Y241.536 Z4.000
G1 X420.014 Y244.109 Z4.000
G1 X418.776 Y246.444 Z4.000
G1 X417.227 Y248.541 Z4.000
G1 X415.366 Y250.397 Z4.000
G1 X413.214 Y251.833 Z4.000
G1 X410.776 Y252.818 Z4.000
G1 X408.052 Y253.348 Z4.000
G1 X404.340 Y253.424 Z4.000
G1 X399.148 Y252.985 Z4.000
G1 X393.920 Y252.021 Z4.000
G1 X388.655 Y250.531 Z4.000
G1 X383.355 Y248.517 Z4.000
G1 X378.258 Y246.094 Z4.000
G1 X373.412 Y243.289 Z4.000
G1 X368.817 Y240.103 Z4.000
G1 X364.473 Y236.534 Z4.000
G1 X360.500 Y232.642 Z4.000
G1 X356.921 Y228.439 Z4.000
G1 X353.737 Y223.926 Z4.000
G1 X351.252 Y219.649 Z4.000
G1 X349.694 Y216.351 Z4.000
G1 X348.438 Y212.979 Z4.000
G1 X347.482 Y209.533 Z4.000
G1 X344.332 Y204.121 Z4.000
G1 X337.037 Y196.636 Z4.000
G1 X331.460 Y191.656 Z4.000
G1 X326.967 Y188.240 Z4.000
G1 X324.409 Y186.687 Z4.000
G1 X321.994 Y185.625 Z4.000
G1 X319.725 Y185.053 Z4.000
G1 X317.535 Y184.971 Z4.000
G1 X315.757 Y185.569 Z4.000
G1 X314.603 Y186.886 Z4.000
G1 X313.989 Y188.517 Z4.000
G1 X313.902 Y190.484 Z4.000
G1 X314.310 Y192.832 Z4.000
G1 X315.208 Y195.359 Z4.000
G1 X316.596 Y198.066 Z4.000
G1 X320.433 Y203.867 Z4.000
G1 X328.113 Y214.354 Z4.000
G1 X332.535 Y220.878 Z4.000
G1 X335.874 Y226.432 Z4.000
G1 X337.425 Y229.737 Z4.000
G1 X338.487 Y232.995 Z4.000
G1 X339.060 Y236.206 Z4.000
G1 X339.141 Y239.592 Z4.000
G1 X338.633 Y243.009 Z4.000
G1 X337.516 Y245.935 Z4.000
G1 X335.789 Y248.371 Z4.000
G1 X333.453 Y250.317 Z4.000
G1 X330.766 Y251.793 Z4.000
G1 X327.780 Y252.803 Z4.000
G1 X324.495 Y253.346 Z4.000
G1 X320.944 Y253.424 Z4.000
G1 X317.397 Y252.985 Z4.000
G1 X313.838 Y252.021 Z4.000
G1 X310.266 Y250.531 Z4.000
G1 X305.489 Y247.815 Z4.000
G1 X298.477 Y242.770 Z4.000
G1 X291.657 Y236.726 Z4.000
G1 X285.149 Y230.073 Z4.000
G1 X276.933 Y220.473 Z4.000
G1 X269.925 Y211.741 Z4.000
G1 X273.749 Y218.750 Z4.000
G1 X286.846 Y238.318 Z4.000
G1 X295.928 Y251.129 Z4.000
G1 X268.778 Y249.983 Z4.000
G1 X242.248 Y204.627 Z4.000
G1 X240.606 Y202.754 Z4.000
G1 X235.825 Y197.782 Z4.000
G1 X231.045 Y193.385 Z4.000
G1 X226.384 Y189.718 Z4.000
G1 X222.617 Y187.281 Z4.000
G1 X220.439 Y186.184 Z4.000
G1 X218.345 Y185.433 Z4.000
G1 X216.336 Y185.029 Z4.000
G1 X214.219 Y184.971 Z4.000
G1 X212.657 Y185.576 Z4.000
G1 X211.956 Y186.220 Z4.000
G1 X211.287 Y187.394 Z4.000
G1 X210.730 Y189.569 Z4.000
G1 X210.651 Y191.887 Z4.000
G1 X210.940 Y193.962 Z4.000
G1 X211.806 Y197.161 Z4.000
G1 X214.346 Y203.072 Z4.000
G1 X217.876 Y209.949 Z4.000
G1 X223.844 Y220.375 Z4.000
G1 X235.249 Y238.317 Z4.000
G1 X243.348 Y251.129 Z4.000
G1 X208.482 Y237.746 Z4.000
G1 X196.134 Y216.378 Z4.000
G1 X193.220 Y210.372 Z4.000
G1 X191.227 Y204.905 Z4.000
G1 X190.153 Y199.976 Z4.000
G1 X190.000 Y195.679 Z4.000
G1 X190.418 Y192.032 Z4.000
G1 X191.338 Y188.827 Z4.000
G1 X192.761 Y186.065 Z4.000
G1 X194.685 Y183.745 Z4.000
G1 X197.090 Y181.968 Z4.000
G1 X199.974 Y180.750 Z4.000
G1 X203.336 Y180.094 Z4.000
G1 X207.400 Y180.000 Z4.000
G1 X211.810 Y180.488 Z4.000
G1 X216.004 Y181.562 Z4.000
G1 X219.984 Y183.220 Z4.000
G1 X223.720 Y185.447 Z4.000
G1 X227.494 Y188.163 Z4.000
G1 X231.428 Y191.392 Z4.000
G1 X235.522 Y195.135 Z4.000
G1 X238.348 Y197.944 Z4.000
G1 X229.198 Y182.295 Z4.000
G1 X255.838 Y184.781 Z4.000
G1 X258.586 Y189.753 Z4.000
G1 X262.339 Y195.870 Z4.000
G1 X266.815 Y202.498 Z4.000
G1 X273.716 Y211.866 Z4.000
G1 X283.372 Y223.658 Z4.000
G1 X289.220 Y230.176 Z4.000
G1 X294.973 Y236.023 Z4.000
G1 X300.389 Y240.843 Z4.000
G1 X304.596 Y243.974 Z4.000
G1 X306.922 Y245.374 Z4.000
G1 X309.057 Y246.332 Z4.000
G1 X311.002 Y246.849 Z4.000
G1 X313.041 Y246.923 Z4.000
G1 X315.085 Y246.365 Z4.000
G1 X316.484 Y245.138 Z4.000
G1 X317.237 Y243.241 Z4.000
G1 X317.345 Y240.898 Z4.000
G1 X316.956 Y238.832 Z4.000
G1 X316.101 Y236.694 Z4.000
G1 X314.780 Y234.483 Z4.000
G1 X311.129 Y229.905 Z4.000
G1 X303.768 Y221.110 Z4.000
G1 X299.538 Y215.342 Z4.000
G1 X296.359 Y210.227 Z4.000
G1 X294.884 Y207.050 Z4.000
G1 X293.874 Y203.789 Z4.000
G1 X293.330 Y200.445 Z4.000
G1 X293.252 Y196.826 Z4.000
G1 X293.700 Y193.120 Z4.000
G1 X294.686 Y189.784 Z4.000
G1 X296.209 Y186.818 Z4.000
G1 X298.270 Y184.224 Z4.000
G1 X300.870 Y182.219 Z4.000
G1 X304.007 Y180.846 Z4.000
G1 X307.682 Y180.106 Z4.000
G1 X311.735 Y180.000 Z4.000
G1 X315.528 Y180.469 Z4.000
G1 X319.286 Y181.500 Z4.000
G1 X323.009 Y183.091 Z4.000
G1 X326.696 Y185.242 Z4.000
G1 X330.425 Y187.857 Z4.000
G1 X334.216 Y190.914 Z4.000
G1 X338.067 Y194.414 Z4.000
G1 X342.633 Y199.030 Z4.000
G1 X346.455 Y202.170 Z4.000
G1 X346.406 Y198.549 Z4.000
G1 X346.863 Y194.752 Z4.000
G1 X347.870 Y191.217 Z4.000
G1 X349.427 Y187.946 Z4.000
G1 X351.535 Y184.940 Z4.000
G1 X354.211 Y182.595 Z4.000
G1 X357.461 Y180.989 Z4.000
G1 X361.286 Y180.124 Z4.000
G1 X366.162 Y180.000 Z4.000
G1 X371.760 Y180.648 Z4.000
G1 X376.965 Y182.072 Z4.000
G1 X381.775 Y184.272 Z4.000
G1 X386.191 Y187.249 Z4.000
G1 X390.331 Y190.605 Z4.000
G1 X394.221 Y194.261 Z4.000
G1 X397.860 Y198.215 Z4.000
G1 X400.134 Y201.034 Z4.000
G1 X400.196 Y199.821 Z4.000
G1 X399.640 Y197.496 Z4.000
G1 X399.561 Y194.915 Z4.000
G1 X400.009 Y191.712 Z4.000
G1 X400.994 Y188.797 Z4.000
G1 X402.518 Y186.168 Z4.000
G1 X404.579 Y183.825 Z4.000
G1 X407.059 Y182.008 Z4.000
G1 X409.933 Y180.765 Z4.000
G1 X413.202 Y180.096 Z4.000
G1 X416.832 Y180.000 Z4.000
G1 X420.424 Y180.369 Z4.000
G1 X423.970 Y181.180 Z4.000
G1 X427.467 Y182.433 Z4.000
G1 X430.917 Y184.127 Z4.000
G1 X434.499 Y186.363 Z4.000
G1 X438.247 Y189.162 Z4.000
G1 X442.162 Y192.523 Z4.000
G1 X448.290 Y198.457 Z4.000
G1 X454.445 Y204.756 Z4.000
G1 X454.437 Y201.956 Z4.000
G1 X455.153 Y196.702 Z4.000
G1 X456.444 Y192.882 Z4.000
G1 X457.484 Y190.804 Z4.000
G1 X458.738 Y188.900 Z4.000
G1 X460.209 Y187.169 Z4.000
G1 X461.894 Y185.611 Z4.000
G1 X463.779 Y184.240 Z4.000
G1 X466.566 Y182.678 Z4.000
G1 X471.454 Y181.020 Z4.000
G1 X477.130 Y180.127 Z4.000
G1 X483.946 Y180.000 Z4.000
G1 X491.294 Y180.678 Z4.000
G1 X498.285 Y182.168 Z4.000
G1 X504.917 Y184.471 Z4.000
G1 X511.192 Y187.584 Z4.000
G1 X517.486 Y191.471 Z4.000
G1 X523.876 Y196.125 Z4.000
G1 X530.361 Y201.544 Z4.000
G1 X535.174 Y206.043 Z4.000
G1 X535.935 Y205.893 Z4.000
G1 X535.888 Y201.956 Z4.000
G1 X536.605 Y196.702 Z4.000
G1 X537.895 Y192.882 Z4.000
G1 X538.935 Y190.804 Z4.000
G1 X540.190 Y188.900 Z4.000
G1 X541.660 Y187.169 Z4.000
G1 X543.345 Y185.610 Z4.000
G1 X545.230 Y184.240 Z4.000
G1 X548.017 Y182.678 Z4.000
G1 X552.905 Y181.020 Z4.000
G1 X558.582 Y180.127 Z4.000
G1 X565.397 Y180.000 Z4.000
G1 X572.745 Y180.678 Z4.000
G1 X579.736 Y182.168 Z4.000
G1 X586.369 Y184.470 Z4.000
G1 X592.626 Y187.575 Z4.000
G1 X598.866 Y191.425 Z4.000
G1 X605.201 Y196.028 Z4.000
G1 X611.629 Y201.384 Z4.000
G1 X615.738 Y203.600 Z4.000
G1 X615.621 Y198.549 Z4.000
G1 X616.078 Y194.751 Z4.000
G1 X617.085 Y191.217 Z4.000
G1 X618.643 Y187.946 Z4.000
G1 X620.750 Y184.940 Z4.000
G1 X623.426 Y182.595 Z4.000
G1 X626.677 Y180.989 Z4.000
G1 X630.501 Y180.124 Z4.000
G1 X635.378 Y180.000 Z4.000
G1 X640.976 Y180.647 Z4.000
G1 X646.180 Y182.072 Z4.000
G1 X650.990 Y184.272 Z4.000
G1 X655.406 Y187.249 Z4.000
G1 X659.546 Y190.605 Z4.000
G1 X663.436 Y194.261 Z4.000
G1 X667.076 Y198.215 Z4.000
G1 X669.349 Y201.034 Z4.000
G1 X669.412 Y199.821 Z4.000
G1 X668.855 Y197.496 Z4.000
G1 X668.776 Y194.915 Z4.000
G1 X669.224 Y191.712 Z4.000
G1 X670.210 Y188.797 Z4.000
G1 X671.733 Y186.168 Z4.000
G1 X673.794 Y183.825 Z4.000
G1 X676.274 Y182.008 Z4.000
G1 X679.149 Y180.765 Z4.000
G1 X682.417 Y180.095 Z4.000
G1 X686.047 Y180.000 Z4.000
G1 X689.640 Y180.369 Z4.000
G1 X693.185 Y181.180 Z4.000
G1 X696.683 Y182.433 Z4.000
G1 X700.133 Y184.127 Z4.000
G1 X703.714 Y186.363 Z4.000
G1 X707.462 Y189.162 Z4.000
G1 X711.378 Y192.523 Z4.000
G1 X717.469 Y198.421 Z4.000
G1 X726.527 Y208.402 Z4.000
G1 X736.812 Y221.780 Z4.000
G1 X743.729 Y231.435 Z4.000
G1 X739.456 Y228.820 Z4.000
G1 X731.204 Y217.667 Z4.000
G0 X731.204 Y217.667 Z0.000
(shape postamble)
(shape preamble)
G0 X565.716 Y224.169 Z0.000
G1 X565.716 Y224.169 Z4.000
G1 X566.734 Y226.272 Z4.000
G1 X570.231 Y232.463 Z4.000
G1 X574.256 Y238.511 Z4.000
G1 X578.685 Y243.816 Z4.000
G1 X582.685 Y247.543 Z4.000
G1 X585.053 Y249.247 Z4.000
G1 X587.337 Y250.412 Z4.000
G1 X589.538 Y251.039 Z4.000
G1 X591.846 Y251.129 Z4.000
G1 X593.965 Y250.571 Z4.000
G1 X595.415 Y249.344 Z4.000
G1 X596.196 Y247.449 Z4.000
G1 X596.308 Y245.012 Z4.000
G1 X596.069 Y242.677 Z4.000
G1 X595.353 Y239.497 Z4.000
G1 X593.632 Y235.387 Z4.000
G1 X592.255 Y232.960 Z4.000
G1 X590.037 Y229.824 Z4.000
G1 X585.728 Y225.379 Z4.000
G1 X580.438 Y221.341 Z4.000
G1 X575.260 Y218.320 Z4.000
G1 X571.887 Y216.741 Z4.000
G1 X568.312 Y215.389 Z4.000
G1 X564.534 Y214.264 Z4.000
G1 X562.145 Y215.054 Z4.000
G1 X563.867 Y220.138 Z4.000
G1 X565.716 Y224.169 Z4.000
G0 X565.716 Y224.169 Z0.000
(shape postamble)
(shape preamble)
G0 X484.265 Y224.169 Z0.000
G1 X484.265 Y224.169 Z4.000
G1 X485.283 Y226.272 Z4.000
G1 X488.780 Y232.463 Z4.000
G1 X492.804 Y238.511 Z4.000
G1 X497.234 Y243.816 Z4.000
G1 X501.234 Y247.543 Z4.000
G1 X503.601 Y249.247 Z4.000
G1 X505.886 Y250.412 Z4.000
G1 X508.086 Y251.039 Z4.000
G1 X510.395 Y251.129 Z4.000
G1 X512.514 Y250.571 Z4.000
G1 X513.964 Y249.344 Z4.000
G1 X514.745 Y247.449 Z4.000
G1 X514.856 Y245.012 Z4.000
G1 X514.618 Y242.677 Z4.000
G1 X513.902 Y239.497 Z4.000
G1 X512.181 Y235.387 Z4.000
G1 X510.804 Y232.960 Z4.000
G1 X508.586 Y229.824 Z4.000
G1 X504.277 Y225.379 Z4.000
G1 X498.987 Y221.341 Z4.000
G1 X493.809 Y218.320 Z4.000
G1 X490.436 Y216.741 Z4.000
G1 X486.861 Y215.389 Z4.000
G1 X483.082 Y214.264 Z4.000
G1 X480.694 Y215.054 Z4.000
G1 X482.416 Y220.138 Z4.000
G1 X484.265 Y224.169 Z4.000
G0 X484.265 Y224.169 Z0.000
(shape postamble)
(shape preamble)
G0 X413.901 Y232.390 Z0.000
G1 X413.901 Y232.390 Z4.000
G1 X413.390 Y230.605 Z4.000
G1 X411.381 Y225.052 Z4.000
G1 X408.801 Y219.260 Z4.000
G1 X405.766 Y213.389 Z4.000
G1 X402.300 Y207.470 Z4.000
G1 X398.483 Y202.061 Z4.000
G1 X394.333 Y197.273 Z4.000
G1 X390.007 Y193.345 Z4.000
G1 X386.287 Y190.804 Z4.000
G1 X384.030 Y189.669 Z4.000
G1 X381.761 Y188.891 Z4.000
G1 X379.482 Y188.472 Z4.000
G1 X377.349 Y188.412 Z4.000
G1 X375.751 Y188.701 Z4.000
G1 X374.416 Y189.337 Z4.000
G1 X373.344 Y190.319 Z4.000
G1 X372.280 Y192.108 Z4.000
G1 X371.388 Y195.559 Z4.000
G1 X371.261 Y199.473 Z4.000
G1 X371.629 Y203.067 Z4.000
G1 X372.440 Y206.960 Z4.000
G1 X373.693 Y211.152 Z4.000
G1 X375.978 Y217.157 Z4.000
G1 X380.312 Y225.882 Z4.000
G1 X384.694 Y232.805 Z4.000
G1 X387.518 Y236.657 Z4.000
G1 X390.461 Y240.198 Z4.000
G1 X393.524 Y243.428 Z4.000
G1 X396.708 Y246.349 Z4.000
G1 X399.840 Y248.620 Z4.000
G1 X402.890 Y250.173 Z4.000
G1 X405.856 Y251.009 Z4.000
G1 X408.515 Y251.129 Z4.000
G1 X410.425 Y250.850 Z4.000
G1 X411.988 Y250.236 Z4.000
G1 X413.205 Y249.288 Z4.000
G1 X414.075 Y248.007 Z4.000
G1 X414.718 Y246.488 Z4.000
G1 X415.294 Y244.165 Z4.000
G1 X415.429 Y240.167 Z4.000
G1 X414.792 Y235.815 Z4.000
G1 X413.901 Y232.390 Z4.000
G0 X413.901 Y232.390 Z0.000
(shape postamble)
(shape preamble)
G0 X683.117 Y232.390 Z0.000
G1 X683.117 Y232.390 Z4.000
G1 X682.606 Y230.605 Z4.000
G1 X680.597 Y225.052 Z4.000
G1 X678.016 Y219.260 Z4.000
G1 X674.981 Y213.389 Z4.000
G1 X671.515 Y207.470 Z4.000
G1 X667.699 Y202.061 Z4.000
G1 X663.548 Y197.273 Z4.000
G1 X659.222 Y193.345 Z4.000
G1 X655.502 Y190.804 Z4.000
G1 X653.245 Y189.669 Z4.000
G1 X650.977 Y188.891 Z4.000
G1 X648.697 Y188.472 Z4.000
G1 X646.564 Y188.412 Z4.000
G1 X644.966 Y188.701 Z4.000
G1 X643.631 Y189.337 Z4.000
G1 X642.560 Y190.319 Z4.000
G1 X641.495 Y192.108 Z4.000
G1 X640.603 Y195.559 Z4.000
G1 X640.476 Y199.473 Z4.000
G1 X640.845 Y203.067 Z4.000
G1 X641.655 Y206.960 Z4.000
G1 X642.908 Y211.152 Z4.000
G1 X645.193 Y217.157 Z4.000
G1 X649.527 Y225.882 Z4.000
G1 X653.909 Y232.805 Z4.000
G1 X656.733 Y236.657 Z4.000
G1 X659.676 Y240.198 Z4.000
G1 X662.740 Y243.428 Z4.000
G1 X665.923 Y246.349 Z4.000
G1 X669.056 Y248.620 Z4.000
G1 X672.105 Y250.173 Z4.000
G1 X675.071 Y251.009 Z4.000
G1 X677.731 Y251.129 Z4.000
G1 X679.640 Y250.850 Z4.000
G1 X681.204 Y250.236 Z4.000
G1 X682.420 Y249.288 Z4.000
G1 X683.290 Y248.007 Z4.000
G1 X683.933 Y246.488 Z4.000
G1 X684.509 Y244.165 Z4.000
G1 X684.645 Y240.167 Z4.000
G1 X684.008 Y235.815 Z4.000
G1 X683.117 Y232.390 Z4.000
G0 X683.117 Y232.390 Z0.000
(shape postamble)
(shape preamble)
G0 X602.727 Y466.346 Z0.000
G1 X602.727 Y466.346 Z4.000
G1 X613.595 Y466.346 Z4.000
G1 X614.571 Y466.006 Z4.000
G1 X615.331 Y465.337 Z4.000
G1 X615.790 Y464.423 Z4.000
G1 X615.864 Y463.713 Z4.000
G1 X615.864 Y460.730 Z4.000
G1 X615.524 Y459.754 Z4.000
G1 X614.855 Y458.994 Z4.000
G1 X613.941 Y458.534 Z4.000
G1 X613.232 Y458.461 Z4.000
G1 X602.363 Y458.461 Z4.000
G1 X601.387 Y458.121 Z4.000
G1 X600.627 Y457.452 Z4.000
G1 X600.168 Y456.538 Z4.000
G1 X600.094 Y455.828 Z4.000
G1 X600.094 Y452.845 Z4.000
G1 X600.434 Y451.869 Z4.000
G1 X601.103 Y451.109 Z4.000
G1 X602.017 Y450.650 Z4.000
G1 X602.727 Y450.576 Z4.000
G1 X621.480 Y450.576 Z4.000
G1 X622.456 Y450.916 Z4.000
G1 X623.216 Y451.585 Z4.000
G1 X623.675 Y452.499 Z4.000
G1 X623.749 Y453.208 Z4.000
G1 X623.749 Y471.962 Z4.000
G1 X623.409 Y472.938 Z4.000
G1 X622.740 Y473.698 Z4.000
G1 X621.826 Y474.157 Z4.000
G1 X621.117 Y474.230 Z4.000
G1 X610.248 Y474.230 Z4.000
G1 X609.272 Y474.570 Z4.000
G1 X608.512 Y475.240 Z4.000
G1 X608.053 Y476.153 Z4.000
G1 X607.979 Y476.863 Z4.000
G1 X607.979 Y479.846 Z4.000
G1 X608.319 Y480.823 Z4.000
G1 X608.988 Y481.583 Z4.000
G1 X609.902 Y482.042 Z4.000
G1 X610.611 Y482.115 Z4.000
G1 X621.480 Y482.115 Z4.000
G1 X622.456 Y482.455 Z4.000
G1 X623.216 Y483.125 Z4.000
G1 X623.675 Y484.038 Z4.000
G1 X623.749 Y484.748 Z4.000
G1 X623.749 Y487.731 Z4.000
G1 X623.409 Y488.707 Z4.000
G1 X622.740 Y489.467 Z4.000
G1 X621.826 Y489.927 Z4.000
G1 X621.117 Y490.000 Z4.000
G1 X602.363 Y490.000 Z4.000
G1 X601.387 Y489.660 Z4.000
G1 X600.627 Y488.991 Z4.000
G1 X600.168 Y488.078 Z4.000
G1 X600.094 Y487.368 Z4.000
G1 X600.094 Y468.615 Z4.000
G1 X600.434 Y467.638 Z4.000
G1 X601.103 Y466.878 Z4.000
G1 X602.017 Y466.419 Z4.000
G1 X602.727 Y466.346 Z4.000
G0 X602.727 Y466.346 Z0.000
(shape postamble)
(shape preamble)
G0 X726.252 Y487.368 Z0.000
G1 X726.252 Y487.368 Z4.000
G1 X726.252 Y484.384 Z4.000
G1 X726.592 Y483.408 Z4.000
G1 X727.261 Y482.648 Z4.000
G1 X728.175 Y482.189 Z4.000
G1 X728.884 Y482.115 Z4.000
G1 X731.868 Y482.115 Z4.000
G1 X732.844 Y481.775 Z4.000
G1 X733.604 Y481.106 Z4.000
G1 X734.063 Y480.193 Z4.000
G1 X734.137 Y479.483 Z4.000
G1 X734.137 Y452.845 Z4.000
G1 X734.477 Y451.869 Z4.000
G1 X735.146 Y451.109 Z4.000
G1 X736.059 Y450.650 Z4.000
G1 X736.769 Y450.576 Z4.000
G1 X739.753 Y450.576 Z4.000
G1 X740.729 Y450.916 Z4.000
G1 X741.489 Y451.585 Z4.000
G1 X741.948 Y452.499 Z4.000
G1 X742.022 Y453.208 Z4.000
G1 X742.022 Y479.847 Z4.000
G1 X742.362 Y480.823 Z4.000
G1 X743.031 Y481.583 Z4.000
G1 X743.944 Y482.042 Z4.000
G1 X744.654 Y482.115 Z4.000
G1 X747.638 Y482.115 Z4.000
G1 X748.614 Y482.455 Z4.000
G1 X749.374 Y483.125 Z4.000
G1 X749.833 Y484.038 Z4.000
G1 X749.907 Y484.748 Z4.000
G1 X749.907 Y487.731 Z4.000
G1 X749.567 Y488.707 Z4.000
G1 X748.897 Y489.467 Z4.000
G1 X747.984 Y489.927 Z4.000
G1 X747.274 Y490.000 Z4.000
G1 X728.521 Y490.000 Z4.000
G1 X727.545 Y489.660 Z4.000
G1 X726.785 Y488.991 Z4.000
G1 X726.326 Y488.078 Z4.000
G1 X726.252 Y487.368 Z4.000
G0 X726.252 Y487.368 Z0.000
(shape postamble)
(shape preamble)
G0 X636.886 Y490.000 Z0.000
G1 X636.886 Y490.000 Z4.000
G1 X633.903 Y490.000 Z4.000
G1 X632.926 Y489.660 Z4.000
G1 X632.167 Y488.991 Z4.000
G1 X631.707 Y488.078 Z4.000
G1 X631.634 Y487.368 Z4.000
G1 X631.634 Y458.461 Z4.000
G1 X631.634 Y452.845 Z4.000
G1 X631.974 Y451.869 Z4.000
G1 X632.643 Y451.109 Z4.000
G1 X633.556 Y450.650 Z4.000
G1 X634.266 Y450.576 Z4.000
G1 X639.519 Y450.576 Z4.000
G1 X653.019 Y450.576 Z4.000
G1 X653.995 Y450.916 Z4.000
G1 X654.755 Y451.585 Z4.000
G1 X655.215 Y452.499 Z4.000
G1 X655.288 Y453.208 Z4.000
G1 X655.288 Y456.192 Z4.000
G1 X654.948 Y457.168 Z4.000
G1 X654.279 Y457.928 Z4.000
G1 X653.366 Y458.387 Z4.000
G1 X652.656 Y458.461 Z4.000
G1 X641.787 Y458.461 Z4.000
G1 X640.811 Y458.801 Z4.000
G1 X640.051 Y459.470 Z4.000
G1 X639.592 Y460.383 Z4.000
G1 X639.519 Y461.093 Z4.000
G1 X639.519 Y487.731 Z4.000
G1 X639.179 Y488.707 Z4.000
G1 X638.509 Y489.467 Z4.000
G1 X637.596 Y489.927 Z4.000
G1 X636.886 Y490.000 Z4.000
G0 X636.886 Y490.000 Z0.000
(shape postamble)
(shape preamble)
G0 X665.805 Y490.000 Z0.000
G1 X665.805 Y490.000 Z4.000
G1 X665.442 Y490.000 Z4.000
G1 X664.466 Y489.660 Z4.000
G1 X663.706 Y488.991 Z4.000
G1 X663.247 Y488.078 Z4.000
G1 X663.173 Y487.368 Z4.000
G1 X663.173 Y482.115 Z4.000
G1 X663.173 Y474.231 Z4.000
G1 X663.173 Y466.346 Z4.000
G1 X663.173 Y458.461 Z4.000
G1 X663.173 Y452.845 Z4.000
G1 X663.513 Y451.869 Z4.000
G1 X664.182 Y451.109 Z4.000
G1 X665.096 Y450.650 Z4.000
G1 X665.805 Y450.576 Z4.000
G1 X671.058 Y450.576 Z4.000
G1 X684.559 Y450.576 Z4.000
G1 X685.535 Y450.916 Z4.000
G1 X686.295 Y451.585 Z4.000
G1 X686.754 Y452.499 Z4.000
G1 X686.828 Y453.208 Z4.000
G1 X686.828 Y456.192 Z4.000
G1 X686.488 Y457.168 Z4.000
G1 X685.819 Y457.928 Z4.000
G1 X684.905 Y458.387 Z4.000
G1 X684.195 Y458.461 Z4.000
G1 X673.327 Y458.461 Z4.000
G1 X672.351 Y458.801 Z4.000
G1 X671.591 Y459.470 Z4.000
G1 X671.132 Y460.383 Z4.000
G1 X671.058 Y461.093 Z4.000
G1 X671.058 Y464.077 Z4.000
G1 X671.398 Y465.053 Z4.000
G1 X672.067 Y465.813 Z4.000
G1 X672.981 Y466.272 Z4.000
G1 X673.690 Y466.346 Z4.000
G1 X684.559 Y466.346 Z4.000
G1 X685.535 Y466.686 Z4.000
G1 X686.295 Y467.355 Z4.000
G1 X686.754 Y468.268 Z4.000
G1 X686.828 Y468.978 Z4.000
G1 X686.828 Y471.962 Z4.000
G1 X686.488 Y472.938 Z4.000
G1 X685.819 Y473.698 Z4.000
G1 X684.905 Y474.157 Z4.000
G1 X684.195 Y474.231 Z4.000
G1 X673.327 Y474.231 Z4.000
G1 X672.351 Y474.571 Z4.000
G1 X671.591 Y475.240 Z4.000
G1 X671.132 Y476.153 Z4.000
G1 X671.058 Y476.863 Z4.000
G1 X671.058 Y479.847 Z4.000
G1 X671.398 Y480.823 Z4.000
G1 X672.067 Y481.583 Z4.000
G1 X672.981 Y482.042 Z4.000
G1 X673.690 Y482.115 Z4.000
G1 X684.559 Y482.115 Z4.000
G1 X685.535 Y482.456 Z4.000
G1 X686.295 Y483.125 Z4.000
G1 X686.754 Y484.038 Z4.000
G1 X686.828 Y484.748 Z4.000
G1 X686.828 Y487.731 Z4.000
G1 X686.488 Y488.708 Z4.000
G1 X685.819 Y489.468 Z4.000
G1 X684.905 Y489.927 Z4.000
G1 X684.195 Y490.000 Z4.000
G1 X671.058 Y490.000 Z4.000
G1 X665.805 Y490.000 Z4.000
G1 X665.805 Y490.000 Z4.000
G0 X665.805 Y490.000 Z0.000
(shape postamble)
(shape preamble)
G0 X697.345 Y490.000 Z0.000
G1 X697.345 Y490.000 Z4.000
G1 X696.981 Y490.000 Z4.000
G1 X696.005 Y489.660 Z4.000
G1 X695.245 Y488.991 Z4.000
G1 X694.786 Y488.078 Z4.000
G1 X694.713 Y487.368 Z4.000
G1 X694.713 Y482.115 Z4.000
G1 X694.713 Y474.231 Z4.000
G1 X694.713 Y466.346 Z4.000
G1 X694.713 Y458.461 Z4.000
G1 X694.713 Y452.845 Z4.000
G1 X695.053 Y451.869 Z4.000
G1 X695.722 Y451.109 Z4.000
G1 X696.635 Y450.650 Z4.000
G1 X697.345 Y450.576 Z4.000
G1 X702.597 Y450.576 Z4.000
G1 X716.098 Y450.576 Z4.000
G1 X717.074 Y450.916 Z4.000
G1 X717.834 Y451.585 Z4.000
G1 X718.293 Y452.499 Z4.000
G1 X718.367 Y453.208 Z4.000
G1 X718.367 Y456.192 Z4.000
G1 X718.027 Y457.168 Z4.000
G1 X717.358 Y457.928 Z4.000
G1 X716.445 Y458.387 Z4.000
G1 X715.735 Y458.461 Z4.000
G1 X704.866 Y458.461 Z4.000
G1 X703.890 Y458.801 Z4.000
G1 X703.130 Y459.470 Z4.000
G1 X702.671 Y460.383 Z4.000
G1 X702.597 Y461.093 Z4.000
G1 X702.597 Y464.077 Z4.000
G1 X702.937 Y465.053 Z4.000
G1 X703.607 Y465.813 Z4.000
G1 X704.520 Y466.272 Z4.000
G1 X705.230 Y466.346 Z4.000
G1 X716.098 Y466.346 Z4.000
G1 X717.074 Y466.686 Z4.000
G1 X717.834 Y467.355 Z4.000
G1 X718.293 Y468.268 Z4.000
G1 X718.367 Y468.978 Z4.000
G1 X718.367 Y471.962 Z4.000
G1 X718.027 Y472.938 Z4.000
G1 X717.358 Y473.698 Z4.000
G1 X716.445 Y474.157 Z4.000
G1 X715.735 Y474.231 Z4.000
G1 X704.866 Y474.231 Z4.000
G1 X703.890 Y474.571 Z4.000
G1 X703.130 Y475.240 Z4.000
G1 X702.671 Y476.153 Z4.000
G1 X702.597 Y476.863 Z4.000
G1 X702.597 Y479.847 Z4.000
G1 X702.937 Y480.823 Z4.000
G1 X703.607 Y481.583 Z4.000
G1 X704.520 Y482.042 Z4.000
G1 X705.230 Y482.115 Z4.000
G1 X716.098 Y482.115 Z4.000
G1 X717.074 Y482.456 Z4.000
G1 X717.834 Y483.125 Z4.000
G1 X718.293 Y484.038 Z4.000
G1 X718.367 Y484.748 Z4.000
G1 X718.367 Y487.731 Z4.000
G1 X718.027 Y488.708 Z4.000
G1 X717.358 Y489.468 Z4.000
G1 X716.445 Y489.927 Z4.000
G1 X715.735 Y490.000 Z4.000
G1 X702.597 Y490.000 Z4.000
G1 X697.345 Y490.000 Z4.000
G1 X697.345 Y490.000 Z4.000
G0 X697.345 Y490.000 Z0.000
(shape postamble)
(shape preamble)
G0 X599.415 Y292.382 Z0.000
G1 X599.415 Y292.382 Z4.000
G1 X598.893 Y292.382 Z4.000
G1 X597.446 Y292.004 Z4.000
G1 X596.205 Y291.237 Z4.000
G1 X595.240 Y290.151 Z4.000
G1 X594.806 Y289.274 Z4.000
G1 X588.845 Y289.274 Z4.000
G1 X589.301 Y295.419 Z4.000
G1 X590.476 Y296.276 Z4.000
G1 X591.357 Y297.432 Z4.000
G1 X591.873 Y298.819 Z4.000
G1 X591.954 Y300.530 Z4.000
G1 X591.311 Y302.374 Z4.000
G1 X590.047 Y303.810 Z4.000
G1 X588.321 Y304.678 Z4.000
G1 X586.293 Y304.817 Z4.000
G1 X584.449 Y304.174 Z4.000
G1 X583.013 Y302.910 Z4.000
G1 X582.145 Y301.184 Z4.000
G1 X582.006 Y299.321 Z4.000
G1 X582.385 Y297.874 Z4.000
G1 X583.152 Y296.633 Z4.000
G1 X584.237 Y295.669 Z4.000
G1 X585.115 Y295.234 Z4.000
G1 X585.115 Y289.274 Z4.000
G1 X578.970 Y289.729 Z4.000
G1 X578.113 Y290.905 Z4.000
G1 X576.956 Y291.786 Z4.000
G1 X575.570 Y292.302 Z4.000
G1 X573.859 Y292.382 Z4.000
G1 X572.014 Y291.740 Z4.000
G1 X570.578 Y290.475 Z4.000
G1 X569.711 Y288.749 Z4.000
G1 X569.572 Y286.722 Z4.000
G1 X570.214 Y284.877 Z4.000
G1 X571.478 Y283.441 Z4.000
G1 X573.204 Y282.574 Z4.000
G1 X575.067 Y282.435 Z4.000
G1 X576.514 Y282.813 Z4.000
G1 X577.755 Y283.580 Z4.000
G1 X578.720 Y284.666 Z4.000
G1 X579.154 Y285.543 Z4.000
G1 X585.115 Y285.543 Z4.000
G1 X584.659 Y279.398 Z4.000
G1 X583.484 Y278.541 Z4.000
G1 X582.603 Y277.385 Z4.000
G1 X582.087 Y275.998 Z4.000
G1 X582.006 Y274.287 Z4.000
G1 X582.649 Y272.443 Z4.000
G1 X583.913 Y271.007 Z4.000
G1 X585.639 Y270.139 Z4.000
G1 X587.667 Y270.000 Z4.000
G1 X589.511 Y270.643 Z4.000
G1 X590.947 Y271.907 Z4.000
G1 X591.815 Y273.633 Z4.000
G1 X591.954 Y275.496 Z4.000
G1 X591.575 Y276.943 Z4.000
G1 X590.808 Y278.184 Z4.000
G1 X589.723 Y279.148 Z4.000
G1 X588.845 Y279.583 Z4.000
G1 X588.845 Y285.543 Z4.000
G1 X594.990 Y285.088 Z4.000
G1 X595.847 Y283.912 Z4.000
G1 X597.004 Y283.031 Z4.000
G1 X598.390 Y282.515 Z4.000
G1 X600.101 Y282.435 Z4.000
G1 X601.946 Y283.077 Z4.000
G1 X603.382 Y284.341 Z4.000
G1 X604.249 Y286.068 Z4.000
G1 X604.388 Y288.095 Z4.000
G1 X603.746 Y289.940 Z4.000
G1 X602.482 Y291.376 Z4.000
G1 X600.756 Y292.243 Z4.000
G1 X599.415 Y292.382 Z4.000
G0 X599.415 Y292.382 Z0.000
(shape postamble)
(shape preamble)
G0 X954.079 Y456.874 Z0.000
G1 X954.079 Y456.874 Z4.000
G1 X951.419 Y450.474 Z4.000
G1 X960.467 Y459.521 Z4.000
G1 X969.514 Y450.474 Z4.000
G1 X960.467 Y441.426 Z4.000
G1 X951.419 Y450.474 Z4.000
G0 X951.419 Y450.474 Z0.000
(shape postamble)
(shape preamble)
G0 X954.079 Y185.445 Z0.000
G1 X954.079 Y185.445 Z4.000
G1 X951.417 Y179.047 Z4.000
G1 X960.465 Y188.094 Z4.000
G1 X969.512 Y179.047 Z4.000
G1 X960.465 Y169.999 Z4.000
G1 X951.417 Y179.047 Z4.000
G0 X951.417 Y179.047 Z0.000
(shape postamble)
(shape preamble)
G0 X1008.103 Y547.468 Z0.000
G1 X1008.103 Y547.468 Z4.000
G1 X1008.103 Y545.019 Z4.000
G1 X1007.912 Y536.894 Z4.000
G1 X1007.147 Y529.748 Z4.000
G1 X1006.310 Y525.448 Z4.000
G1 X1005.090 Y521.205 Z4.000
G1 X1003.416 Y517.085 Z4.000
G1 X1001.216 Y513.152 Z4.000
G1 X998.418 Y509.470 Z4.000
G1 X994.950 Y506.103 Z4.000
G1 X990.741 Y503.116 Z4.000
G1 X985.719 Y500.573 Z4.000
G1 X979.812 Y498.538 Z4.000
G1 X972.948 Y497.075 Z4.000
G1 X965.056 Y496.250 Z4.000
G1 X956.296 Y496.126 Z4.000
G1 X948.671 Y496.754 Z4.000
G1 X942.019 Y498.063 Z4.000
G1 X936.273 Y499.977 Z4.000
G1 X931.367 Y502.418 Z4.000
G1 X927.234 Y505.312 Z4.000
G1 X923.808 Y508.580 Z4.000
G1 X921.024 Y512.146 Z4.000
G1 X918.814 Y515.933 Z4.000
G1 X917.112 Y519.865 Z4.000
G1 X915.852 Y523.866 Z4.000
G1 X914.968 Y527.857 Z4.000
G1 X914.217 Y533.057 Z4.000
G1 X913.863 Y540.163 Z4.000
G1 X913.863 Y544.090 Z4.000
G1 X913.863 Y568.410 Z4.000
G1 X941.561 Y568.410 Z4.000
G1 X941.561 Y540.797 Z4.000
G1 X941.790 Y537.364 Z4.000
G1 X942.270 Y534.347 Z4.000
G1 X942.974 Y531.718 Z4.000
G1 X943.878 Y529.452 Z4.000
G1 X944.955 Y527.521 Z4.000
G1 X946.180 Y525.899 Z4.000
G1 X947.528 Y524.560 Z4.000
G1 X949.457 Y523.127 Z4.000
G1 X952.565 Y521.757 Z4.000
G1 X955.716 Y521.052 Z4.000
G1 X958.703 Y520.799 Z4.000
G1 X961.638 Y520.783 Z4.000
G1 X964.774 Y521.052 Z4.000
G1 X967.517 Y521.618 Z4.000
G1 X969.894 Y522.458 Z4.000
G1 X971.931 Y523.544 Z4.000
G1 X973.654 Y524.851 Z4.000
G1 X975.090 Y526.353 Z4.000
G1 X976.263 Y528.025 Z4.000
G1 X977.503 Y530.452 Z4.000
G1 X978.652 Y534.479 Z4.000
G1 X979.210 Y538.739 Z4.000
G1 X979.387 Y543.024 Z4.000
G1 X979.392 Y545.779 Z4.000
G1 X978.126 Y604.003 Z4.000
G1 X974.284 Y600.125 Z4.000
G1 X970.420 Y597.118 Z4.000
G1 X966.568 Y594.875 Z4.000
G1 X962.757 Y593.289 Z4.000
G1 X959.020 Y592.254 Z4.000
G1 X955.389 Y591.661 Z4.000
G1 X951.895 Y591.405 Z4.000
G1 X947.367 Y591.379 Z4.000
G1 X941.165 Y591.975 Z4.000
G1 X935.753 Y593.222 Z4.000
G1 X931.079 Y595.047 Z4.000
G1 X927.088 Y597.381 Z4.000
G1 X923.727 Y600.152 Z4.000
G1 X920.940 Y603.290 Z4.000
G1 X918.675 Y606.725 Z4.000
G1 X916.877 Y610.384 Z4.000
G1 X915.493 Y614.198 Z4.000
G1 X914.468 Y618.096 Z4.000
G1 X913.749 Y622.007 Z4.000
G1 X913.138 Y627.138 Z4.000
G1 X912.850 Y634.271 Z4.000
G1 X912.850 Y638.329 Z4.000
G1 X912.850 Y695.076 Z4.000
G1 X913.038 Y700.821 Z4.000
G1 X913.787 Y706.727 Z4.000
G1 X914.607 Y710.519 Z4.000
G1 X915.801 Y714.420 Z4.000
G1 X917.440 Y718.340 Z4.000
G1 X919.595 Y722.193 Z4.000
G1 X922.335 Y725.890 Z4.000
G1 X925.731 Y729.343 Z4.000
G1 X929.853 Y732.463 Z4.000
G1 X934.771 Y735.163 Z4.000
G1 X940.556 Y737.355 Z4.000
G1 X947.277 Y738.951 Z4.000
G1 X955.006 Y739.862 Z4.000
G1 X962.672 Y740.000 Z4.000
G1 X969.681 Y739.525 Z4.000
G1 X976.353 Y738.322 Z4.000
G1 X980.480 Y737.170 Z4.000
G1 X984.607 Y735.607 Z4.000
G1 X988.639 Y733.572 Z4.000
G1 X992.270 Y731.176 Z4.000
G1 X995.115 Y728.915 Z4.000
G1 X997.597 Y726.536 Z4.000
G1 X999.741 Y724.053 Z4.000
G1 X1001.572 Y721.478 Z4.000
G1 X1003.114 Y718.825 Z4.000
G1 X1004.805 Y715.195 Z4.000
G1 X1006.520 Y709.579 Z4.000
G1 X1007.510 Y703.872 Z4.000
G1 X1008.103 Y696.280 Z4.000
G1 X1008.103 Y688.996 Z4.000
G1 X1008.103 Y547.468 Z4.000
G1 X1008.103 Y547.468 Z4.000
G0 X1008.103 Y547.468 Z0.000
(shape postamble)
(shape preamble)
G0 X941.224 Y639.343 Z0.000
G1 X941.224 Y639.343 Z4.000
G1 X941.224 Y638.246 Z4.000
G1 X941.297 Y634.630 Z4.000
G1 X941.660 Y630.835 Z4.000
G1 X942.530 Y627.083 Z4.000
G1 X943.836 Y624.164 Z4.000
G1 X944.898 Y622.549 Z4.000
G1 X946.213 Y621.074 Z4.000
G1 X947.809 Y619.766 Z4.000
G1 X949.714 Y618.654 Z4.000
G1 X951.955 Y617.765 Z4.000
G1 X954.558 Y617.126 Z4.000
G1 X957.551 Y616.766 Z4.000
G1 X961.025 Y616.712 Z4.000
G1 X964.326 Y617.004 Z4.000
G1 X967.205 Y617.614 Z4.000
G1 X969.692 Y618.507 Z4.000
G1 X971.816 Y619.649 Z4.000
G1 X973.605 Y621.005 Z4.000
G1 X975.088 Y622.541 Z4.000
G1 X976.293 Y624.221 Z4.000
G1 X977.556 Y626.613 Z4.000
G1 X978.704 Y630.421 Z4.000
G1 X979.239 Y634.208 Z4.000
G1 X979.392 Y637.696 Z4.000
G1 X979.392 Y639.681 Z4.000
G1 X979.392 Y694.190 Z4.000
G1 X979.317 Y697.954 Z4.000
G1 X978.941 Y701.913 Z4.000
G1 X978.038 Y705.835 Z4.000
G1 X976.685 Y708.888 Z4.000
G1 X975.585 Y710.578 Z4.000
G1 X974.221 Y712.123 Z4.000
G1 X972.567 Y713.492 Z4.000
G1 X970.593 Y714.658 Z4.000
G1 X968.270 Y715.590 Z4.000
G1 X965.572 Y716.259 Z4.000
G1 X962.470 Y716.637 Z4.000
G1 X958.956 Y716.694 Z4.000
G1 X955.770 Y716.433 Z4.000
G1 X952.990 Y715.886 Z4.000
G1 X950.589 Y715.084 Z4.000
G1 X948.539 Y714.053 Z4.000
G1 X946.812 Y712.825 Z4.000
G1 X945.380 Y711.428 Z4.000
G1 X944.216 Y709.891 Z4.000
G1 X942.997 Y707.690 Z4.000
G1 X941.889 Y704.139 Z4.000
G1 X941.372 Y700.536 Z4.000
G1 X941.224 Y697.113 Z4.000
G1 X941.224 Y695.076 Z4.000
G1 X941.224 Y639.343 Z4.000
G0 X941.224 Y639.343 Z0.000
(shape postamble)
(shape preamble)
G0 X1014.763 Y368.515 Z0.000
G1 X1014.763 Y368.515 Z4.000
G1 X1015.296 Y369.048 Z4.000
G1 X1050.953 Y369.048 Z4.000
G1 X1050.953 Y405.238 Z4.000
G1 X1014.763 Y405.238 Z4.000
G1 X1014.763 Y369.581 Z4.000
G1 X1014.229 Y369.048 Z4.000
G1 X979.105 Y369.048 Z4.000
G1 X978.572 Y369.581 Z4.000
G1 X978.572 Y405.238 Z4.000
G1 X942.382 Y405.238 Z4.000
G1 X942.382 Y369.581 Z4.000
G1 X941.848 Y369.048 Z4.000
G1 X906.724 Y369.048 Z4.000
G1 X906.191 Y369.581 Z4.000
G1 X906.191 Y405.238 Z4.000
G1 X870.001 Y405.238 Z4.000
G1 X870.001 Y369.048 Z4.000
G1 X905.658 Y369.048 Z4.000
G1 X906.191 Y368.515 Z4.000
G1 X906.191 Y333.390 Z4.000
G1 X905.658 Y332.857 Z4.000
G1 X870.001 Y332.857 Z4.000
G1 X870.001 Y296.667 Z4.000
G1 X905.658 Y296.667 Z4.000
G1 X906.191 Y296.134 Z4.000
G1 X906.191 Y261.009 Z4.000
G1 X905.658 Y260.476 Z4.000
G1 X870.001 Y260.476 Z4.000
G1 X870.001 Y224.286 Z4.000
G1 X906.191 Y224.286 Z4.000
G1 X906.191 Y259.943 Z4.000
G1 X906.724 Y260.476 Z4.000
G1 X941.848 Y260.476 Z4.000
G1 X942.382 Y259.943 Z4.000
G1 X942.382 Y224.286 Z4.000
G1 X978.572 Y224.286 Z4.000
G1 X978.572 Y259.943 Z4.000
G1 X979.105 Y260.476 Z4.000
G1 X1014.229 Y260.476 Z4.000
G1 X1014.763 Y259.943 Z4.000
G1 X1014.763 Y224.286 Z4.000
G1 X1050.953 Y224.286 Z4.000
G1 X1050.953 Y260.476 Z4.000
G1 X1015.296 Y260.476 Z4.000
G1 X1014.763 Y261.009 Z4.000
G1 X1014.763 Y296.134 Z4.000
G1 X1015.296 Y296.667 Z4.000
G1 X1050.953 Y296.667 Z4.000
G1 X1050.953 Y332.857 Z4.000
G1 X1015.296 Y332.857 Z4.000
G1 X1014.763 Y333.390 Z4.000
G1 X1014.763 Y368.515 Z4.000
G0 X1014.763 Y368.515 Z0.000
(shape postamble)
(shape preamble)
G0 X1014.763 Y297.200 Z0.000
G1 X1014.763 Y297.200 Z4.000
G1 X1014.229 Y296.667 Z4.000
G1 X979.105 Y296.667 Z4.000
G1 X978.572 Y297.200 Z4.000
G1 X978.572 Y332.324 Z4.000
G1 X979.105 Y332.857 Z4.000
G1 X1014.229 Y332.857 Z4.000
G1 X1014.763 Y332.324 Z4.000
G1 X1014.763 Y297.200 Z4.000
G0 X1014.763 Y297.200 Z0.000
(shape postamble)
(shape preamble)
G0 X942.915 Y260.476 Z0.000
G1 X942.915 Y260.476 Z4.000
G1 X942.382 Y261.009 Z4.000
G1 X942.382 Y296.134 Z4.000
G1 X942.915 Y296.667 Z4.000
G1 X978.039 Y296.667 Z4.000
G1 X978.572 Y296.134 Z4.000
G1 X978.572 Y261.009 Z4.000
G1 X978.039 Y260.476 Z4.000
G1 X942.915 Y260.476 Z4.000
G0 X942.915 Y260.476 Z0.000
(shape postamble)
(shape preamble)
G0 X906.724 Y296.667 Z0.000
G1 X906.724 Y296.667 Z4.000
G1 X906.191 Y297.200 Z4.000
G1 X906.191 Y332.324 Z4.000
G1 X906.724 Y332.857 Z4.000
G1 X941.848 Y332.857 Z4.000
G1 X942.382 Y332.324 Z4.000
G1 X942.382 Y297.200 Z4.000
G1 X941.848 Y296.667 Z4.000
G1 X906.724 Y296.667 Z4.000
G0 X906.724 Y296.667 Z0.000
(shape postamble)
(shape preamble)
G0 X978.039 Y369.048 Z0.000
G1 X978.039 Y369.048 Z4.000
G1 X978.572 Y368.515 Z4.000
G1 X978.572 Y333.390 Z4.000
G1 X978.039 Y332.857 Z4.000
G1 X942.915 Y332.857 Z4.000
G1 X942.382 Y333.390 Z4.000
G1 X942.382 Y368.515 Z4.000
G1 X942.915 Y369.048 Z4.000
G1 X978.039 Y369.048 Z4.000
G0 X978.039 Y369.048 Z0.000
(shape postamble)
(shape preamble)
G0 X800.001 Y800.000 Z0.000
G1 X800.001 Y800.000 Z4.000
G1 X800.001 Y120.000 Z4.000
G0 X800.001 Y120.000 Z0.000
(shape postamble)
(shape preamble)
G0 X80.000 Y900.000 Z0.000
G1 X80.000 Y900.000 Z4.000
G1 X120.000 Y900.000 Z4.000
G0 X120.000 Y900.000 Z0.000
(shape postamble)
(shape preamble)
G0 X100.000 Y920.001 Z0.000
G1 X100.000 Y920.001 Z4.000
G1 X100.000 Y880.000 Z4.000
G0 X100.000 Y880.000 Z0.000
(shape postamble)
(shape preamble)
G0 X80.000 Y100.000 Z0.000
G1 X80.000 Y100.000 Z4.000
G1 X120.000 Y100.000 Z4.000
G0 X120.000 Y100.000 Z0.000
(shape postamble)
(shape preamble)
G0 X100.000 Y120.000 Z0.000
G1 X100.000 Y120.000 Z4.000
G1 X100.000 Y80.000 Z4.000
G0 X100.000 Y80.000 Z0.000
(shape postamble)
(shape preamble)
G0 X1680.001 Y900.000 Z0.000
G1 X1680.001 Y900.000 Z4.000
G1 X1720.001 Y900.000 Z4.000
G0 X1720.001 Y900.000 Z0.000
(shape postamble)
(shape preamble)
G0 X1700.001 Y920.001 Z0.000
G1 X1700.001 Y920.001 Z4.000
G1 X1700.001 Y880.000 Z4.000
G0 X1700.001 Y880.000 Z0.000
(shape postamble)
(shape preamble)
G0 X1680.001 Y100.000 Z0.000
G1 X1680.001 Y100.000 Z4.000
G1 X1720.001 Y100.000 Z4.000
G0 X1720.001 Y100.000 Z0.000
(shape postamble)
(shape preamble)
G0 X1700.001 Y120.000 Z0.000
G1 X1700.001 Y120.000 Z4.000
G1 X1700.001 Y80.000 Z4.000
G0 X1700.001 Y80.000 Z0.000
(shape postamble)

(postamble)
(home)
G0 0
G0 X0 Y0
