
(Created with svg2gcode_grbl)
(https://github.com/arcadeperfect/svg2gcode_grbl)


(forked from svg2gcode by visphat)
(https://github.com/vishpat/svg2gcode)


F4000

(shape preamble)

G0 X298.406 Y582.475 Z0.000
G1 X298.406 Y582.475 Z4.000
G1 X298.210 Y582.100 Z4.000
G1 X297.762 Y580.927 Z4.000
G1 X297.482 Y579.695 Z4.000
G1 X297.371 Y578.405 Z4.000
G1 X297.457 Y576.604 Z4.000
G1 X298.189 Y573.694 Z4.000
G1 X299.594 Y570.551 Z4.000
G1 X301.488 Y567.562 Z4.000
G1 X303.833 Y564.807 Z4.000
G1 X306.629 Y562.286 Z4.000
G1 X309.875 Y559.998 Z4.000
G1 X313.167 Y558.217 Z4.000
G1 X316.425 Y556.999 Z4.000
G1 X319.649 Y556.343 Z4.000
G1 X322.838 Y556.250 Z4.000
G1 X325.155 Y556.624 Z4.000
G1 X326.391 Y557.022 Z4.000
G1 X327.501 Y557.561 Z4.000
G1 X328.487 Y558.241 Z4.000
G1 X329.347 Y559.061 Z4.000
G1 X330.082 Y560.022 Z4.000
G1 X330.691 Y561.123 Z4.000
G1 X331.139 Y562.296 Z4.000
G1 X331.418 Y563.527 Z4.000
G1 X331.530 Y564.817 Z4.000
G1 X331.444 Y566.617 Z4.000
G1 X330.713 Y569.528 Z4.000
G1 X329.307 Y572.672 Z4.000
G1 X327.413 Y575.660 Z4.000
G1 X325.068 Y578.414 Z4.000
G1 X322.272 Y580.936 Z4.000
G1 X319.025 Y583.225 Z4.000
G1 X315.732 Y585.005 Z4.000
G1 X312.474 Y586.224 Z4.000
G1 X309.251 Y586.880 Z4.000
G1 X306.062 Y586.974 Z4.000
G1 X303.744 Y586.599 Z4.000
G1 X302.508 Y586.200 Z4.000
G1 X301.398 Y585.661 Z4.000
G1 X300.413 Y584.981 Z4.000
G1 X299.553 Y584.161 Z4.000
G1 X298.819 Y583.201 Z4.000
G1 X298.406 Y582.475 Z4.000
G0 X298.406 Y582.475 Z0.000

(shape postamble)


(shape preamble)

G0 X361.174 Y519.264 Z0.000
G1 X361.174 Y519.264 Z4.000
G1 X360.608 Y517.069 Z4.000
G1 X358.628 Y508.802 Z4.000
G1 X357.070 Y503.151 Z4.000
G1 X355.177 Y497.170 Z4.000
G1 X352.996 Y491.044 Z4.000
G1 X350.539 Y484.809 Z4.000
G1 X347.773 Y479.103 Z4.000
G1 X345.217 Y474.878 Z4.000
G1 X343.597 Y472.591 Z4.000
G1 X341.915 Y470.524 Z4.000
G1 X340.170 Y468.677 Z4.000
G1 X338.361 Y467.050 Z4.000
G1 X336.462 Y465.790 Z4.000
G1 X334.471 Y464.928 Z4.000
G1 X332.386 Y464.465 Z4.000
G1 X330.463 Y464.398 Z4.000
G1 X329.115 Y464.615 Z4.000
G1 X327.863 Y465.092 Z4.000
G1 X326.707 Y465.831 Z4.000
G1 X325.296 Y467.178 Z4.000
G1 X323.466 Y469.673 Z4.000
G1 X322.106 Y472.335 Z4.000
G1 X321.301 Y474.716 Z4.000
G1 X320.724 Y477.455 Z4.000
G1 X320.375 Y480.551 Z4.000
G1 X320.225 Y485.174 Z4.000
G1 X320.513 Y493.065 Z4.000
G1 X321.346 Y501.999 Z4.000
G1 X322.625 Y511.701 Z4.000
G1 X324.924 Y525.628 Z4.000
G1 X327.204 Y540.332 Z4.000
G1 X295.377 Y532.212 Z4.000
G1 X293.291 Y513.366 Z4.000
G1 X292.082 Y500.910 Z4.000
G1 X291.942 Y495.241 Z4.000
G1 X291.819 Y490.805 Z4.000
G1 X290.716 Y487.917 Z4.000
G1 X289.396 Y484.859 Z4.000
G1 X287.963 Y481.954 Z4.000
G1 X286.417 Y479.200 Z4.000
G1 X284.758 Y476.596 Z4.000
G1 X283.010 Y474.212 Z4.000
G1 X281.178 Y472.061 Z4.000
G1 X279.263 Y470.143 Z4.000
G1 X277.264 Y468.459 Z4.000
G1 X275.167 Y467.156 Z4.000
G1 X272.969 Y466.264 Z4.000
G1 X270.672 Y465.784 Z4.000
G1 X268.605 Y465.715 Z4.000
G1 X267.233 Y465.863 Z4.000
G1 X265.928 Y466.190 Z4.000
G1 X264.688 Y466.695 Z4.000
G1 X263.126 Y467.617 Z4.000
G1 X260.923 Y469.454 Z4.000
G1 X258.869 Y471.786 Z4.000
G1 X256.961 Y474.520 Z4.000
G1 X254.621 Y478.698 Z4.000
G1 X251.618 Y484.845 Z4.000
G1 X249.554 Y489.962 Z4.000
G1 X247.714 Y495.560 Z4.000
G1 X246.097 Y501.640 Z4.000
G1 X244.704 Y508.199 Z4.000
G1 X243.569 Y514.952 Z4.000
G1 X242.697 Y521.842 Z4.000
G1 X242.088 Y528.869 Z4.000
G1 X241.744 Y536.034 Z4.000
G1 X241.671 Y543.198 Z4.000
G1 X241.872 Y550.335 Z4.000
G1 X242.346 Y557.446 Z4.000
G1 X243.096 Y564.528 Z4.000
G1 X244.151 Y571.297 Z4.000
G1 X245.520 Y577.696 Z4.000
G1 X247.204 Y583.724 Z4.000
G1 X249.201 Y589.382 Z4.000
G1 X251.526 Y594.544 Z4.000
G1 X254.182 Y599.184 Z4.000
G1 X257.170 Y603.303 Z4.000
G1 X259.925 Y606.317 Z4.000
G1 X261.681 Y607.890 Z4.000
G1 X263.522 Y609.243 Z4.000
G1 X265.446 Y610.377 Z4.000
G1 X267.455 Y611.291 Z4.000
G1 X269.548 Y611.986 Z4.000
G1 X271.726 Y612.462 Z4.000
G1 X273.987 Y612.718 Z4.000
G1 X276.314 Y612.755 Z4.000
G1 X278.593 Y612.400 Z4.000
G1 X280.841 Y611.620 Z4.000
G1 X283.060 Y610.416 Z4.000
G1 X285.976 Y608.218 Z4.000
G1 X290.358 Y604.588 Z4.000
G1 X294.762 Y600.684 Z4.000
G1 X299.245 Y596.962 Z4.000
G1 X303.051 Y594.082 Z4.000
G1 X305.415 Y592.735 Z4.000
G1 X307.864 Y591.814 Z4.000
G1 X310.398 Y591.318 Z4.000
G1 X312.907 Y591.248 Z4.000
G1 X314.888 Y591.567 Z4.000
G1 X316.479 Y592.271 Z4.000
G1 X317.682 Y593.359 Z4.000
G1 X318.495 Y594.832 Z4.000
G1 X318.848 Y596.550 Z4.000
G1 X318.726 Y598.489 Z4.000
G1 X318.128 Y600.647 Z4.000
G1 X317.056 Y603.025 Z4.000
G1 X315.671 Y605.232 Z4.000
G1 X314.006 Y607.194 Z4.000
G1 X312.061 Y608.909 Z4.000
G1 X309.837 Y610.377 Z4.000
G1 X307.499 Y611.654 Z4.000
G1 X305.082 Y612.753 Z4.000
G1 X302.585 Y613.675 Z4.000
G1 X299.145 Y614.656 Z4.000
G1 X294.001 Y615.626 Z4.000
G1 X287.201 Y616.156 Z4.000
G1 X280.053 Y616.266 Z4.000
G1 X274.202 Y615.786 Z4.000
G1 X268.312 Y614.730 Z4.000
G1 X262.382 Y613.098 Z4.000
G1 X257.406 Y611.273 Z4.000
G1 X254.476 Y609.998 Z4.000
G1 X251.615 Y608.576 Z4.000
G1 X248.825 Y607.006 Z4.000
G1 X246.106 Y605.288 Z4.000
G1 X243.456 Y603.423 Z4.000
G1 X240.021 Y600.732 Z4.000
G1 X235.930 Y596.944 Z4.000
G1 X233.586 Y594.486 Z4.000
G1 X231.341 Y591.877 Z4.000
G1 X229.196 Y589.118 Z4.000
G1 X227.150 Y586.208 Z4.000
G1 X225.204 Y583.148 Z4.000
G1 X222.747 Y578.857 Z4.000
G1 X219.961 Y573.060 Z4.000
G1 X218.476 Y569.398 Z4.000
G1 X217.168 Y565.589 Z4.000
G1 X216.037 Y561.632 Z4.000
G1 X215.083 Y557.528 Z4.000
G1 X214.305 Y553.276 Z4.000
G1 X213.704 Y548.877 Z4.000
G1 X213.280 Y544.331 Z4.000
G1 X213.104 Y541.210 Z4.000
G1 X183.663 Y542.966 Z4.000
G1 X183.839 Y549.193 Z4.000
G1 X184.342 Y556.573 Z4.000
G1 X185.298 Y564.463 Z4.000
G1 X186.728 Y572.739 Z4.000
G1 X188.695 Y581.078 Z4.000
G1 X190.776 Y588.028 Z4.000
G1 X192.223 Y592.015 Z4.000
G1 X193.844 Y595.783 Z4.000
G1 X195.638 Y599.331 Z4.000
G1 X197.605 Y602.660 Z4.000
G1 X199.783 Y605.688 Z4.000
G1 X202.181 Y608.401 Z4.000
G1 X204.798 Y610.799 Z4.000
G1 X207.635 Y612.883 Z4.000
G1 X210.708 Y614.489 Z4.000
G1 X214.024 Y615.589 Z4.000
G1 X217.582 Y616.182 Z4.000
G1 X221.566 Y616.266 Z4.000
G1 X225.811 Y615.992 Z4.000
G1 X229.885 Y615.388 Z4.000
G1 X233.250 Y615.004 Z4.000
G1 X235.655 Y614.949 Z4.000
G1 X237.330 Y615.075 Z4.000
G1 X238.645 Y615.351 Z4.000
G1 X239.600 Y615.779 Z4.000
G1 X240.196 Y616.357 Z4.000
G1 X240.554 Y616.972 Z4.000
G1 X240.700 Y617.601 Z4.000
G1 X240.633 Y618.244 Z4.000
G1 X240.250 Y619.119 Z4.000
G1 X239.143 Y620.481 Z4.000
G1 X237.757 Y621.661 Z4.000
G1 X236.549 Y622.225 Z4.000
G1 X234.961 Y622.612 Z4.000
G1 X232.993 Y622.820 Z4.000
G1 X230.496 Y622.850 Z4.000
G1 X226.653 Y622.530 Z4.000
G1 X219.879 Y621.568 Z4.000
G1 X208.451 Y620.143 Z4.000
G1 X200.297 Y619.310 Z4.000
G1 X191.077 Y618.533 Z4.000
G1 X180.747 Y618.085 Z4.000
G1 X168.314 Y618.022 Z4.000
G1 X154.361 Y617.587 Z4.000
G1 X141.179 Y616.631 Z4.000
G1 X128.766 Y615.154 Z4.000
G1 X119.041 Y613.505 Z4.000
G1 X113.512 Y612.362 Z4.000
G1 X108.255 Y611.099 Z4.000
G1 X103.272 Y609.716 Z4.000
G1 X98.562 Y608.214 Z4.000
G1 X94.126 Y606.591 Z4.000
G1 X89.962 Y604.849 Z4.000
G1 X86.072 Y602.987 Z4.000
G1 X82.455 Y601.004 Z4.000
G1 X79.136 Y598.904 Z4.000
G1 X76.119 Y596.687 Z4.000
G1 X73.405 Y594.354 Z4.000
G1 X70.994 Y591.904 Z4.000
G1 X68.884 Y589.338 Z4.000
G1 X67.077 Y586.656 Z4.000
G1 X65.573 Y583.857 Z4.000
G1 X64.371 Y580.942 Z4.000
G1 X63.531 Y577.923 Z4.000
G1 X63.064 Y574.806 Z4.000
G1 X62.969 Y571.588 Z4.000
G1 X63.249 Y568.272 Z4.000
G1 X63.901 Y564.856 Z4.000
G1 X64.927 Y561.341 Z4.000
G1 X66.325 Y557.726 Z4.000
G1 X67.940 Y554.304 Z4.000
G1 X69.519 Y551.519 Z4.000
G1 X71.361 Y548.817 Z4.000
G1 X73.465 Y546.198 Z4.000
G1 X75.832 Y543.660 Z4.000
G1 X78.338 Y541.273 Z4.000
G1 X80.957 Y539.051 Z4.000
G1 X83.689 Y536.994 Z4.000
G1 X86.535 Y535.101 Z4.000
G1 X89.484 Y533.395 Z4.000
G1 X92.533 Y531.881 Z4.000
G1 X95.682 Y530.561 Z4.000
G1 X98.931 Y529.432 Z4.000
G1 X102.157 Y528.563 Z4.000
G1 X105.334 Y527.969 Z4.000
G1 X108.464 Y527.649 Z4.000
G1 X111.948 Y527.604 Z4.000
G1 X116.057 Y527.889 Z4.000
G1 X119.961 Y528.517 Z4.000
G1 X123.661 Y529.489 Z4.000
G1 X127.155 Y530.804 Z4.000
G1 X130.324 Y532.404 Z4.000
G1 X133.142 Y534.279 Z4.000
G1 X135.610 Y536.428 Z4.000
G1 X137.728 Y538.851 Z4.000
G1 X139.426 Y541.502 Z4.000
G1 X140.690 Y544.373 Z4.000
G1 X141.521 Y547.464 Z4.000
G1 X141.917 Y550.775 Z4.000
G1 X141.770 Y554.270 Z4.000
G1 X141.058 Y557.943 Z4.000
G1 X139.782 Y561.796 Z4.000
G1 X137.888 Y565.936 Z4.000
G1 X135.402 Y570.187 Z4.000
G1 X132.446 Y574.275 Z4.000
G1 X129.466 Y577.649 Z4.000
G1 X127.517 Y579.397 Z4.000
G1 X126.680 Y577.932 Z4.000
G1 X129.272 Y574.970 Z4.000
G1 X132.014 Y571.349 Z4.000
G1 X134.457 Y567.434 Z4.000
G1 X136.283 Y563.778 Z4.000
G1 X137.317 Y561.057 Z4.000
G1 X138.023 Y558.365 Z4.000
G1 X138.400 Y555.699 Z4.000
G1 X138.450 Y553.061 Z4.000
G1 X138.206 Y550.541 Z4.000
G1 X137.678 Y548.159 Z4.000
G1 X136.866 Y545.914 Z4.000
G1 X135.767 Y543.807 Z4.000
G1 X134.386 Y541.904 Z4.000
G1 X132.722 Y540.222 Z4.000
G1 X130.775 Y538.759 Z4.000
G1 X128.544 Y537.515 Z4.000
G1 X126.078 Y536.559 Z4.000
G1 X123.386 Y535.906 Z4.000
G1 X120.468 Y535.554 Z4.000
G1 X117.580 Y535.504 Z4.000
G1 X115.238 Y535.656 Z4.000
G1 X112.986 Y535.989 Z4.000
G1 X110.822 Y536.503 Z4.000
G1 X108.746 Y537.200 Z4.000
G1 X106.758 Y538.078 Z4.000
G1 X104.859 Y539.139 Z4.000
G1 X103.048 Y540.381 Z4.000
G1 X100.755 Y542.289 Z4.000
G1 X97.647 Y545.436 Z4.000
G1 X94.909 Y548.872 Z4.000
G1 X92.541 Y552.597 Z4.000
G1 X90.621 Y556.444 Z4.000
G1 X89.191 Y559.899 Z4.000
G1 X88.085 Y563.220 Z4.000
G1 X87.303 Y566.407 Z4.000
G1 X86.845 Y569.460 Z4.000
G1 X86.712 Y572.380 Z4.000
G1 X86.904 Y575.166 Z4.000
G1 X87.420 Y577.819 Z4.000
G1 X88.260 Y580.338 Z4.000
G1 X89.322 Y582.752 Z4.000
G1 X90.586 Y585.065 Z4.000
G1 X92.052 Y587.280 Z4.000
G1 X93.719 Y589.395 Z4.000
G1 X95.589 Y591.411 Z4.000
G1 X97.660 Y593.327 Z4.000
G1 X99.933 Y595.144 Z4.000
G1 X103.244 Y597.428 Z4.000
G1 X108.734 Y600.532 Z4.000
G1 X114.791 Y603.281 Z4.000
G1 X121.416 Y605.672 Z4.000
G1 X128.610 Y607.707 Z4.000
G1 X135.979 Y609.488 Z4.000
G1 X143.445 Y611.035 Z4.000
G1 X151.009 Y612.349 Z4.000
G1 X158.670 Y613.431 Z4.000
G1 X166.230 Y614.313 Z4.000
G1 X173.649 Y615.003 Z4.000
G1 X180.926 Y615.502 Z4.000
G1 X190.432 Y615.899 Z4.000
G1 X202.568 Y616.220 Z4.000
G1 X209.130 Y616.266 Z4.000
G1 X207.824 Y615.516 Z4.000
G1 X203.467 Y614.457 Z4.000
G1 X199.340 Y613.248 Z4.000
G1 X195.443 Y611.887 Z4.000
G1 X191.775 Y610.377 Z4.000
G1 X188.338 Y608.715 Z4.000
G1 X185.130 Y606.902 Z4.000
G1 X182.151 Y604.939 Z4.000
G1 X179.403 Y602.824 Z4.000
G1 X176.817 Y600.607 Z4.000
G1 X174.383 Y598.298 Z4.000
G1 X172.099 Y595.896 Z4.000
G1 X169.965 Y593.401 Z4.000
G1 X167.982 Y590.814 Z4.000
G1 X166.150 Y588.134 Z4.000
G1 X164.468 Y585.362 Z4.000
G1 X162.434 Y581.536 Z4.000
G1 X159.804 Y575.570 Z4.000
G1 X157.635 Y569.356 Z4.000
G1 X155.927 Y562.896 Z4.000
G1 X154.289 Y553.939 Z4.000
G1 X152.430 Y540.487 Z4.000
G1 X150.751 Y522.628 Z4.000
G1 X149.183 Y503.444 Z4.000
G1 X148.425 Y497.454 Z4.000
G1 X147.360 Y491.849 Z4.000
G1 X145.990 Y486.628 Z4.000
G1 X144.312 Y481.791 Z4.000
G1 X142.226 Y477.406 Z4.000
G1 X139.713 Y473.487 Z4.000
G1 X136.772 Y470.035 Z4.000
G1 X133.975 Y467.535 Z4.000
G1 X132.102 Y466.232 Z4.000
G1 X130.046 Y465.111 Z4.000
G1 X127.807 Y464.172 Z4.000
G1 X125.386 Y463.415 Z4.000
G1 X122.782 Y462.840 Z4.000
G1 X119.996 Y462.446 Z4.000
G1 X117.028 Y462.234 Z4.000
G1 X113.657 Y462.204 Z4.000
G1 X110.048 Y462.650 Z4.000
G1 X106.721 Y463.630 Z4.000
G1 X103.674 Y465.146 Z4.000
G1 X100.906 Y467.197 Z4.000
G1 X98.391 Y469.645 Z4.000
G1 X96.126 Y472.464 Z4.000
G1 X94.110 Y475.653 Z4.000
G1 X93.361 Y478.225 Z4.000
G1 X94.530 Y479.031 Z4.000
G1 X95.505 Y480.016 Z4.000
G1 X96.285 Y481.180 Z4.000
G1 X96.871 Y482.522 Z4.000
G1 X97.123 Y483.996 Z4.000
G1 X97.015 Y485.593 Z4.000
G1 X96.546 Y487.315 Z4.000
G1 X95.560 Y489.490 Z4.000
G1 X93.933 Y492.183 Z4.000
G1 X91.985 Y494.683 Z4.000
G1 X89.718 Y496.993 Z4.000
G1 X87.131 Y499.110 Z4.000
G1 X84.401 Y500.760 Z4.000
G1 X81.562 Y501.889 Z4.000
G1 X78.615 Y502.498 Z4.000
G1 X75.927 Y502.585 Z4.000
G1 X74.116 Y502.439 Z4.000
G1 X72.501 Y502.119 Z4.000
G1 X71.083 Y501.623 Z4.000
G1 X69.861 Y500.953 Z4.000
G1 X68.836 Y500.107 Z4.000
G1 X68.007 Y499.087 Z4.000
G1 X67.376 Y497.892 Z4.000
G1 X66.940 Y496.522 Z4.000
G1 X66.669 Y495.080 Z4.000
G1 X66.528 Y493.086 Z4.000
G1 X66.884 Y489.911 Z4.000
G1 X67.872 Y486.530 Z4.000
G1 X69.424 Y483.089 Z4.000
G1 X71.203 Y480.077 Z4.000
G1 X73.295 Y477.272 Z4.000
G1 X75.701 Y474.674 Z4.000
G1 X78.419 Y472.280 Z4.000
G1 X81.309 Y470.104 Z4.000
G1 X84.341 Y468.147 Z4.000
G1 X87.515 Y466.410 Z4.000
G1 X90.831 Y464.892 Z4.000
G1 X94.198 Y463.571 Z4.000
G1 X97.596 Y462.441 Z4.000
G1 X101.027 Y461.504 Z4.000
G1 X105.644 Y460.522 Z4.000
G1 X111.087 Y459.808 Z4.000
G1 X114.197 Y459.600 Z4.000
G1 X118.918 Y459.570 Z4.000
G1 X125.405 Y459.980 Z4.000
G1 X129.146 Y460.414 Z4.000
G1 X132.766 Y461.002 Z4.000
G1 X136.263 Y461.744 Z4.000
G1 X139.639 Y462.639 Z4.000
G1 X142.892 Y463.688 Z4.000
G1 X146.024 Y464.890 Z4.000
G1 X149.033 Y466.245 Z4.000
G1 X151.920 Y467.754 Z4.000
G1 X154.686 Y469.416 Z4.000
G1 X157.329 Y471.232 Z4.000
G1 X159.850 Y473.202 Z4.000
G1 X162.250 Y475.325 Z4.000
G1 X164.527 Y477.601 Z4.000
G1 X166.682 Y480.031 Z4.000
G1 X168.709 Y482.610 Z4.000
G1 X170.608 Y485.340 Z4.000
G1 X172.377 Y488.221 Z4.000
G1 X174.017 Y491.251 Z4.000
G1 X175.528 Y494.431 Z4.000
G1 X176.911 Y497.761 Z4.000
G1 X178.164 Y501.242 Z4.000
G1 X179.288 Y504.872 Z4.000
G1 X180.283 Y508.653 Z4.000
G1 X181.431 Y513.902 Z4.000
G1 X182.691 Y522.313 Z4.000
G1 X183.435 Y531.325 Z4.000
G1 X183.615 Y537.699 Z4.000
G1 X213.083 Y533.893 Z4.000
G1 X213.577 Y523.653 Z4.000
G1 X214.174 Y517.261 Z4.000
G1 X215.070 Y510.705 Z4.000
G1 X216.335 Y504.121 Z4.000
G1 X217.699 Y498.635 Z4.000
G1 X218.693 Y495.365 Z4.000
G1 X219.853 Y492.123 Z4.000
G1 X221.179 Y488.909 Z4.000
G1 X223.071 Y484.881 Z4.000
G1 X226.207 Y479.358 Z4.000
G1 X229.223 Y474.933 Z4.000
G1 X231.176 Y472.436 Z4.000
G1 X233.243 Y470.105 Z4.000
G1 X235.425 Y467.937 Z4.000
G1 X237.721 Y465.935 Z4.000
G1 X240.141 Y464.119 Z4.000
G1 X242.689 Y462.496 Z4.000
G1 X245.365 Y461.065 Z4.000
G1 X248.168 Y459.827 Z4.000
G1 X251.090 Y458.871 Z4.000
G1 X254.130 Y458.217 Z4.000
G1 X257.286 Y457.865 Z4.000
G1 X260.741 Y457.815 Z4.000
G1 X264.383 Y458.135 Z4.000
G1 X267.788 Y458.839 Z4.000
G1 X270.954 Y459.927 Z4.000
G1 X273.883 Y461.399 Z4.000
G1 X276.616 Y463.140 Z4.000
G1 X279.162 Y465.129 Z4.000
G1 X281.523 Y467.365 Z4.000
G1 X283.697 Y469.848 Z4.000
G1 X285.718 Y472.532 Z4.000
G1 X287.593 Y475.408 Z4.000
G1 X289.321 Y478.476 Z4.000
G1 X291.280 Y482.533 Z4.000
G1 X293.219 Y484.873 Z4.000
G1 X294.487 Y480.756 Z4.000
G1 X296.328 Y476.688 Z4.000
G1 X298.804 Y472.502 Z4.000
G1 X301.615 Y468.823 Z4.000
G1 X304.759 Y465.653 Z4.000
G1 X307.648 Y463.420 Z4.000
G1 X309.465 Y462.266 Z4.000
G1 X311.343 Y461.272 Z4.000
G1 X313.280 Y460.439 Z4.000
G1 X315.278 Y459.768 Z4.000
G1 X317.337 Y459.257 Z4.000
G1 X319.456 Y458.908 Z4.000
G1 X321.636 Y458.720 Z4.000
G1 X324.004 Y458.693 Z4.000
G1 X326.519 Y458.833 Z4.000
G1 X328.892 Y459.141 Z4.000
G1 X331.124 Y459.617 Z4.000
G1 X333.214 Y460.261 Z4.000
G1 X335.161 Y461.073 Z4.000
G1 X336.968 Y462.053 Z4.000
G1 X338.632 Y463.201 Z4.000
G1 X340.654 Y464.965 Z4.000
G1 X343.566 Y468.167 Z4.000
G1 X346.376 Y471.987 Z4.000
G1 X349.083 Y476.424 Z4.000
G1 X351.669 Y481.443 Z4.000
G1 X353.967 Y486.547 Z4.000
G1 X355.985 Y491.720 Z4.000
G1 X357.723 Y496.962 Z4.000
G1 X360.594 Y507.595 Z4.000
G1 X363.243 Y518.606 Z4.000
G1 X361.174 Y519.264 Z4.000
G0 X361.174 Y519.264 Z0.000

(shape postamble)


(shape preamble)

G0 X67.074 Y394.582 Z0.000
G1 X67.074 Y394.582 Z4.000
G1 X67.074 Y397.613 Z4.000
G1 X67.332 Y404.377 Z4.000
G1 X67.714 Y408.098 Z4.000
G1 X68.341 Y411.565 Z4.000
G1 X69.272 Y414.799 Z4.000
G1 X70.564 Y417.820 Z4.000
G1 X72.274 Y420.648 Z4.000
G1 X74.391 Y423.208 Z4.000
G1 X76.648 Y425.302 Z4.000
G1 X79.116 Y427.096 Z4.000
G1 X81.765 Y428.593 Z4.000
G1 X84.566 Y429.797 Z4.000
G1 X87.491 Y430.707 Z4.000
G1 X90.510 Y431.328 Z4.000
G1 X93.596 Y431.661 Z4.000
G1 X96.600 Y431.709 Z4.000
G1 X99.349 Y431.566 Z4.000
G1 X102.058 Y431.225 Z4.000
G1 X104.706 Y430.656 Z4.000
G1 X107.278 Y429.832 Z4.000
G1 X109.756 Y428.723 Z4.000
G1 X112.120 Y427.300 Z4.000
G1 X114.355 Y425.535 Z4.000
G1 X116.678 Y423.161 Z4.000
G1 X118.900 Y420.108 Z4.000
G1 X120.545 Y416.824 Z4.000
G1 X121.699 Y413.243 Z4.000
G1 X122.450 Y409.298 Z4.000
G1 X122.882 Y404.922 Z4.000
G1 X123.142 Y398.395 Z4.000
G1 X123.142 Y390.605 Z4.000
G1 X123.142 Y325.918 Z4.000
G1 X123.003 Y321.437 Z4.000
G1 X122.512 Y317.229 Z4.000
G1 X121.990 Y314.621 Z4.000
G1 X121.240 Y311.999 Z4.000
G1 X120.221 Y309.411 Z4.000
G1 X118.892 Y306.905 Z4.000
G1 X117.212 Y304.532 Z4.000
G1 X115.140 Y302.339 Z4.000
G1 X112.635 Y300.375 Z4.000
G1 X109.655 Y298.689 Z4.000
G1 X106.160 Y297.331 Z4.000
G1 X102.108 Y296.348 Z4.000
G1 X97.460 Y295.790 Z4.000
G1 X93.522 Y295.706 Z4.000
G1 X91.455 Y295.757 Z4.000
G1 X88.717 Y296.012 Z4.000
G1 X85.509 Y296.625 Z4.000
G1 X82.615 Y297.544 Z4.000
G1 X80.847 Y298.291 Z4.000
G1 X79.079 Y299.216 Z4.000
G1 X77.336 Y300.339 Z4.000
G1 X75.645 Y301.679 Z4.000
G1 X74.029 Y303.256 Z4.000
G1 X72.515 Y305.087 Z4.000
G1 X71.128 Y307.193 Z4.000
G1 X69.892 Y309.534 Z4.000
G1 X68.923 Y311.835 Z4.000
G1 X68.206 Y314.166 Z4.000
G1 X67.703 Y316.522 Z4.000
G1 X67.276 Y319.691 Z4.000
G1 X67.074 Y324.498 Z4.000
G1 X67.074 Y327.718 Z4.000
G1 X67.074 Y394.583 Z4.000
G1 X67.074 Y394.583 Z4.000
G1 X67.074 Y394.582 Z4.000
G0 X67.074 Y394.582 Z0.000

(shape postamble)


(shape preamble)

G0 X105.716 Y395.909 Z0.000
G1 X105.716 Y395.909 Z4.000
G1 X105.716 Y397.353 Z4.000
G1 X105.676 Y401.454 Z4.000
G1 X105.476 Y405.209 Z4.000
G1 X104.996 Y408.545 Z4.000
G1 X104.277 Y410.929 Z4.000
G1 X103.693 Y412.189 Z4.000
G1 X102.969 Y413.302 Z4.000
G1 X102.090 Y414.258 Z4.000
G1 X101.041 Y415.048 Z4.000
G1 X99.807 Y415.663 Z4.000
G1 X98.374 Y416.093 Z4.000
G1 X96.726 Y416.331 Z4.000
G1 X95.156 Y416.365 Z4.000
G1 X93.304 Y416.214 Z4.000
G1 X91.916 Y415.913 Z4.000
G1 X90.414 Y415.359 Z4.000
G1 X88.903 Y414.479 Z4.000
G1 X87.486 Y413.196 Z4.000
G1 X86.268 Y411.435 Z4.000
G1 X85.400 Y409.262 Z4.000
G1 X84.957 Y407.049 Z4.000
G1 X84.690 Y403.059 Z4.000
G1 X84.690 Y396.098 Z4.000
G1 X84.690 Y323.480 Z4.000
G1 X84.768 Y320.966 Z4.000
G1 X85.032 Y318.509 Z4.000
G1 X85.583 Y316.203 Z4.000
G1 X86.351 Y314.479 Z4.000
G1 X86.955 Y313.545 Z4.000
G1 X87.690 Y312.704 Z4.000
G1 X88.566 Y311.968 Z4.000
G1 X89.598 Y311.350 Z4.000
G1 X90.797 Y310.862 Z4.000
G1 X92.176 Y310.514 Z4.000
G1 X93.747 Y310.320 Z4.000
G1 X95.570 Y310.291 Z4.000
G1 X97.332 Y310.458 Z4.000
G1 X98.878 Y310.813 Z4.000
G1 X100.221 Y311.345 Z4.000
G1 X101.376 Y312.042 Z4.000
G1 X102.357 Y312.893 Z4.000
G1 X103.179 Y313.886 Z4.000
G1 X103.854 Y315.010 Z4.000
G1 X104.573 Y316.673 Z4.000
G1 X105.252 Y319.533 Z4.000
G1 X105.593 Y322.713 Z4.000
G1 X105.710 Y326.120 Z4.000
G1 X105.716 Y328.476 Z4.000
G1 X105.716 Y395.909 Z4.000
G1 X105.716 Y395.909 Z4.000
G1 X105.716 Y395.909 Z4.000
G0 X105.716 Y395.909 Z0.000

(shape postamble)


(shape preamble)

G0 X161.780 Y430.761 Z0.000
G1 X161.780 Y430.761 Z4.000
G1 X182.806 Y340.030 Z4.000
G1 X184.511 Y331.885 Z4.000
G1 X185.268 Y335.010 Z4.000
G1 X184.227 Y344.434 Z4.000
G1 X183.753 Y350.827 Z4.000
G1 X182.995 Y363.329 Z4.000
G1 X182.238 Y430.761 Z4.000
G1 X198.717 Y430.761 Z4.000
G1 X198.717 Y297.032 Z4.000
G1 X179.207 Y297.032 Z4.000
G1 X157.234 Y397.234 Z4.000
G1 X156.098 Y397.234 Z4.000
G1 X157.045 Y385.680 Z4.000
G1 X157.803 Y374.125 Z4.000
G1 X159.318 Y297.032 Z4.000
G1 X142.839 Y297.032 Z4.000
G1 X142.839 Y430.761 Z4.000
G1 X161.780 Y430.761 Z4.000
G1 X161.780 Y430.761 Z4.000
G0 X161.780 Y430.761 Z0.000

(shape postamble)


(shape preamble)

G0 X237.242 Y430.951 Z0.000
G1 X237.242 Y430.951 Z4.000
G1 X237.242 Y313.322 Z4.000
G1 X266.412 Y313.322 Z4.000
G1 X266.412 Y297.032 Z4.000
G1 X219.436 Y297.032 Z4.000
G1 X219.436 Y430.951 Z4.000
G1 X237.242 Y430.951 Z4.000
G0 X237.242 Y430.951 Z0.000

(shape postamble)


(shape preamble)

G0 X281.824 Y430.761 Z0.000
G1 X281.824 Y430.761 Z4.000
G1 X299.250 Y430.761 Z4.000
G1 X299.250 Y297.032 Z4.000
G1 X281.824 Y297.032 Z4.000
G1 X281.824 Y430.761 Z4.000
G0 X281.824 Y430.761 Z0.000

(shape postamble)


(shape preamble)

G0 X337.059 Y430.761 Z0.000
G1 X337.059 Y430.761 Z4.000
G1 X358.084 Y340.030 Z4.000
G1 X359.789 Y331.885 Z4.000
G1 X360.547 Y335.010 Z4.000
G1 X359.505 Y344.434 Z4.000
G1 X359.031 Y350.827 Z4.000
G1 X358.274 Y363.329 Z4.000
G1 X357.516 Y430.761 Z4.000
G1 X373.996 Y430.761 Z4.000
G1 X373.996 Y297.032 Z4.000
G1 X354.485 Y297.032 Z4.000
G1 X332.513 Y397.234 Z4.000
G1 X331.376 Y397.234 Z4.000
G1 X332.323 Y385.680 Z4.000
G1 X333.081 Y374.125 Z4.000
G1 X334.597 Y297.032 Z4.000
G1 X318.117 Y297.032 Z4.000
G1 X318.117 Y430.761 Z4.000
G1 X337.059 Y430.761 Z4.000
G1 X337.059 Y430.761 Z4.000
G0 X337.059 Y430.761 Z0.000

(shape postamble)


(shape preamble)

G0 X391.770 Y430.761 Z0.000
G1 X391.770 Y430.761 Z4.000
G1 X435.905 Y430.761 Z4.000
G1 X435.905 Y413.903 Z4.000
G1 X409.765 Y413.903 Z4.000
G1 X409.765 Y374.883 Z4.000
G1 X433.253 Y374.883 Z4.000
G1 X433.253 Y358.404 Z4.000
G1 X409.765 Y358.404 Z4.000
G1 X409.765 Y313.890 Z4.000
G1 X436.094 Y313.890 Z4.000
G1 X436.094 Y297.032 Z4.000
G1 X391.770 Y297.032 Z4.000
G1 X391.770 Y430.761 Z4.000
G0 X391.770 Y430.761 Z0.000

(shape postamble)


(shape preamble)

G0 X352.938 Y671.597 Z0.000
G1 X352.938 Y671.597 Z4.000
G1 X354.372 Y671.748 Z4.000
G1 X358.314 Y672.573 Z4.000
G1 X361.260 Y673.642 Z4.000
G1 X362.900 Y674.437 Z4.000
G1 X364.438 Y675.361 Z4.000
G1 X365.874 Y676.418 Z4.000
G1 X367.211 Y677.611 Z4.000
G1 X368.449 Y678.945 Z4.000
G1 X369.590 Y680.423 Z4.000
G1 X370.635 Y682.049 Z4.000
G1 X371.895 Y684.429 Z4.000
G1 X373.452 Y688.561 Z4.000
G1 X374.266 Y691.717 Z4.000
G1 X386.539 Y691.717 Z4.000
G1 X386.539 Y550.474 Z4.000
G1 X368.632 Y550.474 Z4.000
G1 X368.632 Y657.714 Z4.000
G1 X352.938 Y657.714 Z4.000
G1 X352.938 Y671.597 Z4.000
G0 X352.938 Y671.597 Z0.000

(shape postamble)


(shape preamble)

G0 X400.024 Y666.970 Z0.000
G1 X400.024 Y666.970 Z4.000
G1 X400.024 Y668.076 Z4.000
G1 X400.134 Y671.998 Z4.000
G1 X400.574 Y675.617 Z4.000
G1 X401.056 Y677.841 Z4.000
G1 X401.757 Y680.068 Z4.000
G1 X402.720 Y682.256 Z4.000
G1 X403.985 Y684.367 Z4.000
G1 X405.595 Y686.361 Z4.000
G1 X407.589 Y688.199 Z4.000
G1 X410.010 Y689.841 Z4.000
G1 X412.898 Y691.247 Z4.000
G1 X416.295 Y692.379 Z4.000
G1 X420.243 Y693.196 Z4.000
G1 X424.781 Y693.659 Z4.000
G1 X429.701 Y693.729 Z4.000
G1 X434.056 Y693.475 Z4.000
G1 X436.822 Y693.107 Z4.000
G1 X439.648 Y692.510 Z4.000
G1 X442.473 Y691.631 Z4.000
G1 X445.235 Y690.419 Z4.000
G1 X447.872 Y688.822 Z4.000
G1 X450.400 Y686.713 Z4.000
G1 X452.518 Y684.227 Z4.000
G1 X454.086 Y681.505 Z4.000
G1 X455.186 Y678.484 Z4.000
G1 X455.902 Y675.100 Z4.000
G1 X456.314 Y671.289 Z4.000
G1 X456.562 Y665.524 Z4.000
G1 X456.562 Y655.476 Z4.000
G1 X456.493 Y647.940 Z4.000
G1 X456.147 Y641.802 Z4.000
G1 X455.472 Y637.382 Z4.000
G1 X454.867 Y634.857 Z4.000
G1 X454.072 Y632.360 Z4.000
G1 X453.060 Y629.824 Z4.000
G1 X451.375 Y626.290 Z4.000
G1 X447.847 Y620.255 Z4.000
G1 X443.006 Y612.872 Z4.000
G1 X436.542 Y603.491 Z4.000
G1 X431.199 Y595.539 Z4.000
G1 X428.282 Y590.782 Z4.000
G1 X425.646 Y585.955 Z4.000
G1 X423.336 Y580.979 Z4.000
G1 X421.397 Y575.777 Z4.000
G1 X419.874 Y570.271 Z4.000
G1 X419.138 Y566.369 Z4.000
G1 X438.252 Y566.369 Z4.000
G1 X457.366 Y566.369 Z4.000
G1 X457.366 Y558.422 Z4.000
G1 X457.366 Y550.474 Z4.000
G1 X429.098 Y550.474 Z4.000
G1 X401.128 Y550.488 Z4.000
G1 X400.829 Y553.719 Z4.000
G1 X401.080 Y561.060 Z4.000
G1 X401.393 Y565.202 Z4.000
G1 X401.863 Y569.182 Z4.000
G1 X402.517 Y573.050 Z4.000
G1 X403.378 Y576.856 Z4.000
G1 X404.471 Y580.647 Z4.000
G1 X405.821 Y584.474 Z4.000
G1 X407.453 Y588.386 Z4.000
G1 X409.392 Y592.432 Z4.000
G1 X411.662 Y596.661 Z4.000
G1 X414.287 Y601.123 Z4.000
G1 X417.294 Y605.866 Z4.000
G1 X421.867 Y612.652 Z4.000
G1 X429.601 Y623.360 Z4.000
G1 X433.700 Y629.385 Z4.000
G1 X435.568 Y632.676 Z4.000
G1 X436.995 Y635.953 Z4.000
G1 X438.020 Y639.450 Z4.000
G1 X438.680 Y643.399 Z4.000
G1 X439.013 Y648.035 Z4.000
G1 X439.057 Y651.678 Z4.000
G1 X439.057 Y658.720 Z4.000
G1 X439.057 Y666.970 Z4.000
G1 X438.807 Y670.774 Z4.000
G1 X438.307 Y673.119 Z4.000
G1 X437.558 Y674.980 Z4.000
G1 X436.948 Y676.020 Z4.000
G1 X436.193 Y676.977 Z4.000
G1 X435.277 Y677.831 Z4.000
G1 X434.184 Y678.561 Z4.000
G1 X432.897 Y679.147 Z4.000
G1 X431.403 Y679.571 Z4.000
G1 X429.685 Y679.810 Z4.000
G1 X427.702 Y679.847 Z4.000
G1 X425.838 Y679.706 Z4.000
G1 X424.211 Y679.412 Z4.000
G1 X422.807 Y678.979 Z4.000
G1 X421.607 Y678.422 Z4.000
G1 X420.597 Y677.758 Z4.000
G1 X419.759 Y677.001 Z4.000
G1 X419.078 Y676.166 Z4.000
G1 X418.365 Y674.968 Z4.000
G1 X417.717 Y673.025 Z4.000
G1 X417.414 Y671.038 Z4.000
G1 X417.328 Y669.129 Z4.000
G1 X417.328 Y667.976 Z4.000
G1 X417.328 Y656.709 Z4.000
G1 X417.328 Y645.441 Z4.000
G1 X408.676 Y645.441 Z4.000
G1 X400.024 Y645.441 Z4.000
G1 X400.024 Y656.206 Z4.000
G1 X400.024 Y666.970 Z4.000
G1 X400.024 Y666.970 Z4.000
G0 X400.024 Y666.970 Z0.000

(shape postamble)


(shape preamble)

G0 X474.859 Y704.347 Z0.000
G1 X474.859 Y704.347 Z4.000
G1 X478.584 Y692.883 Z4.000
G1 X490.638 Y692.883 Z4.000
G1 X480.886 Y685.797 Z4.000
G1 X484.611 Y674.333 Z4.000
G1 X474.859 Y681.418 Z4.000
G1 X465.107 Y674.333 Z4.000
G1 X468.832 Y685.797 Z4.000
G1 X459.080 Y692.883 Z4.000
G1 X471.134 Y692.883 Z4.000
G1 X474.859 Y704.347 Z4.000
G0 X474.859 Y704.347 Z0.000

(shape postamble)


(shape preamble)

G0 X211.696 Y872.036 Z0.000
G1 X211.696 Y872.036 Z4.000
G1 X211.696 Y870.641 Z4.000
G1 X212.152 Y866.539 Z4.000
G1 X213.131 Y862.577 Z4.000
G1 X214.607 Y858.800 Z4.000
G1 X216.554 Y855.254 Z4.000
G1 X218.944 Y851.985 Z4.000
G1 X221.752 Y849.039 Z4.000
G1 X224.952 Y846.460 Z4.000
G1 X228.518 Y844.294 Z4.000
G1 X232.299 Y842.638 Z4.000
G1 X236.220 Y841.505 Z4.000
G1 X240.228 Y840.895 Z4.000
G1 X244.272 Y840.807 Z4.000
G1 X248.298 Y841.243 Z4.000
G1 X252.254 Y842.202 Z4.000
G1 X256.088 Y843.684 Z4.000
G1 X259.746 Y845.689 Z4.000
G1 X263.071 Y848.135 Z4.000
G1 X266.013 Y850.964 Z4.000
G1 X268.546 Y854.131 Z4.000
G1 X270.643 Y857.589 Z4.000
G1 X272.278 Y861.294 Z4.000
G1 X273.426 Y865.199 Z4.000
G1 X274.060 Y869.260 Z4.000
G1 X274.153 Y873.430 Z4.000
G1 X273.696 Y877.533 Z4.000
G1 X272.717 Y881.495 Z4.000
G1 X271.241 Y885.272 Z4.000
G1 X269.295 Y888.817 Z4.000
G1 X266.904 Y892.086 Z4.000
G1 X264.096 Y895.033 Z4.000
G1 X260.896 Y897.612 Z4.000
G1 X257.331 Y899.778 Z4.000
G1 X253.550 Y901.434 Z4.000
G1 X249.629 Y902.567 Z4.000
G1 X245.620 Y903.177 Z4.000
G1 X241.576 Y903.264 Z4.000
G1 X237.550 Y902.828 Z4.000
G1 X233.594 Y901.870 Z4.000
G1 X229.761 Y900.388 Z4.000
G1 X226.102 Y898.383 Z4.000
G1 X222.778 Y895.937 Z4.000
G1 X219.836 Y893.108 Z4.000
G1 X217.303 Y889.941 Z4.000
G1 X215.206 Y886.483 Z4.000
G1 X213.570 Y882.778 Z4.000
G1 X212.422 Y878.873 Z4.000
G1 X211.789 Y874.812 Z4.000
G1 X211.696 Y872.036 Z4.000
G0 X211.696 Y872.036 Z0.000

(shape postamble)


(shape preamble)

G0 X132.910 Y826.549 Z0.000
G1 X132.910 Y826.549 Z4.000
G1 X132.910 Y825.154 Z4.000
G1 X133.366 Y821.052 Z4.000
G1 X134.346 Y817.090 Z4.000
G1 X135.822 Y813.313 Z4.000
G1 X137.768 Y809.767 Z4.000
G1 X140.159 Y806.499 Z4.000
G1 X142.967 Y803.552 Z4.000
G1 X146.167 Y800.973 Z4.000
G1 X149.732 Y798.807 Z4.000
G1 X153.513 Y797.151 Z4.000
G1 X157.434 Y796.018 Z4.000
G1 X161.443 Y795.408 Z4.000
G1 X165.487 Y795.321 Z4.000
G1 X169.513 Y795.756 Z4.000
G1 X173.469 Y796.715 Z4.000
G1 X177.302 Y798.197 Z4.000
G1 X180.961 Y800.202 Z4.000
G1 X184.285 Y802.648 Z4.000
G1 X187.227 Y805.477 Z4.000
G1 X189.760 Y808.644 Z4.000
G1 X191.857 Y812.102 Z4.000
G1 X193.493 Y815.807 Z4.000
G1 X194.641 Y819.712 Z4.000
G1 X195.274 Y823.773 Z4.000
G1 X195.367 Y827.944 Z4.000
G1 X194.911 Y832.046 Z4.000
G1 X193.932 Y836.008 Z4.000
G1 X192.456 Y839.785 Z4.000
G1 X190.509 Y843.330 Z4.000
G1 X188.119 Y846.599 Z4.000
G1 X185.310 Y849.546 Z4.000
G1 X182.110 Y852.125 Z4.000
G1 X178.545 Y854.291 Z4.000
G1 X174.764 Y855.947 Z4.000
G1 X170.843 Y857.080 Z4.000
G1 X166.834 Y857.690 Z4.000
G1 X162.791 Y857.777 Z4.000
G1 X158.765 Y857.342 Z4.000
G1 X154.809 Y856.383 Z4.000
G1 X150.975 Y854.901 Z4.000
G1 X147.317 Y852.896 Z4.000
G1 X143.992 Y850.450 Z4.000
G1 X141.050 Y847.621 Z4.000
G1 X138.517 Y844.454 Z4.000
G1 X136.420 Y840.996 Z4.000
G1 X134.784 Y837.291 Z4.000
G1 X133.637 Y833.386 Z4.000
G1 X133.003 Y829.325 Z4.000
G1 X132.910 Y826.549 Z4.000
G0 X132.910 Y826.549 Z0.000

(shape postamble)


(shape preamble)

G0 X132.910 Y735.575 Z0.000
G1 X132.910 Y735.575 Z4.000
G1 X132.910 Y734.181 Z4.000
G1 X133.366 Y730.078 Z4.000
G1 X134.346 Y726.116 Z4.000
G1 X135.822 Y722.339 Z4.000
G1 X137.768 Y718.794 Z4.000
G1 X140.159 Y715.525 Z4.000
G1 X142.967 Y712.578 Z4.000
G1 X146.167 Y709.999 Z4.000
G1 X149.732 Y707.833 Z4.000
G1 X153.513 Y706.177 Z4.000
G1 X157.434 Y705.044 Z4.000
G1 X161.443 Y704.434 Z4.000
G1 X165.487 Y704.347 Z4.000
G1 X169.513 Y704.783 Z4.000
G1 X173.469 Y705.741 Z4.000
G1 X177.302 Y707.223 Z4.000
G1 X180.961 Y709.228 Z4.000
G1 X184.285 Y711.674 Z4.000
G1 X187.227 Y714.503 Z4.000
G1 X189.760 Y717.670 Z4.000
G1 X191.857 Y721.128 Z4.000
G1 X193.493 Y724.833 Z4.000
G1 X194.641 Y728.738 Z4.000
G1 X195.274 Y732.799 Z4.000
G1 X195.367 Y736.970 Z4.000
G1 X194.911 Y741.072 Z4.000
G1 X193.932 Y745.034 Z4.000
G1 X192.456 Y748.811 Z4.000
G1 X190.509 Y752.357 Z4.000
G1 X188.119 Y755.626 Z4.000
G1 X185.310 Y758.572 Z4.000
G1 X182.110 Y761.151 Z4.000
G1 X178.545 Y763.317 Z4.000
G1 X174.764 Y764.973 Z4.000
G1 X170.843 Y766.106 Z4.000
G1 X166.834 Y766.716 Z4.000
G1 X162.791 Y766.804 Z4.000
G1 X158.765 Y766.368 Z4.000
G1 X154.809 Y765.409 Z4.000
G1 X150.975 Y763.927 Z4.000
G1 X147.317 Y761.922 Z4.000
G1 X143.992 Y759.476 Z4.000
G1 X141.050 Y756.647 Z4.000
G1 X138.517 Y753.480 Z4.000
G1 X136.420 Y750.022 Z4.000
G1 X134.784 Y746.317 Z4.000
G1 X133.637 Y742.412 Z4.000
G1 X133.003 Y738.351 Z4.000
G1 X132.910 Y735.575 Z4.000
G0 X132.910 Y735.575 Z0.000

(shape postamble)


(shape preamble)

G0 X211.696 Y690.088 Z0.000
G1 X211.696 Y690.088 Z4.000
G1 X211.696 Y688.694 Z4.000
G1 X212.152 Y684.591 Z4.000
G1 X213.131 Y680.629 Z4.000
G1 X214.607 Y676.852 Z4.000
G1 X216.554 Y673.307 Z4.000
G1 X218.944 Y670.038 Z4.000
G1 X221.752 Y667.091 Z4.000
G1 X224.952 Y664.512 Z4.000
G1 X228.518 Y662.346 Z4.000
G1 X232.299 Y660.690 Z4.000
G1 X236.220 Y659.557 Z4.000
G1 X240.228 Y658.947 Z4.000
G1 X244.272 Y658.860 Z4.000
G1 X248.298 Y659.296 Z4.000
G1 X252.254 Y660.254 Z4.000
G1 X256.088 Y661.736 Z4.000
G1 X259.746 Y663.741 Z4.000
G1 X263.071 Y666.187 Z4.000
G1 X266.013 Y669.016 Z4.000
G1 X268.546 Y672.183 Z4.000
G1 X270.643 Y675.641 Z4.000
G1 X272.278 Y679.346 Z4.000
G1 X273.426 Y683.251 Z4.000
G1 X274.060 Y687.312 Z4.000
G1 X274.153 Y691.483 Z4.000
G1 X273.696 Y695.585 Z4.000
G1 X272.717 Y699.548 Z4.000
G1 X271.241 Y703.324 Z4.000
G1 X269.295 Y706.870 Z4.000
G1 X266.904 Y710.139 Z4.000
G1 X264.096 Y713.085 Z4.000
G1 X260.896 Y715.664 Z4.000
G1 X257.331 Y717.830 Z4.000
G1 X253.550 Y719.486 Z4.000
G1 X249.629 Y720.619 Z4.000
G1 X245.620 Y721.230 Z4.000
G1 X241.576 Y721.317 Z4.000
G1 X237.550 Y720.881 Z4.000
G1 X233.594 Y719.922 Z4.000
G1 X229.761 Y718.440 Z4.000
G1 X226.102 Y716.436 Z4.000
G1 X222.778 Y713.989 Z4.000
G1 X219.836 Y711.160 Z4.000
G1 X217.303 Y707.993 Z4.000
G1 X215.206 Y704.535 Z4.000
G1 X213.570 Y700.830 Z4.000
G1 X212.422 Y696.925 Z4.000
G1 X211.789 Y692.864 Z4.000
G1 X211.696 Y690.088 Z4.000
G0 X211.696 Y690.088 Z0.000

(shape postamble)


(shape preamble)

G0 X290.481 Y735.575 Z0.000
G1 X290.481 Y735.575 Z4.000
G1 X290.481 Y734.181 Z4.000
G1 X290.938 Y730.078 Z4.000
G1 X291.917 Y726.116 Z4.000
G1 X293.393 Y722.339 Z4.000
G1 X295.339 Y718.794 Z4.000
G1 X297.730 Y715.525 Z4.000
G1 X300.538 Y712.578 Z4.000
G1 X303.738 Y709.999 Z4.000
G1 X307.303 Y707.833 Z4.000
G1 X311.084 Y706.177 Z4.000
G1 X315.005 Y705.044 Z4.000
G1 X319.014 Y704.434 Z4.000
G1 X323.058 Y704.347 Z4.000
G1 X327.084 Y704.783 Z4.000
G1 X331.040 Y705.741 Z4.000
G1 X334.874 Y707.223 Z4.000
G1 X338.532 Y709.228 Z4.000
G1 X341.857 Y711.674 Z4.000
G1 X344.798 Y714.503 Z4.000
G1 X347.331 Y717.670 Z4.000
G1 X349.429 Y721.128 Z4.000
G1 X351.064 Y724.833 Z4.000
G1 X352.212 Y728.738 Z4.000
G1 X352.845 Y732.799 Z4.000
G1 X352.938 Y736.970 Z4.000
G1 X352.482 Y741.072 Z4.000
G1 X351.503 Y745.034 Z4.000
G1 X350.027 Y748.811 Z4.000
G1 X348.081 Y752.357 Z4.000
G1 X345.690 Y755.626 Z4.000
G1 X342.882 Y758.572 Z4.000
G1 X339.682 Y761.151 Z4.000
G1 X336.116 Y763.317 Z4.000
G1 X332.335 Y764.973 Z4.000
G1 X328.414 Y766.106 Z4.000
G1 X324.406 Y766.716 Z4.000
G1 X320.362 Y766.804 Z4.000
G1 X316.336 Y766.368 Z4.000
G1 X312.380 Y765.409 Z4.000
G1 X308.546 Y763.927 Z4.000
G1 X304.888 Y761.922 Z4.000
G1 X301.563 Y759.476 Z4.000
G1 X298.621 Y756.647 Z4.000
G1 X296.089 Y753.480 Z4.000
G1 X293.991 Y750.022 Z4.000
G1 X292.356 Y746.317 Z4.000
G1 X291.208 Y742.412 Z4.000
G1 X290.574 Y738.351 Z4.000
G1 X290.481 Y735.575 Z4.000
G0 X290.481 Y735.575 Z0.000

(shape postamble)


(shape preamble)

G0 X290.481 Y826.549 Z0.000
G1 X290.481 Y826.549 Z4.000
G1 X290.481 Y825.154 Z4.000
G1 X290.938 Y821.052 Z4.000
G1 X291.917 Y817.090 Z4.000
G1 X293.393 Y813.313 Z4.000
G1 X295.339 Y809.767 Z4.000
G1 X297.730 Y806.499 Z4.000
G1 X300.538 Y803.552 Z4.000
G1 X303.738 Y800.973 Z4.000
G1 X307.303 Y798.807 Z4.000
G1 X311.084 Y797.151 Z4.000
G1 X315.005 Y796.018 Z4.000
G1 X319.014 Y795.408 Z4.000
G1 X323.058 Y795.321 Z4.000
G1 X327.084 Y795.756 Z4.000
G1 X331.040 Y796.715 Z4.000
G1 X334.874 Y798.197 Z4.000
G1 X338.532 Y800.202 Z4.000
G1 X341.857 Y802.648 Z4.000
G1 X344.798 Y805.477 Z4.000
G1 X347.331 Y808.644 Z4.000
G1 X349.429 Y812.102 Z4.000
G1 X351.064 Y815.807 Z4.000
G1 X352.212 Y819.712 Z4.000
G1 X352.845 Y823.773 Z4.000
G1 X352.938 Y827.944 Z4.000
G1 X352.482 Y832.046 Z4.000
G1 X351.503 Y836.008 Z4.000
G1 X350.027 Y839.785 Z4.000
G1 X348.081 Y843.330 Z4.000
G1 X345.690 Y846.599 Z4.000
G1 X342.882 Y849.546 Z4.000
G1 X339.682 Y852.125 Z4.000
G1 X336.116 Y854.291 Z4.000
G1 X332.335 Y855.947 Z4.000
G1 X328.414 Y857.080 Z4.000
G1 X324.406 Y857.690 Z4.000
G1 X320.362 Y857.777 Z4.000
G1 X316.336 Y857.342 Z4.000
G1 X312.380 Y856.383 Z4.000
G1 X308.546 Y854.901 Z4.000
G1 X304.888 Y852.896 Z4.000
G1 X301.563 Y850.450 Z4.000
G1 X298.621 Y847.621 Z4.000
G1 X296.089 Y844.454 Z4.000
G1 X293.991 Y840.996 Z4.000
G1 X292.356 Y837.291 Z4.000
G1 X291.208 Y833.386 Z4.000
G1 X290.574 Y829.325 Z4.000
G1 X290.481 Y826.549 Z4.000
G0 X290.481 Y826.549 Z0.000

(shape postamble)


(shape preamble)

G0 X211.696 Y781.062 Z0.000
G1 X211.696 Y781.062 Z4.000
G1 X211.696 Y779.667 Z4.000
G1 X212.152 Y775.565 Z4.000
G1 X213.131 Y771.603 Z4.000
G1 X214.607 Y767.826 Z4.000
G1 X216.554 Y764.280 Z4.000
G1 X218.944 Y761.012 Z4.000
G1 X221.752 Y758.065 Z4.000
G1 X224.952 Y755.486 Z4.000
G1 X228.518 Y753.320 Z4.000
G1 X232.299 Y751.664 Z4.000
G1 X236.220 Y750.531 Z4.000
G1 X240.228 Y749.921 Z4.000
G1 X244.272 Y749.834 Z4.000
G1 X248.298 Y750.269 Z4.000
G1 X252.254 Y751.228 Z4.000
G1 X256.088 Y752.710 Z4.000
G1 X259.746 Y754.715 Z4.000
G1 X263.071 Y757.161 Z4.000
G1 X266.013 Y759.990 Z4.000
G1 X268.546 Y763.157 Z4.000
G1 X270.643 Y766.615 Z4.000
G1 X272.278 Y770.320 Z4.000
G1 X273.426 Y774.225 Z4.000
G1 X274.060 Y778.286 Z4.000
G1 X274.153 Y782.457 Z4.000
G1 X273.696 Y786.559 Z4.000
G1 X272.717 Y790.521 Z4.000
G1 X271.241 Y794.298 Z4.000
G1 X269.295 Y797.844 Z4.000
G1 X266.904 Y801.112 Z4.000
G1 X264.096 Y804.059 Z4.000
G1 X260.896 Y806.638 Z4.000
G1 X257.331 Y808.804 Z4.000
G1 X253.550 Y810.460 Z4.000
G1 X249.629 Y811.593 Z4.000
G1 X245.620 Y812.203 Z4.000
G1 X241.576 Y812.290 Z4.000
G1 X237.550 Y811.855 Z4.000
G1 X233.594 Y810.896 Z4.000
G1 X229.761 Y809.414 Z4.000
G1 X226.102 Y807.409 Z4.000
G1 X222.778 Y804.963 Z4.000
G1 X219.836 Y802.134 Z4.000
G1 X217.303 Y798.967 Z4.000
G1 X215.206 Y795.509 Z4.000
G1 X213.570 Y791.804 Z4.000
G1 X212.422 Y787.899 Z4.000
G1 X211.789 Y783.838 Z4.000
G1 X211.696 Y781.062 Z4.000
G0 X211.696 Y781.062 Z0.000

(shape postamble)


(shape preamble)

G0 X84.690 Y80.882 Z0.000
G1 X84.690 Y80.882 Z4.000
G1 X154.690 Y220.882 Z4.000
G1 X174.690 Y220.882 Z4.000
G1 X244.690 Y80.882 Z4.000
G1 X224.690 Y80.882 Z4.000
G1 X204.690 Y120.882 Z4.000
G1 X124.690 Y120.882 Z4.000
G1 X104.690 Y80.882 Z4.000
G1 X84.690 Y80.882 Z4.000
G0 X84.690 Y80.882 Z0.000

(shape postamble)


(shape preamble)

G0 X134.690 Y140.882 Z0.000
G1 X134.690 Y140.882 Z4.000
G1 X194.690 Y140.882 Z4.000
G1 X164.690 Y200.882 Z4.000
G1 X134.690 Y140.882 Z4.000
G0 X134.690 Y140.882 Z0.000

(shape postamble)


(shape preamble)

G0 X314.690 Y120.882 Z0.000
G1 X314.690 Y120.882 Z4.000
G1 X364.690 Y220.882 Z4.000
G1 X384.690 Y220.882 Z4.000
G1 X434.690 Y120.882 Z4.000
G1 X414.690 Y120.882 Z4.000
G1 X404.690 Y140.882 Z4.000
G1 X344.690 Y140.882 Z4.000
G1 X334.690 Y120.882 Z4.000
G1 X314.690 Y120.882 Z4.000
G0 X314.690 Y120.882 Z0.000

(shape postamble)


(shape preamble)

G0 X354.690 Y160.882 Z0.000
G1 X354.690 Y160.882 Z4.000
G1 X394.690 Y160.882 Z4.000
G1 X374.690 Y200.882 Z4.000
G1 X354.690 Y160.882 Z4.000
G0 X354.690 Y160.882 Z0.000

(shape postamble)


(shape preamble)

G0 X154.690 Y235.882 Z0.000
G1 X154.690 Y235.882 Z4.000
G1 X154.690 Y255.882 Z4.000
G0 X154.690 Y255.882 Z0.000

(shape postamble)


(shape preamble)

G0 X184.690 Y235.882 Z0.000
G1 X184.690 Y235.882 Z4.000
G1 X184.690 Y255.882 Z4.000
G0 X184.690 Y255.882 Z0.000

(shape postamble)


(shape preamble)

G0 X184.690 Y245.882 Z0.000
G1 X184.690 Y245.882 Z4.000
G1 X164.690 Y245.882 Z4.000
G1 X164.690 Y255.882 Z4.000
G0 X164.690 Y255.882 Z0.000

(shape postamble)


(shape preamble)

G0 X134.690 Y260.882 Z0.000
G1 X134.690 Y260.882 Z4.000
G1 X194.690 Y260.882 Z4.000
G1 X194.690 Y230.882 Z4.000
G1 X134.690 Y230.882 Z4.000
G1 X134.690 Y260.882 Z4.000
G0 X134.690 Y260.882 Z0.000

(shape postamble)


(shape preamble)

G0 X84.690 Y220.882 Z0.000
G1 X84.690 Y220.882 Z4.000
G1 X244.690 Y220.882 Z4.000
G1 X244.690 Y80.882 Z4.000
G1 X84.690 Y80.882 Z4.000
G1 X84.690 Y220.882 Z4.000
G0 X84.690 Y220.882 Z0.000

(shape postamble)


(shape preamble)

G0 X314.690 Y220.882 Z0.000
G1 X314.690 Y220.882 Z4.000
G1 X434.690 Y220.882 Z4.000
G1 X434.690 Y120.882 Z4.000
G1 X314.690 Y120.882 Z4.000
G1 X314.690 Y220.882 Z4.000
G0 X314.690 Y220.882 Z0.000

(shape postamble)


(shape preamble)

G0 X126.269 Y60.882 Z0.000
G1 X126.269 Y60.882 Z4.000
G1 X120.923 Y46.850 Z4.000
G0 X120.923 Y46.850 Z0.000

(shape postamble)


(shape preamble)

G0 X126.269 Y60.882 Z0.000
G1 X126.269 Y60.882 Z4.000
G1 X131.615 Y46.850 Z4.000
G0 X131.615 Y46.850 Z0.000

(shape postamble)


(shape preamble)

G0 X122.928 Y51.527 Z0.000
G1 X122.928 Y51.527 Z4.000
G1 X129.610 Y51.527 Z4.000
G0 X129.610 Y51.527 Z0.000

(shape postamble)


(shape preamble)

G0 X136.292 Y47.518 Z0.000
G1 X136.292 Y47.518 Z4.000
G1 X135.624 Y46.850 Z4.000
G1 X134.956 Y47.518 Z4.000
G1 X135.624 Y48.186 Z4.000
G1 X136.292 Y47.518 Z4.000
G1 X136.292 Y46.182 Z4.000
G1 X135.624 Y44.845 Z4.000
G1 X134.956 Y44.177 Z4.000
G0 X134.956 Y44.177 Z0.000

(shape postamble)


(shape preamble)

G0 X153.665 Y58.209 Z0.000
G1 X153.665 Y58.209 Z4.000
G1 X155.002 Y58.877 Z4.000
G1 X157.006 Y60.882 Z4.000
G1 X157.006 Y46.850 Z4.000
G0 X157.006 Y46.850 Z0.000

(shape postamble)


(shape preamble)

G0 X173.711 Y58.877 Z0.000
G1 X173.711 Y58.877 Z4.000
G1 X173.043 Y60.214 Z4.000
G1 X171.038 Y60.882 Z4.000
G1 X169.702 Y60.882 Z4.000
G1 X167.697 Y60.214 Z4.000
G1 X166.361 Y58.209 Z4.000
G1 X165.693 Y54.868 Z4.000
G1 X165.693 Y51.527 Z4.000
G1 X166.361 Y48.854 Z4.000
G1 X167.697 Y47.518 Z4.000
G1 X169.702 Y46.850 Z4.000
G1 X170.370 Y46.850 Z4.000
G1 X172.375 Y47.518 Z4.000
G1 X173.711 Y48.854 Z4.000
G1 X174.379 Y50.859 Z4.000
G1 X174.379 Y51.527 Z4.000
G1 X173.711 Y53.532 Z4.000
G1 X172.375 Y54.868 Z4.000
G1 X170.370 Y55.537 Z4.000
G1 X169.702 Y55.537 Z4.000
G1 X167.697 Y54.868 Z4.000
G1 X166.361 Y53.532 Z4.000
G1 X165.693 Y51.527 Z4.000
G0 X165.693 Y51.527 Z0.000

(shape postamble)


(shape preamble)

G0 X180.393 Y47.518 Z0.000
G1 X180.393 Y47.518 Z4.000
G1 X179.725 Y46.850 Z4.000
G1 X179.057 Y47.518 Z4.000
G1 X179.725 Y48.186 Z4.000
G1 X180.393 Y47.518 Z4.000
G1 X180.393 Y46.182 Z4.000
G1 X179.725 Y44.845 Z4.000
G1 X179.057 Y44.177 Z4.000
G0 X179.057 Y44.177 Z0.000

(shape postamble)


(shape preamble)

G0 X187.075 Y58.209 Z0.000
G1 X187.075 Y58.209 Z4.000
G1 X188.411 Y58.877 Z4.000
G1 X190.416 Y60.882 Z4.000
G1 X190.416 Y46.850 Z4.000
G0 X190.416 Y46.850 Z0.000

(shape postamble)


(shape preamble)

G0 X205.116 Y60.882 Z0.000
G1 X205.116 Y60.882 Z4.000
G1 X198.434 Y51.527 Z4.000
G1 X208.457 Y51.527 Z4.000
G0 X208.457 Y51.527 Z0.000

(shape postamble)


(shape preamble)

G0 X205.116 Y60.882 Z0.000
G1 X205.116 Y60.882 Z4.000
G1 X205.116 Y46.850 Z4.000
G0 X205.116 Y46.850 Z0.000

(shape postamble)


(shape preamble)

G0 X336.603 Y60.882 Z0.000
G1 X336.603 Y60.882 Z4.000
G1 X331.258 Y46.850 Z4.000
G0 X331.258 Y46.850 Z0.000

(shape postamble)


(shape preamble)

G0 X336.603 Y60.882 Z0.000
G1 X336.603 Y60.882 Z4.000
G1 X341.949 Y46.850 Z4.000
G0 X341.949 Y46.850 Z0.000

(shape postamble)


(shape preamble)

G0 X333.262 Y51.527 Z0.000
G1 X333.262 Y51.527 Z4.000
G1 X339.944 Y51.527 Z4.000
G0 X339.944 Y51.527 Z0.000

(shape postamble)


(shape preamble)

G0 X346.626 Y47.518 Z0.000
G1 X346.626 Y47.518 Z4.000
G1 X345.958 Y46.850 Z4.000
G1 X345.290 Y47.518 Z4.000
G1 X345.958 Y48.186 Z4.000
G1 X346.626 Y47.518 Z4.000
G1 X346.626 Y46.182 Z4.000
G1 X345.958 Y44.845 Z4.000
G1 X345.290 Y44.177 Z4.000
G0 X345.290 Y44.177 Z0.000

(shape postamble)


(shape preamble)

G0 X363.999 Y58.209 Z0.000
G1 X363.999 Y58.209 Z4.000
G1 X365.336 Y58.877 Z4.000
G1 X367.340 Y60.882 Z4.000
G1 X367.340 Y46.850 Z4.000
G0 X367.340 Y46.850 Z0.000

(shape postamble)


(shape preamble)

G0 X376.027 Y57.541 Z0.000
G1 X376.027 Y57.541 Z4.000
G1 X376.027 Y58.209 Z4.000
G1 X376.695 Y59.546 Z4.000
G1 X377.363 Y60.214 Z4.000
G1 X378.700 Y60.882 Z4.000
G1 X381.372 Y60.882 Z4.000
G1 X382.709 Y60.214 Z4.000
G1 X383.377 Y59.546 Z4.000
G1 X384.045 Y58.209 Z4.000
G1 X384.045 Y56.873 Z4.000
G1 X383.377 Y55.537 Z4.000
G1 X382.041 Y53.532 Z4.000
G1 X375.359 Y46.850 Z4.000
G1 X384.713 Y46.850 Z4.000
G0 X384.713 Y46.850 Z0.000

(shape postamble)


(shape preamble)

G0 X390.727 Y47.518 Z0.000
G1 X390.727 Y47.518 Z4.000
G1 X390.059 Y46.850 Z4.000
G1 X389.391 Y47.518 Z4.000
G1 X390.059 Y48.186 Z4.000
G1 X390.727 Y47.518 Z4.000
G1 X390.727 Y46.182 Z4.000
G1 X390.059 Y44.845 Z4.000
G1 X389.391 Y44.177 Z4.000
G0 X389.391 Y44.177 Z0.000

(shape postamble)


(shape preamble)

G0 X397.409 Y58.209 Z0.000
G1 X397.409 Y58.209 Z4.000
G1 X398.746 Y58.877 Z4.000
G1 X400.750 Y60.882 Z4.000
G1 X400.750 Y46.850 Z4.000
G0 X400.750 Y46.850 Z0.000

(shape postamble)


(shape preamble)

G0 X412.778 Y60.882 Z0.000
G1 X412.778 Y60.882 Z4.000
G1 X410.773 Y60.214 Z4.000
G1 X409.437 Y58.209 Z4.000
G1 X408.769 Y54.868 Z4.000
G1 X408.769 Y52.864 Z4.000
G1 X409.437 Y49.523 Z4.000
G1 X410.773 Y47.518 Z4.000
G1 X412.778 Y46.850 Z4.000
G1 X414.114 Y46.850 Z4.000
G1 X416.119 Y47.518 Z4.000
G1 X417.455 Y49.523 Z4.000
G1 X418.123 Y52.864 Z4.000
G1 X418.123 Y54.868 Z4.000
G1 X417.455 Y58.209 Z4.000
G1 X416.119 Y60.214 Z4.000
G1 X414.114 Y60.882 Z4.000
G1 X412.778 Y60.882 Z4.000
G0 X412.778 Y60.882 Z0.000

(shape postamble)


(shape preamble)

G0 X1633.879 Y56.527 Z0.000
G1 X1633.879 Y56.527 Z4.000
G1 X1633.879 Y46.527 Z4.000
G0 X1633.879 Y46.527 Z0.000

(shape postamble)


(shape preamble)

G0 X1643.880 Y46.527 Z0.000
G1 X1643.880 Y46.527 Z4.000
G1 X1643.880 Y56.527 Z4.000
G1 X1653.879 Y56.527 Z4.000
G1 X1653.879 Y46.527 Z4.000
G1 X1643.880 Y46.527 Z4.000
G1 X1653.879 Y56.527 Z4.000
G0 X1653.879 Y56.527 Z0.000

(shape postamble)


(shape preamble)

G0 X1658.879 Y46.527 Z0.000
G1 X1658.879 Y46.527 Z4.000
G1 X1658.879 Y56.527 Z4.000
G1 X1668.880 Y56.527 Z4.000
G1 X1668.880 Y46.527 Z4.000
G1 X1658.879 Y46.527 Z4.000
G1 X1668.880 Y56.527 Z4.000
G0 X1668.880 Y56.527 Z0.000

(shape postamble)


(shape preamble)

G0 X1673.879 Y46.527 Z0.000
G1 X1673.879 Y46.527 Z4.000
G1 X1673.879 Y56.527 Z4.000
G1 X1683.879 Y56.527 Z4.000
G1 X1683.879 Y46.527 Z4.000
G1 X1673.879 Y46.527 Z4.000
G1 X1683.879 Y56.527 Z4.000
G0 X1683.879 Y56.527 Z0.000

(shape postamble)


(shape preamble)

G0 X1693.879 Y46.527 Z0.000
G1 X1693.879 Y46.527 Z4.000
G1 X1693.879 Y51.527 Z4.000
G1 X1693.879 Y56.527 Z4.000
G1 X1703.879 Y56.527 Z4.000
G1 X1703.879 Y51.527 Z4.000
G1 X1693.879 Y51.527 Z4.000
G0 X1693.879 Y51.527 Z0.000

(shape postamble)


(shape preamble)

G0 X1708.880 Y56.527 Z0.000
G1 X1708.880 Y56.527 Z4.000
G1 X1718.879 Y56.527 Z4.000
G0 X1718.879 Y56.527 Z0.000

(shape postamble)


(shape preamble)

G0 X1713.880 Y56.527 Z0.000
G1 X1713.880 Y56.527 Z4.000
G1 X1713.880 Y46.527 Z4.000
G0 X1713.880 Y46.527 Z0.000

(shape postamble)


(shape preamble)

G0 X1027.733 Y714.717 Z0.000
G1 X1027.733 Y714.717 Z4.000
G1 X1028.312 Y713.305 Z4.000
G1 X1030.399 Y709.365 Z4.000
G1 X1032.879 Y705.780 Z4.000
G1 X1035.726 Y702.550 Z4.000
G1 X1038.915 Y699.678 Z4.000
G1 X1042.420 Y697.164 Z4.000
G1 X1046.215 Y695.010 Z4.000
G1 X1050.273 Y693.216 Z4.000
G1 X1054.057 Y691.947 Z4.000
G1 X1058.013 Y690.800 Z4.000
G1 X1060.136 Y689.776 Z4.000
G1 X1061.370 Y688.968 Z4.000
G1 X1062.530 Y687.977 Z4.000
G1 X1063.578 Y686.778 Z4.000
G1 X1064.475 Y685.347 Z4.000
G1 X1065.183 Y683.658 Z4.000
G1 X1065.662 Y681.686 Z4.000
G1 X1065.873 Y679.408 Z4.000
G1 X1065.779 Y676.797 Z4.000
G1 X1065.340 Y673.830 Z4.000
G1 X1064.477 Y670.328 Z4.000
G1 X1063.943 Y666.384 Z4.000
G1 X1063.952 Y662.397 Z4.000
G1 X1064.474 Y658.407 Z4.000
G1 X1065.477 Y654.456 Z4.000
G1 X1066.931 Y650.585 Z4.000
G1 X1068.805 Y646.836 Z4.000
G1 X1071.068 Y643.249 Z4.000
G1 X1073.688 Y639.866 Z4.000
G1 X1076.637 Y636.728 Z4.000
G1 X1079.881 Y633.876 Z4.000
G1 X1083.391 Y631.352 Z4.000
G1 X1087.135 Y629.197 Z4.000
G1 X1091.083 Y627.451 Z4.000
G1 X1095.204 Y626.157 Z4.000
G1 X1099.467 Y625.355 Z4.000
G1 X1103.692 Y625.093 Z4.000
G1 X1107.520 Y625.358 Z4.000
G1 X1111.200 Y626.096 Z4.000
G1 X1114.717 Y627.274 Z4.000
G1 X1118.056 Y628.859 Z4.000
G1 X1121.202 Y630.817 Z4.000
G1 X1124.141 Y633.115 Z4.000
G1 X1126.857 Y635.718 Z4.000
G1 X1129.336 Y638.594 Z4.000
G1 X1131.562 Y641.709 Z4.000
G1 X1133.522 Y645.028 Z4.000
G1 X1135.199 Y648.519 Z4.000
G1 X1136.580 Y652.149 Z4.000
G1 X1137.649 Y655.882 Z4.000
G1 X1138.391 Y659.686 Z4.000
G1 X1138.792 Y663.528 Z4.000
G1 X1138.839 Y666.668 Z4.000
G1 X1138.565 Y668.667 Z4.000
G1 X1137.890 Y671.651 Z4.000
G1 X1136.592 Y676.458 Z4.000
G1 X1135.877 Y680.168 Z4.000
G1 X1135.797 Y682.079 Z4.000
G1 X1136.210 Y684.004 Z4.000
G1 X1137.077 Y686.158 Z4.000
G1 X1138.144 Y687.824 Z4.000
G1 X1139.392 Y689.049 Z4.000
G1 X1140.802 Y689.885 Z4.000
G1 X1142.353 Y690.379 Z4.000
G1 X1144.029 Y690.581 Z4.000
G1 X1145.808 Y690.540 Z4.000
G1 X1148.298 Y690.219 Z4.000
G1 X1152.240 Y689.294 Z4.000
G1 X1156.269 Y688.252 Z4.000
G1 X1159.574 Y687.599 Z4.000
G1 X1161.499 Y687.390 Z4.000
G1 X1163.826 Y687.390 Z4.000
G1 X1167.082 Y687.811 Z4.000
G1 X1170.289 Y688.645 Z4.000
G1 X1173.397 Y689.863 Z4.000
G1 X1176.352 Y691.437 Z4.000
G1 X1179.102 Y693.336 Z4.000
G1 X1181.596 Y695.532 Z4.000
G1 X1183.779 Y697.996 Z4.000
G1 X1185.444 Y700.454 Z4.000
G1 X1186.582 Y702.515 Z4.000
G1 X1187.551 Y704.640 Z4.000
G1 X1188.355 Y706.823 Z4.000
G1 X1189.208 Y709.806 Z4.000
G1 X1189.945 Y714.435 Z4.000
G1 X1190.117 Y719.189 Z4.000
G1 X1189.765 Y724.020 Z4.000
G1 X1188.932 Y728.879 Z4.000
G1 X1187.659 Y733.715 Z4.000
G1 X1185.988 Y738.481 Z4.000
G1 X1183.961 Y743.126 Z4.000
G1 X1181.619 Y747.602 Z4.000
G1 X1179.005 Y751.859 Z4.000
G1 X1176.160 Y755.849 Z4.000
G1 X1173.127 Y759.522 Z4.000
G1 X1169.946 Y762.828 Z4.000
G1 X1166.661 Y765.720 Z4.000
G1 X1163.402 Y768.084 Z4.000
G1 X1160.180 Y770.181 Z4.000
G1 X1156.810 Y772.139 Z4.000
G1 X1153.310 Y773.885 Z4.000
G1 X1149.697 Y775.346 Z4.000
G1 X1145.988 Y776.450 Z4.000
G1 X1142.201 Y777.122 Z4.000
G1 X1138.352 Y777.289 Z4.000
G1 X1135.000 Y776.950 Z4.000
G1 X1132.858 Y776.400 Z4.000
G1 X1130.865 Y775.578 Z4.000
G1 X1129.005 Y774.515 Z4.000
G1 X1127.263 Y773.244 Z4.000
G1 X1125.624 Y771.793 Z4.000
G1 X1123.557 Y769.655 Z4.000
G1 X1119.740 Y764.866 Z4.000
G1 X1115.234 Y758.619 Z4.000
G1 X1112.878 Y755.788 Z4.000
G1 X1111.399 Y754.247 Z4.000
G1 X1109.448 Y752.519 Z4.000
G1 X1106.836 Y750.646 Z4.000
G1 X1104.391 Y749.345 Z4.000
G1 X1102.091 Y748.565 Z4.000
G1 X1099.918 Y748.257 Z4.000
G1 X1097.852 Y748.369 Z4.000
G1 X1095.871 Y748.850 Z4.000
G1 X1093.956 Y749.650 Z4.000
G1 X1092.088 Y750.717 Z4.000
G1 X1090.245 Y752.001 Z4.000
G1 X1087.795 Y753.943 Z4.000
G1 X1084.041 Y757.193 Z4.000
G1 X1080.718 Y759.898 Z4.000
G1 X1078.609 Y761.417 Z4.000
G1 X1075.978 Y763.042 Z4.000
G1 X1072.447 Y764.754 Z4.000
G1 X1068.851 Y766.012 Z4.000
G1 X1065.204 Y766.812 Z4.000
G1 X1061.518 Y767.149 Z4.000
G1 X1057.807 Y767.019 Z4.000
G1 X1054.083 Y766.417 Z4.000
G1 X1050.359 Y765.340 Z4.000
G1 X1046.722 Y763.814 Z4.000
G1 X1043.423 Y762.001 Z4.000
G1 X1040.357 Y759.886 Z4.000
G1 X1037.536 Y757.495 Z4.000
G1 X1034.970 Y754.856 Z4.000
G1 X1032.672 Y751.994 Z4.000
G1 X1030.651 Y748.938 Z4.000
G1 X1028.921 Y745.714 Z4.000
G1 X1027.490 Y742.348 Z4.000
G1 X1026.372 Y738.868 Z4.000
G1 X1025.577 Y735.299 Z4.000
G1 X1025.116 Y731.670 Z4.000
G1 X1025.000 Y728.006 Z4.000
G1 X1025.240 Y724.335 Z4.000
G1 X1025.849 Y720.683 Z4.000
G1 X1026.836 Y717.077 Z4.000
G1 X1027.733 Y714.717 Z4.000
G0 X1027.733 Y714.717 Z0.000

(shape postamble)


(shape preamble)

G0 X1091.283 Y726.170 Z0.000
G1 X1091.283 Y726.170 Z4.000
G1 X1091.997 Y725.958 Z4.000
G1 X1094.145 Y725.464 Z4.000
G1 X1097.008 Y725.035 Z4.000
G1 X1101.268 Y724.961 Z4.000
G1 X1105.447 Y725.491 Z4.000
G1 X1109.497 Y726.590 Z4.000
G1 X1113.369 Y728.224 Z4.000
G1 X1117.018 Y730.360 Z4.000
G1 X1120.396 Y732.961 Z4.000
G1 X1123.223 Y735.756 Z4.000
G1 X1125.161 Y738.274 Z4.000
G1 X1126.846 Y740.837 Z4.000
G1 X1128.480 Y743.320 Z4.000
G1 X1130.265 Y745.598 Z4.000
G1 X1132.033 Y747.232 Z4.000
G1 X1133.252 Y748.080 Z4.000
G1 X1134.627 Y748.804 Z4.000
G1 X1136.183 Y749.388 Z4.000
G1 X1137.945 Y749.817 Z4.000
G1 X1139.938 Y750.074 Z4.000
G1 X1142.026 Y750.143 Z4.000
G1 X1143.881 Y749.884 Z4.000
G1 X1145.771 Y749.310 Z4.000
G1 X1147.675 Y748.453 Z4.000
G1 X1149.576 Y747.347 Z4.000
G1 X1151.454 Y746.024 Z4.000
G1 X1153.901 Y744.007 Z4.000
G1 X1157.327 Y740.493 Z4.000
G1 X1160.337 Y736.687 Z4.000
G1 X1162.780 Y732.854 Z4.000
G1 X1164.240 Y729.847 Z4.000
G1 X1164.858 Y728.181 Z4.000
G1 X1165.402 Y725.999 Z4.000
G1 X1165.777 Y722.990 Z4.000
G1 X1165.668 Y720.506 Z4.000
G1 X1165.124 Y718.500 Z4.000
G1 X1164.193 Y716.926 Z4.000
G1 X1162.923 Y715.735 Z4.000
G1 X1161.363 Y714.880 Z4.000
G1 X1159.561 Y714.315 Z4.000
G1 X1157.565 Y713.992 Z4.000
G1 X1155.422 Y713.863 Z4.000
G1 X1152.432 Y713.894 Z4.000
G1 X1147.840 Y714.231 Z4.000
G1 X1143.501 Y714.526 Z4.000
G1 X1139.651 Y714.393 Z4.000
G1 X1135.681 Y713.622 Z4.000
G1 X1131.832 Y712.302 Z4.000
G1 X1128.203 Y710.498 Z4.000
G1 X1125.352 Y708.596 Z4.000
G1 X1123.619 Y707.207 Z4.000
G1 X1122.048 Y705.739 Z4.000
G1 X1120.634 Y704.194 Z4.000
G1 X1119.374 Y702.577 Z4.000
G1 X1118.264 Y700.892 Z4.000
G1 X1116.988 Y698.556 Z4.000
G1 X1115.581 Y694.841 Z4.000
G1 X1114.714 Y690.922 Z4.000
G1 X1114.356 Y686.830 Z4.000
G1 X1114.480 Y682.596 Z4.000
G1 X1115.175 Y677.465 Z4.000
G1 X1116.328 Y670.941 Z4.000
G1 X1116.775 Y666.893 Z4.000
G1 X1116.811 Y663.563 Z4.000
G1 X1116.651 Y661.621 Z4.000
G1 X1116.315 Y659.745 Z4.000
G1 X1115.778 Y657.956 Z4.000
G1 X1115.012 Y656.272 Z4.000
G1 X1113.993 Y654.714 Z4.000
G1 X1112.694 Y653.299 Z4.000
G1 X1111.088 Y652.049 Z4.000
G1 X1108.838 Y650.821 Z4.000
G1 X1106.052 Y649.721 Z4.000
G1 X1103.445 Y649.090 Z4.000
G1 X1101.018 Y648.894 Z4.000
G1 X1098.773 Y649.095 Z4.000
G1 X1096.710 Y649.659 Z4.000
G1 X1094.833 Y650.549 Z4.000
G1 X1093.141 Y651.731 Z4.000
G1 X1091.636 Y653.167 Z4.000
G1 X1090.320 Y654.824 Z4.000
G1 X1089.195 Y656.664 Z4.000
G1 X1088.261 Y658.652 Z4.000
G1 X1087.521 Y660.753 Z4.000
G1 X1086.975 Y662.931 Z4.000
G1 X1086.625 Y665.150 Z4.000
G1 X1086.473 Y667.374 Z4.000
G1 X1086.496 Y668.902 Z4.000
G1 X1087.909 Y679.351 Z4.000
G1 X1088.276 Y684.921 Z4.000
G1 X1088.234 Y687.729 Z4.000
G1 X1087.769 Y690.452 Z4.000
G1 X1086.447 Y694.384 Z4.000
G1 X1084.583 Y698.203 Z4.000
G1 X1082.280 Y701.723 Z4.000
G1 X1080.021 Y704.339 Z4.000
G1 X1078.419 Y705.793 Z4.000
G1 X1076.745 Y707.013 Z4.000
G1 X1074.999 Y708.038 Z4.000
G1 X1072.574 Y709.191 Z4.000
G1 X1068.691 Y710.563 Z4.000
G1 X1064.357 Y711.898 Z4.000
G1 X1060.314 Y713.552 Z4.000
G1 X1057.937 Y714.735 Z4.000
G1 X1055.649 Y716.066 Z4.000
G1 X1053.498 Y717.540 Z4.000
G1 X1051.529 Y719.153 Z4.000
G1 X1049.790 Y720.899 Z4.000
G1 X1048.328 Y722.774 Z4.000
G1 X1047.189 Y724.771 Z4.000
G1 X1046.421 Y726.887 Z4.000
G1 X1046.069 Y729.117 Z4.000
G1 X1046.182 Y731.454 Z4.000
G1 X1046.806 Y733.895 Z4.000
G1 X1047.987 Y736.434 Z4.000
G1 X1049.773 Y739.066 Z4.000
G1 X1051.741 Y741.283 Z4.000
G1 X1052.901 Y742.332 Z4.000
G1 X1054.078 Y743.176 Z4.000
G1 X1055.272 Y743.827 Z4.000
G1 X1056.480 Y744.295 Z4.000
G1 X1057.702 Y744.590 Z4.000
G1 X1059.350 Y744.760 Z4.000
G1 X1061.860 Y744.488 Z4.000
G1 X1064.406 Y743.711 Z4.000
G1 X1066.977 Y742.511 Z4.000
G1 X1069.565 Y740.975 Z4.000
G1 X1073.025 Y738.579 Z4.000
G1 X1078.193 Y734.509 Z4.000
G1 X1082.423 Y731.199 Z4.000
G1 X1084.913 Y729.418 Z4.000
G1 X1087.353 Y727.891 Z4.000
G1 X1089.736 Y726.705 Z4.000
G1 X1091.283 Y726.170 Z4.000
G0 X1091.283 Y726.170 Z0.000

(shape postamble)


(shape preamble)

G0 X1422.019 Y644.164 Z0.000
G1 X1422.019 Y644.164 Z4.000
G1 X1422.365 Y643.108 Z4.000
G1 X1423.652 Y640.016 Z4.000
G1 X1425.223 Y637.046 Z4.000
G1 X1427.062 Y634.227 Z4.000
G1 X1429.152 Y631.587 Z4.000
G1 X1431.477 Y629.157 Z4.000
G1 X1434.020 Y626.964 Z4.000
G1 X1436.764 Y625.037 Z4.000
G1 X1439.414 Y623.556 Z4.000
G1 X1441.484 Y622.638 Z4.000
G1 X1443.505 Y621.952 Z4.000
G1 X1445.482 Y621.471 Z4.000
G1 X1448.070 Y621.075 Z4.000
G1 X1451.866 Y620.984 Z4.000
G1 X1456.875 Y621.353 Z4.000
G1 X1463.266 Y622.011 Z4.000
G1 X1467.274 Y622.078 Z4.000
G1 X1471.151 Y621.696 Z4.000
G1 X1473.969 Y620.959 Z4.000
G1 X1476.322 Y619.856 Z4.000
G1 X1478.263 Y618.425 Z4.000
G1 X1479.840 Y616.702 Z4.000
G1 X1481.105 Y614.723 Z4.000
G1 X1482.107 Y612.527 Z4.000
G1 X1482.897 Y610.148 Z4.000
G1 X1483.728 Y606.778 Z4.000
G1 X1484.649 Y601.390 Z4.000
G1 X1485.597 Y595.914 Z4.000
G1 X1486.724 Y591.512 Z4.000
G1 X1487.632 Y589.007 Z4.000
G1 X1488.995 Y586.239 Z4.000
G1 X1491.073 Y582.763 Z4.000
G1 X1493.433 Y579.438 Z4.000
G1 X1496.061 Y576.310 Z4.000
G1 X1498.945 Y573.426 Z4.000
G1 X1502.070 Y570.832 Z4.000
G1 X1505.424 Y568.574 Z4.000
G1 X1508.993 Y566.699 Z4.000
G1 X1513.043 Y565.152 Z4.000
G1 X1517.509 Y563.986 Z4.000
G1 X1521.755 Y563.398 Z4.000
G1 X1525.773 Y563.360 Z4.000
G1 X1529.555 Y563.842 Z4.000
G1 X1533.094 Y564.814 Z4.000
G1 X1536.381 Y566.247 Z4.000
G1 X1539.409 Y568.111 Z4.000
G1 X1542.168 Y570.376 Z4.000
G1 X1544.652 Y573.014 Z4.000
G1 X1546.853 Y575.995 Z4.000
G1 X1548.762 Y579.289 Z4.000
G1 X1550.372 Y582.866 Z4.000
G1 X1551.674 Y586.697 Z4.000
G1 X1552.661 Y590.753 Z4.000
G1 X1553.324 Y595.004 Z4.000
G1 X1553.605 Y598.593 Z4.000
G1 X1553.554 Y600.577 Z4.000
G1 X1553.233 Y603.248 Z4.000
G1 X1552.223 Y607.255 Z4.000
G1 X1550.815 Y611.154 Z4.000
G1 X1548.671 Y616.047 Z4.000
G1 X1546.210 Y621.106 Z4.000
G1 X1545.217 Y623.473 Z4.000
G1 X1544.800 Y625.355 Z4.000
G1 X1544.832 Y627.361 Z4.000
G1 X1545.276 Y629.260 Z4.000
G1 X1546.080 Y631.065 Z4.000
G1 X1547.192 Y632.790 Z4.000
G1 X1548.560 Y634.449 Z4.000
G1 X1550.665 Y636.590 Z4.000
G1 X1554.292 Y639.687 Z4.000
G1 X1558.041 Y642.763 Z4.000
G1 X1560.938 Y645.399 Z4.000
G1 X1562.483 Y647.035 Z4.000
G1 X1563.816 Y648.733 Z4.000
G1 X1564.886 Y650.504 Z4.000
G1 X1565.762 Y652.691 Z4.000
G1 X1566.593 Y655.833 Z4.000
G1 X1567.134 Y659.219 Z4.000
G1 X1567.368 Y662.746 Z4.000
G1 X1567.279 Y666.309 Z4.000
G1 X1566.851 Y669.806 Z4.000
G1 X1566.069 Y673.132 Z4.000
G1 X1564.916 Y676.184 Z4.000
G1 X1563.279 Y679.015 Z4.000
G1 X1561.006 Y681.957 Z4.000
G1 X1558.333 Y684.718 Z4.000
G1 X1555.313 Y687.267 Z4.000
G1 X1552.002 Y689.573 Z4.000
G1 X1548.455 Y691.608 Z4.000
G1 X1544.726 Y693.339 Z4.000
G1 X1540.871 Y694.738 Z4.000
G1 X1536.943 Y695.773 Z4.000
G1 X1532.999 Y696.415 Z4.000
G1 X1529.092 Y696.632 Z4.000
G1 X1525.277 Y696.395 Z4.000
G1 X1521.610 Y695.674 Z4.000
G1 X1518.144 Y694.438 Z4.000
G1 X1515.462 Y692.969 Z4.000
G1 X1513.946 Y691.912 Z4.000
G1 X1512.512 Y690.708 Z4.000
G1 X1511.167 Y689.355 Z4.000
G1 X1509.538 Y687.374 Z4.000
G1 X1507.144 Y684.979 Z4.000
G1 X1504.727 Y683.204 Z4.000
G1 X1502.295 Y681.994 Z4.000
G1 X1499.853 Y681.295 Z4.000
G1 X1497.407 Y681.054 Z4.000
G1 X1494.965 Y681.216 Z4.000
G1 X1492.531 Y681.729 Z4.000
G1 X1490.113 Y682.537 Z4.000
G1 X1487.715 Y683.587 Z4.000
G1 X1484.557 Y685.246 Z4.000
G1 X1479.949 Y688.136 Z4.000
G1 X1475.533 Y691.059 Z4.000
G1 X1472.218 Y693.082 Z4.000
G1 X1470.624 Y693.859 Z4.000
G1 X1468.431 Y694.691 Z4.000
G1 X1464.997 Y695.460 Z4.000
G1 X1461.447 Y695.758 Z4.000
G1 X1457.825 Y695.654 Z4.000
G1 X1454.178 Y695.215 Z4.000
G1 X1450.552 Y694.510 Z4.000
G1 X1446.992 Y693.607 Z4.000
G1 X1443.419 Y692.536 Z4.000
G1 X1439.845 Y691.051 Z4.000
G1 X1436.549 Y689.208 Z4.000
G1 X1433.535 Y687.038 Z4.000
G1 X1430.810 Y684.570 Z4.000
G1 X1428.377 Y681.836 Z4.000
G1 X1426.242 Y678.866 Z4.000
G1 X1424.410 Y675.691 Z4.000
G1 X1422.887 Y672.342 Z4.000
G1 X1421.677 Y668.850 Z4.000
G1 X1420.786 Y665.244 Z4.000
G1 X1420.218 Y661.556 Z4.000
G1 X1419.979 Y657.817 Z4.000
G1 X1420.075 Y654.056 Z4.000
G1 X1420.509 Y650.306 Z4.000
G1 X1421.287 Y646.595 Z4.000
G1 X1422.019 Y644.164 Z4.000
G0 X1422.019 Y644.164 Z0.000

(shape postamble)


(shape preamble)

G0 X1467.499 Y671.684 Z0.000
G1 X1467.499 Y671.684 Z4.000
G1 X1468.344 Y671.339 Z4.000
G1 X1470.761 Y670.073 Z4.000
G1 X1473.840 Y668.102 Z4.000
G1 X1478.287 Y664.788 Z4.000
G1 X1482.082 Y662.158 Z4.000
G1 X1484.474 Y660.785 Z4.000
G1 X1487.282 Y659.539 Z4.000
G1 X1490.745 Y658.417 Z4.000
G1 X1494.268 Y657.680 Z4.000
G1 X1497.819 Y657.339 Z4.000
G1 X1501.367 Y657.407 Z4.000
G1 X1504.883 Y657.898 Z4.000
G1 X1508.335 Y658.824 Z4.000
G1 X1511.693 Y660.197 Z4.000
G1 X1514.467 Y661.757 Z4.000
G1 X1516.261 Y663.233 Z4.000
G1 X1518.629 Y665.632 Z4.000
G1 X1521.628 Y668.905 Z4.000
G1 X1523.491 Y670.675 Z4.000
G1 X1525.430 Y672.116 Z4.000
G1 X1527.126 Y672.926 Z4.000
G1 X1528.180 Y673.221 Z4.000
G1 X1529.666 Y673.372 Z4.000
G1 X1531.802 Y673.315 Z4.000
G1 X1533.745 Y672.991 Z4.000
G1 X1535.491 Y672.426 Z4.000
G1 X1537.031 Y671.646 Z4.000
G1 X1538.359 Y670.674 Z4.000
G1 X1539.469 Y669.536 Z4.000
G1 X1540.354 Y668.256 Z4.000
G1 X1541.007 Y666.861 Z4.000
G1 X1541.422 Y665.376 Z4.000
G1 X1541.591 Y663.824 Z4.000
G1 X1541.507 Y662.231 Z4.000
G1 X1541.166 Y660.623 Z4.000
G1 X1540.558 Y659.024 Z4.000
G1 X1539.679 Y657.459 Z4.000
G1 X1538.521 Y655.953 Z4.000
G1 X1535.605 Y653.147 Z4.000
G1 X1530.919 Y649.159 Z4.000
G1 X1528.348 Y646.795 Z4.000
G1 X1526.046 Y644.303 Z4.000
G1 X1524.085 Y641.537 Z4.000
G1 X1522.779 Y638.900 Z4.000
G1 X1522.139 Y637.153 Z4.000
G1 X1521.625 Y635.255 Z4.000
G1 X1521.245 Y633.187 Z4.000
G1 X1521.022 Y631.066 Z4.000
G1 X1521.099 Y629.151 Z4.000
G1 X1521.441 Y627.200 Z4.000
G1 X1522.007 Y625.221 Z4.000
G1 X1523.015 Y622.550 Z4.000
G1 X1524.985 Y618.495 Z4.000
G1 X1527.156 Y614.430 Z4.000
G1 X1529.208 Y610.407 Z4.000
G1 X1530.571 Y607.126 Z4.000
G1 X1531.173 Y605.197 Z4.000
G1 X1531.559 Y603.307 Z4.000
G1 X1531.688 Y601.462 Z4.000
G1 X1531.508 Y599.576 Z4.000
G1 X1530.966 Y597.668 Z4.000
G1 X1530.117 Y595.952 Z4.000
G1 X1529.005 Y594.431 Z4.000
G1 X1527.669 Y593.109 Z4.000
G1 X1526.152 Y591.992 Z4.000
G1 X1524.495 Y591.083 Z4.000
G1 X1522.738 Y590.387 Z4.000
G1 X1520.923 Y589.909 Z4.000
G1 X1519.091 Y589.651 Z4.000
G1 X1517.284 Y589.620 Z4.000
G1 X1515.543 Y589.818 Z4.000
G1 X1513.908 Y590.251 Z4.000
G1 X1512.422 Y590.922 Z4.000
G1 X1511.125 Y591.837 Z4.000
G1 X1510.058 Y592.999 Z4.000
G1 X1508.762 Y595.014 Z4.000
G1 X1506.965 Y598.418 Z4.000
G1 X1505.709 Y601.993 Z4.000
G1 X1504.995 Y605.738 Z4.000
G1 X1504.480 Y611.134 Z4.000
G1 X1503.710 Y617.875 Z4.000
G1 X1502.936 Y621.189 Z4.000
G1 X1502.270 Y623.166 Z4.000
G1 X1501.179 Y625.621 Z4.000
G1 X1499.202 Y628.879 Z4.000
G1 X1496.802 Y631.917 Z4.000
G1 X1494.046 Y634.709 Z4.000
G1 X1490.998 Y637.231 Z4.000
G1 X1487.724 Y639.458 Z4.000
G1 X1484.290 Y641.368 Z4.000
G1 X1480.761 Y642.934 Z4.000
G1 X1477.551 Y644.022 Z4.000
G1 X1474.880 Y644.486 Z4.000
G1 X1472.056 Y644.624 Z4.000
G1 X1469.123 Y644.516 Z4.000
G1 X1465.125 Y644.149 Z4.000
G1 X1459.125 Y643.427 Z4.000
G1 X1454.393 Y643.168 Z4.000
G1 X1451.747 Y643.310 Z4.000
G1 X1449.305 Y643.780 Z4.000
G1 X1447.113 Y644.661 Z4.000
G1 X1445.523 Y645.790 Z4.000
G1 X1444.670 Y646.639 Z4.000
G1 X1443.906 Y647.639 Z4.000
G1 X1443.235 Y648.799 Z4.000
G1 X1442.665 Y650.130 Z4.000
G1 X1442.199 Y651.642 Z4.000
G1 X1441.733 Y653.924 Z4.000
G1 X1441.481 Y657.573 Z4.000
G1 X1441.656 Y660.154 Z4.000
G1 X1442.160 Y662.506 Z4.000
G1 X1442.967 Y664.628 Z4.000
G1 X1444.048 Y666.521 Z4.000
G1 X1445.375 Y668.184 Z4.000
G1 X1446.921 Y669.619 Z4.000
G1 X1448.657 Y670.824 Z4.000
G1 X1450.555 Y671.801 Z4.000
G1 X1452.587 Y672.549 Z4.000
G1 X1454.726 Y673.069 Z4.000
G1 X1456.943 Y673.359 Z4.000
G1 X1459.210 Y673.422 Z4.000
G1 X1461.500 Y673.256 Z4.000
G1 X1463.784 Y672.861 Z4.000
G1 X1466.035 Y672.239 Z4.000
G1 X1467.499 Y671.684 Z4.000
G0 X1467.499 Y671.684 Z0.000

(shape postamble)


(shape preamble)

G0 X889.595 Y623.071 Z0.000
G1 X889.595 Y623.071 Z4.000
G1 X889.214 Y623.919 Z4.000
G1 X887.936 Y626.348 Z4.000
G1 X886.076 Y629.419 Z4.000
G1 X883.133 Y633.687 Z4.000
G1 X880.855 Y637.057 Z4.000
G1 X879.659 Y639.047 Z4.000
G1 X878.657 Y641.032 Z4.000
G1 X877.898 Y643.030 Z4.000
G1 X877.436 Y645.061 Z4.000
G1 X877.320 Y647.145 Z4.000
G1 X877.602 Y649.300 Z4.000
G1 X878.334 Y651.547 Z4.000
G1 X879.567 Y653.904 Z4.000
G1 X881.352 Y656.390 Z4.000
G1 X883.890 Y659.186 Z4.000
G1 X886.908 Y661.950 Z4.000
G1 X889.922 Y664.427 Z4.000
G1 X892.836 Y666.801 Z4.000
G1 X895.554 Y669.256 Z4.000
G1 X897.585 Y671.510 Z4.000
G1 X898.690 Y672.989 Z4.000
G1 X899.689 Y674.594 Z4.000
G1 X900.572 Y676.350 Z4.000
G1 X901.325 Y678.277 Z4.000
G1 X901.937 Y680.400 Z4.000
G1 X902.497 Y683.297 Z4.000
G1 X902.743 Y687.276 Z4.000
G1 X902.442 Y691.156 Z4.000
G1 X901.635 Y694.921 Z4.000
G1 X900.363 Y698.554 Z4.000
G1 X898.667 Y702.038 Z4.000
G1 X896.589 Y705.357 Z4.000
G1 X894.169 Y708.494 Z4.000
G1 X891.449 Y711.432 Z4.000
G1 X888.470 Y714.155 Z4.000
G1 X885.273 Y716.645 Z4.000
G1 X881.899 Y718.885 Z4.000
G1 X878.389 Y720.860 Z4.000
G1 X874.785 Y722.551 Z4.000
G1 X871.128 Y723.943 Z4.000
G1 X867.459 Y725.019 Z4.000
G1 X863.607 Y725.801 Z4.000
G1 X859.666 Y726.195 Z4.000
G1 X856.097 Y726.124 Z4.000
G1 X852.878 Y725.617 Z4.000
G1 X849.987 Y724.703 Z4.000
G1 X847.401 Y723.414 Z4.000
G1 X845.098 Y721.777 Z4.000
G1 X843.057 Y719.824 Z4.000
G1 X841.254 Y717.583 Z4.000
G1 X839.669 Y715.085 Z4.000
G1 X838.278 Y712.359 Z4.000
G1 X837.060 Y709.435 Z4.000
G1 X835.643 Y705.304 Z4.000
G1 X833.945 Y698.654 Z4.000
G1 X832.702 Y692.485 Z4.000
G1 X831.622 Y688.684 Z4.000
G1 X830.364 Y685.839 Z4.000
G1 X829.187 Y684.166 Z4.000
G1 X828.437 Y683.407 Z4.000
G1 X827.655 Y682.834 Z4.000
G1 X826.842 Y682.435 Z4.000
G1 X825.720 Y682.129 Z4.000
G1 X823.951 Y682.196 Z4.000
G1 X822.106 Y682.763 Z4.000
G1 X820.205 Y683.739 Z4.000
G1 X818.269 Y685.032 Z4.000
G1 X815.669 Y687.065 Z4.000
G1 X811.820 Y690.462 Z4.000
G1 X808.782 Y693.053 Z4.000
G1 X807.067 Y694.330 Z4.000
G1 X804.942 Y695.575 Z4.000
G1 X801.818 Y696.941 Z4.000
G1 X798.730 Y697.863 Z4.000
G1 X795.692 Y698.377 Z4.000
G1 X792.719 Y698.518 Z4.000
G1 X789.825 Y698.321 Z4.000
G1 X787.024 Y697.823 Z4.000
G1 X784.331 Y697.058 Z4.000
G1 X781.760 Y696.063 Z4.000
G1 X779.325 Y694.872 Z4.000
G1 X777.040 Y693.522 Z4.000
G1 X774.921 Y692.048 Z4.000
G1 X772.981 Y690.486 Z4.000
G1 X771.234 Y688.871 Z4.000
G1 X769.695 Y687.238 Z4.000
G1 X768.379 Y685.624 Z4.000
G1 X766.960 Y683.559 Z4.000
G1 X765.239 Y680.390 Z4.000
G1 X763.909 Y677.117 Z4.000
G1 X762.959 Y673.767 Z4.000
G1 X762.381 Y670.368 Z4.000
G1 X762.162 Y666.946 Z4.000
G1 X762.293 Y663.530 Z4.000
G1 X762.764 Y660.146 Z4.000
G1 X763.565 Y656.821 Z4.000
G1 X764.684 Y653.583 Z4.000
G1 X766.111 Y650.459 Z4.000
G1 X767.837 Y647.477 Z4.000
G1 X769.851 Y644.663 Z4.000
G1 X772.142 Y642.045 Z4.000
G1 X774.701 Y639.649 Z4.000
G1 X777.517 Y637.504 Z4.000
G1 X780.116 Y635.908 Z4.000
G1 X781.912 Y635.074 Z4.000
G1 X784.424 Y634.212 Z4.000
G1 X788.420 Y633.425 Z4.000
G1 X792.558 Y632.987 Z4.000
G1 X796.719 Y632.679 Z4.000
G1 X800.786 Y632.277 Z4.000
G1 X804.007 Y631.693 Z4.000
G1 X805.845 Y631.191 Z4.000
G1 X807.591 Y630.536 Z4.000
G1 X809.229 Y629.700 Z4.000
G1 X810.894 Y628.550 Z4.000
G1 X812.447 Y626.930 Z4.000
G1 X813.590 Y625.075 Z4.000
G1 X814.375 Y623.015 Z4.000
G1 X814.856 Y620.779 Z4.000
G1 X815.087 Y618.396 Z4.000
G1 X815.124 Y615.057 Z4.000
G1 X814.744 Y609.777 Z4.000
G1 X814.291 Y604.421 Z4.000
G1 X814.191 Y600.082 Z4.000
G1 X814.346 Y597.586 Z4.000
G1 X814.732 Y595.208 Z4.000
G1 X815.404 Y592.977 Z4.000
G1 X816.638 Y590.501 Z4.000
G1 X818.739 Y587.399 Z4.000
G1 X821.224 Y584.533 Z4.000
G1 X824.051 Y581.909 Z4.000
G1 X827.176 Y579.539 Z4.000
G1 X830.555 Y577.430 Z4.000
G1 X834.145 Y575.592 Z4.000
G1 X837.902 Y574.032 Z4.000
G1 X841.783 Y572.761 Z4.000
G1 X845.745 Y571.788 Z4.000
G1 X849.744 Y571.120 Z4.000
G1 X853.737 Y570.767 Z4.000
G1 X857.680 Y570.738 Z4.000
G1 X861.529 Y571.043 Z4.000
G1 X865.241 Y571.688 Z4.000
G1 X868.774 Y572.685 Z4.000
G1 X872.179 Y574.083 Z4.000
G1 X875.518 Y575.898 Z4.000
G1 X878.591 Y578.013 Z4.000
G1 X881.388 Y580.403 Z4.000
G1 X883.902 Y583.041 Z4.000
G1 X886.124 Y585.899 Z4.000
G1 X888.048 Y588.950 Z4.000
G1 X889.664 Y592.169 Z4.000
G1 X890.965 Y595.529 Z4.000
G1 X891.944 Y599.001 Z4.000
G1 X892.590 Y602.561 Z4.000
G1 X892.898 Y606.180 Z4.000
G1 X892.859 Y609.832 Z4.000
G1 X892.465 Y613.491 Z4.000
G1 X891.707 Y617.130 Z4.000
G1 X890.579 Y620.721 Z4.000
G1 X889.595 Y623.071 Z4.000
G0 X889.595 Y623.071 Z0.000

(shape postamble)


(shape preamble)

G0 X865.358 Y597.069 Z0.000
G1 X865.358 Y597.069 Z4.000
G1 X864.719 Y596.463 Z4.000
G1 X862.633 Y594.963 Z4.000
G1 X860.385 Y593.833 Z4.000
G1 X858.017 Y593.062 Z4.000
G1 X855.572 Y592.635 Z4.000
G1 X853.093 Y592.541 Z4.000
G1 X850.623 Y592.766 Z4.000
G1 X848.204 Y593.298 Z4.000
G1 X845.881 Y594.124 Z4.000
G1 X843.695 Y595.232 Z4.000
G1 X841.689 Y596.607 Z4.000
G1 X839.907 Y598.239 Z4.000
G1 X838.391 Y600.113 Z4.000
G1 X837.185 Y602.218 Z4.000
G1 X836.330 Y604.540 Z4.000
G1 X835.871 Y607.067 Z4.000
G1 X835.865 Y610.554 Z4.000
G1 X836.414 Y615.137 Z4.000
G1 X836.892 Y618.776 Z4.000
G1 X837.044 Y620.986 Z4.000
G1 X837.013 Y623.268 Z4.000
G1 X836.730 Y625.668 Z4.000
G1 X836.005 Y628.692 Z4.000
G1 X834.575 Y632.503 Z4.000
G1 X832.689 Y636.088 Z4.000
G1 X830.387 Y639.412 Z4.000
G1 X827.708 Y642.444 Z4.000
G1 X824.691 Y645.147 Z4.000
G1 X821.373 Y647.490 Z4.000
G1 X817.794 Y649.438 Z4.000
G1 X814.593 Y650.732 Z4.000
G1 X812.572 Y651.312 Z4.000
G1 X809.888 Y651.844 Z4.000
G1 X805.873 Y652.263 Z4.000
G1 X801.836 Y652.639 Z4.000
G1 X798.513 Y653.214 Z4.000
G1 X795.727 Y653.775 Z4.000
G1 X792.196 Y654.674 Z4.000
G1 X789.018 Y655.785 Z4.000
G1 X787.139 Y656.619 Z4.000
G1 X785.345 Y657.604 Z4.000
G1 X783.694 Y658.755 Z4.000
G1 X782.243 Y660.084 Z4.000
G1 X781.052 Y661.607 Z4.000
G1 X780.177 Y663.337 Z4.000
G1 X779.677 Y665.290 Z4.000
G1 X779.610 Y667.478 Z4.000
G1 X780.034 Y669.917 Z4.000
G1 X781.118 Y672.902 Z4.000
G1 X782.643 Y675.794 Z4.000
G1 X784.296 Y677.911 Z4.000
G1 X786.051 Y679.331 Z4.000
G1 X787.887 Y680.130 Z4.000
G1 X789.780 Y680.387 Z4.000
G1 X791.707 Y680.178 Z4.000
G1 X793.644 Y679.580 Z4.000
G1 X795.569 Y678.671 Z4.000
G1 X797.458 Y677.528 Z4.000
G1 X799.894 Y675.789 Z4.000
G1 X803.221 Y673.009 Z4.000
G1 X806.003 Y670.629 Z4.000
G1 X809.962 Y668.150 Z4.000
G1 X815.493 Y664.766 Z4.000
G1 X818.622 Y663.091 Z4.000
G1 X821.706 Y661.816 Z4.000
G1 X824.322 Y661.156 Z4.000
G1 X825.935 Y660.941 Z4.000
G1 X827.597 Y660.887 Z4.000
G1 X829.321 Y661.006 Z4.000
G1 X831.120 Y661.311 Z4.000
G1 X833.006 Y661.816 Z4.000
G1 X835.034 Y662.548 Z4.000
G1 X837.008 Y663.433 Z4.000
G1 X838.806 Y664.415 Z4.000
G1 X840.438 Y665.493 Z4.000
G1 X841.916 Y666.663 Z4.000
G1 X843.250 Y667.923 Z4.000
G1 X844.845 Y669.725 Z4.000
G1 X846.814 Y672.728 Z4.000
G1 X848.394 Y676.046 Z4.000
G1 X849.672 Y679.659 Z4.000
G1 X850.733 Y683.547 Z4.000
G1 X851.522 Y687.038 Z4.000
G1 X851.817 Y689.433 Z4.000
G1 X852.002 Y691.943 Z4.000
G1 X852.210 Y694.477 Z4.000
G1 X852.575 Y696.949 Z4.000
G1 X853.231 Y699.270 Z4.000
G1 X854.115 Y701.013 Z4.000
G1 X854.810 Y701.963 Z4.000
G1 X855.654 Y702.824 Z4.000
G1 X856.666 Y703.584 Z4.000
G1 X857.864 Y704.235 Z4.000
G1 X859.170 Y704.716 Z4.000
G1 X860.548 Y705.027 Z4.000
G1 X861.980 Y705.178 Z4.000
G1 X863.941 Y705.176 Z4.000
G1 X866.931 Y704.705 Z4.000
G1 X869.847 Y703.802 Z4.000
G1 X872.552 Y702.560 Z4.000
G1 X874.913 Y701.073 Z4.000
G1 X876.793 Y699.436 Z4.000
G1 X878.180 Y697.564 Z4.000
G1 X879.334 Y695.430 Z4.000
G1 X880.086 Y693.404 Z4.000
G1 X880.467 Y691.478 Z4.000
G1 X880.507 Y689.645 Z4.000
G1 X880.238 Y687.896 Z4.000
G1 X879.689 Y686.223 Z4.000
G1 X878.892 Y684.619 Z4.000
G1 X877.877 Y683.075 Z4.000
G1 X876.676 Y681.584 Z4.000
G1 X874.859 Y679.659 Z4.000
G1 X870.669 Y675.974 Z4.000
G1 X864.964 Y671.427 Z4.000
G1 X861.614 Y668.243 Z4.000
G1 X858.659 Y664.799 Z4.000
G1 X856.587 Y661.729 Z4.000
G1 X855.515 Y659.814 Z4.000
G1 X854.596 Y657.842 Z4.000
G1 X853.839 Y655.815 Z4.000
G1 X853.256 Y653.733 Z4.000
G1 X852.859 Y651.599 Z4.000
G1 X852.660 Y649.414 Z4.000
G1 X852.668 Y647.180 Z4.000
G1 X852.896 Y644.899 Z4.000
G1 X853.355 Y642.572 Z4.000
G1 X854.100 Y640.059 Z4.000
G1 X855.297 Y637.269 Z4.000
G1 X856.802 Y634.494 Z4.000
G1 X858.532 Y631.734 Z4.000
G1 X861.037 Y628.068 Z4.000
G1 X864.897 Y622.601 Z4.000
G1 X867.713 Y618.060 Z4.000
G1 X869.082 Y615.338 Z4.000
G1 X870.105 Y612.614 Z4.000
G1 X870.699 Y609.888 Z4.000
G1 X870.784 Y607.157 Z4.000
G1 X870.379 Y604.876 Z4.000
G1 X869.933 Y603.505 Z4.000
G1 X869.312 Y602.131 Z4.000
G1 X868.505 Y600.755 Z4.000
G1 X867.158 Y598.915 Z4.000
G1 X865.358 Y597.069 Z4.000
G0 X865.358 Y597.069 Z0.000

(shape postamble)


(shape preamble)

G0 X1141.371 Y556.106 Z0.000
G1 X1141.371 Y556.106 Z4.000
G1 X1142.171 Y557.190 Z4.000
G1 X1144.092 Y560.459 Z4.000
G1 X1145.493 Y563.764 Z4.000
G1 X1146.437 Y567.121 Z4.000
G1 X1146.985 Y570.546 Z4.000
G1 X1147.199 Y574.053 Z4.000
G1 X1147.141 Y577.659 Z4.000
G1 X1146.872 Y581.378 Z4.000
G1 X1146.527 Y584.587 Z4.000
G1 X1146.003 Y586.272 Z4.000
G1 X1145.340 Y588.161 Z4.000
G1 X1144.353 Y590.684 Z4.000
G1 X1143.216 Y593.116 Z4.000
G1 X1141.932 Y595.445 Z4.000
G1 X1140.503 Y597.657 Z4.000
G1 X1138.933 Y599.739 Z4.000
G1 X1137.224 Y601.677 Z4.000
G1 X1135.378 Y603.459 Z4.000
G1 X1133.400 Y605.070 Z4.000
G1 X1131.292 Y606.499 Z4.000
G1 X1129.056 Y607.731 Z4.000
G1 X1126.695 Y608.754 Z4.000
G1 X1124.213 Y609.553 Z4.000
G1 X1121.612 Y610.116 Z4.000
G1 X1118.894 Y610.430 Z4.000
G1 X1116.064 Y610.481 Z4.000
G1 X1112.846 Y610.230 Z4.000
G1 X1109.135 Y609.523 Z4.000
G1 X1105.548 Y608.406 Z4.000
G1 X1102.114 Y606.902 Z4.000
G1 X1098.864 Y605.035 Z4.000
G1 X1095.828 Y602.827 Z4.000
G1 X1093.035 Y600.300 Z4.000
G1 X1090.516 Y597.478 Z4.000
G1 X1088.493 Y594.664 Z4.000
G1 X1087.225 Y592.285 Z4.000
G1 X1086.257 Y589.880 Z4.000
G1 X1085.509 Y587.531 Z4.000
G1 X1084.702 Y584.590 Z4.000
G1 X1083.778 Y581.625 Z4.000
G1 X1083.105 Y580.307 Z4.000
G1 X1082.234 Y579.438 Z4.000
G1 X1081.210 Y578.855 Z4.000
G1 X1080.099 Y578.521 Z4.000
G1 X1078.916 Y578.409 Z4.000
G1 X1077.257 Y578.530 Z4.000
G1 X1074.634 Y579.279 Z4.000
G1 X1071.969 Y580.459 Z4.000
G1 X1069.378 Y581.857 Z4.000
G1 X1066.976 Y583.262 Z4.000
G1 X1064.877 Y584.463 Z4.000
G1 X1062.615 Y585.500 Z4.000
G1 X1059.218 Y586.684 Z4.000
G1 X1055.784 Y587.548 Z4.000
G1 X1052.341 Y588.090 Z4.000
G1 X1048.917 Y588.308 Z4.000
G1 X1045.540 Y588.201 Z4.000
G1 X1042.236 Y587.765 Z4.000
G1 X1039.035 Y587.000 Z4.000
G1 X1035.964 Y585.903 Z4.000
G1 X1033.050 Y584.472 Z4.000
G1 X1030.322 Y582.705 Z4.000
G1 X1027.807 Y580.600 Z4.000
G1 X1025.534 Y578.156 Z4.000
G1 X1023.529 Y575.369 Z4.000
G1 X1021.821 Y572.240 Z4.000
G1 X1020.437 Y568.764 Z4.000
G1 X1019.421 Y564.999 Z4.000
G1 X1018.878 Y561.332 Z4.000
G1 X1018.772 Y557.725 Z4.000
G1 X1019.077 Y554.195 Z4.000
G1 X1019.770 Y550.760 Z4.000
G1 X1020.827 Y547.437 Z4.000
G1 X1022.222 Y544.244 Z4.000
G1 X1023.931 Y541.196 Z4.000
G1 X1025.932 Y538.312 Z4.000
G1 X1028.198 Y535.609 Z4.000
G1 X1030.706 Y533.104 Z4.000
G1 X1033.431 Y530.814 Z4.000
G1 X1036.350 Y528.756 Z4.000
G1 X1039.437 Y526.948 Z4.000
G1 X1042.669 Y525.406 Z4.000
G1 X1046.022 Y524.149 Z4.000
G1 X1049.368 Y523.219 Z4.000
G1 X1052.564 Y522.644 Z4.000
G1 X1055.792 Y522.312 Z4.000
G1 X1059.036 Y522.160 Z4.000
G1 X1062.550 Y522.127 Z4.000
G1 X1065.938 Y522.046 Z4.000
G1 X1068.583 Y521.772 Z4.000
G1 X1070.236 Y521.283 Z4.000
G1 X1071.032 Y520.857 Z4.000
G1 X1071.677 Y520.304 Z4.000
G1 X1072.178 Y519.608 Z4.000
G1 X1072.544 Y518.753 Z4.000
G1 X1072.780 Y517.721 Z4.000
G1 X1072.927 Y516.077 Z4.000
G1 X1072.751 Y512.835 Z4.000
G1 X1072.079 Y507.814 Z4.000
G1 X1071.406 Y502.432 Z4.000
G1 X1071.193 Y499.276 Z4.000
G1 X1071.213 Y496.152 Z4.000
G1 X1071.537 Y493.034 Z4.000
G1 X1072.239 Y489.897 Z4.000
G1 X1073.392 Y486.716 Z4.000
G1 X1074.995 Y483.597 Z4.000
G1 X1076.923 Y480.937 Z4.000
G1 X1079.254 Y478.534 Z4.000
G1 X1081.937 Y476.389 Z4.000
G1 X1084.923 Y474.509 Z4.000
G1 X1088.164 Y472.896 Z4.000
G1 X1091.608 Y471.556 Z4.000
G1 X1095.208 Y470.492 Z4.000
G1 X1098.913 Y469.709 Z4.000
G1 X1102.675 Y469.211 Z4.000
G1 X1106.443 Y469.003 Z4.000
G1 X1110.168 Y469.089 Z4.000
G1 X1113.801 Y469.473 Z4.000
G1 X1117.292 Y470.159 Z4.000
G1 X1120.592 Y471.151 Z4.000
G1 X1123.651 Y472.455 Z4.000
G1 X1126.554 Y474.156 Z4.000
G1 X1129.335 Y476.360 Z4.000
G1 X1131.726 Y478.871 Z4.000
G1 X1133.742 Y481.651 Z4.000
G1 X1135.401 Y484.663 Z4.000
G1 X1136.718 Y487.871 Z4.000
G1 X1137.709 Y491.237 Z4.000
G1 X1138.390 Y494.725 Z4.000
G1 X1138.777 Y498.298 Z4.000
G1 X1138.887 Y501.917 Z4.000
G1 X1138.734 Y505.548 Z4.000
G1 X1138.337 Y509.151 Z4.000
G1 X1137.709 Y512.691 Z4.000
G1 X1136.869 Y516.131 Z4.000
G1 X1135.830 Y519.433 Z4.000
G1 X1134.611 Y522.560 Z4.000
G1 X1133.189 Y525.552 Z4.000
G1 X1131.606 Y528.235 Z4.000
G1 X1130.110 Y530.582 Z4.000
G1 X1128.875 Y532.774 Z4.000
G1 X1128.189 Y534.618 Z4.000
G1 X1127.954 Y535.777 Z4.000
G1 X1127.884 Y537.003 Z4.000
G1 X1128.001 Y538.319 Z4.000
G1 X1128.326 Y539.747 Z4.000
G1 X1128.882 Y541.309 Z4.000
G1 X1129.972 Y543.612 Z4.000
G1 X1131.971 Y546.774 Z4.000
G1 X1133.034 Y548.058 Z4.000
G1 X1134.641 Y549.673 Z4.000
G1 X1137.309 Y551.976 Z4.000
G1 X1139.480 Y553.950 Z4.000
G1 X1140.666 Y555.211 Z4.000
G1 X1141.371 Y556.106 Z4.000
G0 X1141.371 Y556.106 Z0.000

(shape postamble)


(shape preamble)

G0 X1108.761 Y491.284 Z0.000
G1 X1108.761 Y491.284 Z4.000
G1 X1107.846 Y491.058 Z4.000
G1 X1105.352 Y490.650 Z4.000
G1 X1103.150 Y490.546 Z4.000
G1 X1101.224 Y490.724 Z4.000
G1 X1099.561 Y491.163 Z4.000
G1 X1098.148 Y491.841 Z4.000
G1 X1096.970 Y492.738 Z4.000
G1 X1096.015 Y493.832 Z4.000
G1 X1095.267 Y495.101 Z4.000
G1 X1094.715 Y496.524 Z4.000
G1 X1094.343 Y498.080 Z4.000
G1 X1094.139 Y499.747 Z4.000
G1 X1094.079 Y502.094 Z4.000
G1 X1094.469 Y505.830 Z4.000
G1 X1095.281 Y509.597 Z4.000
G1 X1095.996 Y513.140 Z4.000
G1 X1096.480 Y516.549 Z4.000
G1 X1096.662 Y519.851 Z4.000
G1 X1096.473 Y523.075 Z4.000
G1 X1095.841 Y526.246 Z4.000
G1 X1094.696 Y529.392 Z4.000
G1 X1092.967 Y532.541 Z4.000
G1 X1090.620 Y535.673 Z4.000
G1 X1088.064 Y538.209 Z4.000
G1 X1085.321 Y540.189 Z4.000
G1 X1082.403 Y541.680 Z4.000
G1 X1079.322 Y542.747 Z4.000
G1 X1076.087 Y543.455 Z4.000
G1 X1072.710 Y543.870 Z4.000
G1 X1069.202 Y544.059 Z4.000
G1 X1064.767 Y544.087 Z4.000
G1 X1058.616 Y544.029 Z4.000
G1 X1054.794 Y544.271 Z4.000
G1 X1051.690 Y544.791 Z4.000
G1 X1049.911 Y545.268 Z4.000
G1 X1048.224 Y545.899 Z4.000
G1 X1046.656 Y546.705 Z4.000
G1 X1045.231 Y547.708 Z4.000
G1 X1043.975 Y548.927 Z4.000
G1 X1042.912 Y550.383 Z4.000
G1 X1042.068 Y552.097 Z4.000
G1 X1041.257 Y554.856 Z4.000
G1 X1040.775 Y557.889 Z4.000
G1 X1040.700 Y559.457 Z4.000
G1 X1040.788 Y560.831 Z4.000
G1 X1041.028 Y562.020 Z4.000
G1 X1041.410 Y563.035 Z4.000
G1 X1041.924 Y563.885 Z4.000
G1 X1042.558 Y564.579 Z4.000
G1 X1043.303 Y565.127 Z4.000
G1 X1044.435 Y565.669 Z4.000
G1 X1046.438 Y566.041 Z4.000
G1 X1048.702 Y565.996 Z4.000
G1 X1051.144 Y565.610 Z4.000
G1 X1053.679 Y564.959 Z4.000
G1 X1057.069 Y563.834 Z4.000
G1 X1063.286 Y561.210 Z4.000
G1 X1067.897 Y559.107 Z4.000
G1 X1071.358 Y557.980 Z4.000
G1 X1074.868 Y557.153 Z4.000
G1 X1078.396 Y556.678 Z4.000
G1 X1081.916 Y556.610 Z4.000
G1 X1085.399 Y557.000 Z4.000
G1 X1088.816 Y557.902 Z4.000
G1 X1092.139 Y559.369 Z4.000
G1 X1095.167 Y561.335 Z4.000
G1 X1097.453 Y563.368 Z4.000
G1 X1099.372 Y565.644 Z4.000
G1 X1101.009 Y568.174 Z4.000
G1 X1102.229 Y570.518 Z4.000
G1 X1102.821 Y572.070 Z4.000
G1 X1103.417 Y574.208 Z4.000
G1 X1104.011 Y577.194 Z4.000
G1 X1104.679 Y579.410 Z4.000
G1 X1105.556 Y581.411 Z4.000
G1 X1106.615 Y583.182 Z4.000
G1 X1107.831 Y584.707 Z4.000
G1 X1109.176 Y585.971 Z4.000
G1 X1110.623 Y586.957 Z4.000
G1 X1112.146 Y587.650 Z4.000
G1 X1113.719 Y588.034 Z4.000
G1 X1115.315 Y588.095 Z4.000
G1 X1116.908 Y587.816 Z4.000
G1 X1118.470 Y587.182 Z4.000
G1 X1119.976 Y586.177 Z4.000
G1 X1121.398 Y584.786 Z4.000
G1 X1122.710 Y582.992 Z4.000
G1 X1123.886 Y580.781 Z4.000
G1 X1124.739 Y578.577 Z4.000
G1 X1125.043 Y577.237 Z4.000
G1 X1125.230 Y575.537 Z4.000
G1 X1125.387 Y573.276 Z4.000
G1 X1125.249 Y571.349 Z4.000
G1 X1124.758 Y569.526 Z4.000
G1 X1123.960 Y567.788 Z4.000
G1 X1122.899 Y566.121 Z4.000
G1 X1121.622 Y564.507 Z4.000
G1 X1119.683 Y562.406 Z4.000
G1 X1116.391 Y559.306 Z4.000
G1 X1113.021 Y556.136 Z4.000
G1 X1110.436 Y553.335 Z4.000
G1 X1109.063 Y551.560 Z4.000
G1 X1107.883 Y549.692 Z4.000
G1 X1106.941 Y547.713 Z4.000
G1 X1106.104 Y544.983 Z4.000
G1 X1105.513 Y541.213 Z4.000
G1 X1105.498 Y537.668 Z4.000
G1 X1105.968 Y534.287 Z4.000
G1 X1106.836 Y531.010 Z4.000
G1 X1108.013 Y527.779 Z4.000
G1 X1109.883 Y523.447 Z4.000
G1 X1112.482 Y517.802 Z4.000
G1 X1114.170 Y514.052 Z4.000
G1 X1115.797 Y510.000 Z4.000
G1 X1116.858 Y506.542 Z4.000
G1 X1117.303 Y504.488 Z4.000
G1 X1117.552 Y502.478 Z4.000
G1 X1117.566 Y500.537 Z4.000
G1 X1117.306 Y498.692 Z4.000
G1 X1116.734 Y496.967 Z4.000
G1 X1115.810 Y495.389 Z4.000
G1 X1114.496 Y493.983 Z4.000
G1 X1112.753 Y492.775 Z4.000
G1 X1110.543 Y491.790 Z4.000
G1 X1108.761 Y491.284 Z4.000
G0 X1108.761 Y491.284 Z0.000

(shape postamble)


(shape preamble)

G0 X821.375 Y249.942 Z0.000
G1 X821.375 Y249.942 Z4.000
G1 X820.688 Y250.856 Z4.000
G1 X818.744 Y253.105 Z4.000
G1 X817.019 Y254.963 Z4.000
G1 X815.598 Y256.643 Z4.000
G1 X814.562 Y258.357 Z4.000
G1 X813.994 Y260.317 Z4.000
G1 X813.979 Y262.735 Z4.000
G1 X814.598 Y265.823 Z4.000
G1 X815.656 Y269.007 Z4.000
G1 X816.545 Y270.916 Z4.000
G1 X818.044 Y273.766 Z4.000
G1 X820.223 Y278.195 Z4.000
G1 X821.489 Y281.347 Z4.000
G1 X822.625 Y284.967 Z4.000
G1 X823.543 Y289.116 Z4.000
G1 X824.101 Y293.402 Z4.000
G1 X824.334 Y296.873 Z4.000
G1 X824.354 Y300.313 Z4.000
G1 X824.138 Y303.706 Z4.000
G1 X823.665 Y307.031 Z4.000
G1 X822.912 Y310.271 Z4.000
G1 X821.857 Y313.406 Z4.000
G1 X820.477 Y316.420 Z4.000
G1 X818.752 Y319.292 Z4.000
G1 X816.658 Y322.005 Z4.000
G1 X814.174 Y324.540 Z4.000
G1 X811.277 Y326.878 Z4.000
G1 X807.946 Y329.002 Z4.000
G1 X804.157 Y330.892 Z4.000
G1 X799.890 Y332.529 Z4.000
G1 X795.122 Y333.897 Z4.000
G1 X790.597 Y334.829 Z4.000
G1 X787.431 Y335.250 Z4.000
G1 X784.192 Y335.461 Z4.000
G1 X780.909 Y335.453 Z4.000
G1 X777.612 Y335.218 Z4.000
G1 X774.332 Y334.746 Z4.000
G1 X771.099 Y334.028 Z4.000
G1 X767.943 Y333.056 Z4.000
G1 X764.893 Y331.819 Z4.000
G1 X761.980 Y330.310 Z4.000
G1 X759.234 Y328.519 Z4.000
G1 X756.685 Y326.438 Z4.000
G1 X754.363 Y324.056 Z4.000
G1 X752.298 Y321.366 Z4.000
G1 X750.521 Y318.358 Z4.000
G1 X749.060 Y315.023 Z4.000
G1 X748.081 Y311.827 Z4.000
G1 X747.636 Y309.611 Z4.000
G1 X747.406 Y307.502 Z4.000
G1 X747.359 Y305.500 Z4.000
G1 X747.503 Y302.980 Z4.000
G1 X748.083 Y299.587 Z4.000
G1 X748.816 Y296.628 Z4.000
G1 X749.435 Y294.104 Z4.000
G1 X749.650 Y292.353 Z4.000
G1 X749.596 Y291.439 Z4.000
G1 X749.358 Y290.634 Z4.000
G1 X748.903 Y289.940 Z4.000
G1 X747.994 Y289.202 Z4.000
G1 X746.623 Y288.544 Z4.000
G1 X745.224 Y288.279 Z4.000
G1 X743.784 Y288.356 Z4.000
G1 X742.286 Y288.721 Z4.000
G1 X740.715 Y289.323 Z4.000
G1 X738.497 Y290.381 Z4.000
G1 X734.777 Y292.371 Z4.000
G1 X731.229 Y294.076 Z4.000
G1 X728.898 Y295.011 Z4.000
G1 X726.386 Y295.821 Z4.000
G1 X723.677 Y296.452 Z4.000
G1 X720.758 Y296.854 Z4.000
G1 X717.611 Y296.973 Z4.000
G1 X714.316 Y296.767 Z4.000
G1 X711.347 Y296.140 Z4.000
G1 X708.598 Y295.099 Z4.000
G1 X706.075 Y293.679 Z4.000
G1 X703.782 Y291.916 Z4.000
G1 X701.727 Y289.847 Z4.000
G1 X699.912 Y287.508 Z4.000
G1 X698.344 Y284.936 Z4.000
G1 X697.029 Y282.167 Z4.000
G1 X695.970 Y279.236 Z4.000
G1 X695.174 Y276.181 Z4.000
G1 X694.645 Y273.037 Z4.000
G1 X694.390 Y269.841 Z4.000
G1 X694.412 Y266.629 Z4.000
G1 X694.718 Y263.437 Z4.000
G1 X695.312 Y260.301 Z4.000
G1 X696.193 Y257.283 Z4.000
G1 X697.349 Y254.447 Z4.000
G1 X698.781 Y251.764 Z4.000
G1 X700.472 Y249.255 Z4.000
G1 X702.408 Y246.940 Z4.000
G1 X704.573 Y244.836 Z4.000
G1 X706.951 Y242.965 Z4.000
G1 X709.528 Y241.344 Z4.000
G1 X711.990 Y240.134 Z4.000
G1 X714.176 Y239.404 Z4.000
G1 X716.669 Y238.839 Z4.000
G1 X719.422 Y238.418 Z4.000
G1 X723.391 Y238.025 Z4.000
G1 X729.881 Y237.761 Z4.000
G1 X736.617 Y237.693 Z4.000
G1 X743.229 Y237.644 Z4.000
G1 X749.350 Y237.440 Z4.000
G1 X753.764 Y237.008 Z4.000
G1 X756.056 Y236.604 Z4.000
G1 X758.074 Y236.039 Z4.000
G1 X759.894 Y235.198 Z4.000
G1 X761.433 Y234.121 Z4.000
G1 X762.728 Y232.830 Z4.000
G1 X763.818 Y231.347 Z4.000
G1 X764.738 Y229.691 Z4.000
G1 X765.786 Y227.275 Z4.000
G1 X767.078 Y223.221 Z4.000
G1 X768.348 Y218.848 Z4.000
G1 X769.625 Y215.082 Z4.000
G1 X770.551 Y212.819 Z4.000
G1 X771.648 Y210.576 Z4.000
G1 X772.951 Y208.374 Z4.000
G1 X774.646 Y206.040 Z4.000
G1 X776.948 Y203.603 Z4.000
G1 X779.532 Y201.490 Z4.000
G1 X782.352 Y199.691 Z4.000
G1 X785.361 Y198.199 Z4.000
G1 X788.513 Y197.008 Z4.000
G1 X791.762 Y196.110 Z4.000
G1 X795.061 Y195.497 Z4.000
G1 X798.339 Y195.164 Z4.000
G1 X801.517 Y195.113 Z4.000
G1 X804.622 Y195.334 Z4.000
G1 X807.637 Y195.821 Z4.000
G1 X810.545 Y196.568 Z4.000
G1 X813.329 Y197.567 Z4.000
G1 X815.972 Y198.811 Z4.000
G1 X818.457 Y200.295 Z4.000
G1 X820.768 Y202.012 Z4.000
G1 X822.887 Y203.955 Z4.000
G1 X824.798 Y206.117 Z4.000
G1 X826.483 Y208.492 Z4.000
G1 X827.926 Y211.073 Z4.000
G1 X829.109 Y213.853 Z4.000
G1 X830.017 Y216.827 Z4.000
G1 X830.631 Y219.986 Z4.000
G1 X830.946 Y223.473 Z4.000
G1 X830.852 Y227.237 Z4.000
G1 X830.340 Y230.933 Z4.000
G1 X829.447 Y234.548 Z4.000
G1 X828.214 Y238.068 Z4.000
G1 X826.677 Y241.480 Z4.000
G1 X824.875 Y244.771 Z4.000
G1 X822.845 Y247.928 Z4.000
G1 X821.375 Y249.942 Z4.000
G0 X821.375 Y249.942 Z0.000

(shape postamble)


(shape preamble)

G0 X796.402 Y217.166 Z0.000
G1 X796.402 Y217.166 Z4.000
G1 X795.988 Y217.332 Z4.000
G1 X794.866 Y217.983 Z4.000
G1 X793.874 Y218.803 Z4.000
G1 X792.994 Y219.775 Z4.000
G1 X791.953 Y221.261 Z4.000
G1 X790.651 Y223.903 Z4.000
G1 X789.132 Y227.892 Z4.000
G1 X787.167 Y233.363 Z4.000
G1 X785.701 Y236.611 Z4.000
G1 X783.838 Y239.728 Z4.000
G1 X781.687 Y242.680 Z4.000
G1 X779.377 Y245.392 Z4.000
G1 X776.960 Y247.848 Z4.000
G1 X774.483 Y250.030 Z4.000
G1 X771.999 Y251.922 Z4.000
G1 X769.555 Y253.507 Z4.000
G1 X767.203 Y254.768 Z4.000
G1 X765.089 Y255.650 Z4.000
G1 X762.981 Y256.200 Z4.000
G1 X760.642 Y256.547 Z4.000
G1 X758.106 Y256.725 Z4.000
G1 X754.495 Y256.777 Z4.000
G1 X748.648 Y256.553 Z4.000
G1 X742.568 Y256.260 Z4.000
G1 X736.513 Y256.176 Z4.000
G1 X731.689 Y256.494 Z4.000
G1 X728.946 Y256.905 Z4.000
G1 X726.359 Y257.532 Z4.000
G1 X723.961 Y258.408 Z4.000
G1 X721.882 Y259.514 Z4.000
G1 X720.215 Y260.682 Z4.000
G1 X718.764 Y261.973 Z4.000
G1 X717.534 Y263.362 Z4.000
G1 X716.529 Y264.823 Z4.000
G1 X715.753 Y266.332 Z4.000
G1 X715.212 Y267.864 Z4.000
G1 X714.909 Y269.394 Z4.000
G1 X714.850 Y270.897 Z4.000
G1 X715.038 Y272.348 Z4.000
G1 X715.478 Y273.722 Z4.000
G1 X716.174 Y274.994 Z4.000
G1 X717.132 Y276.140 Z4.000
G1 X718.355 Y277.134 Z4.000
G1 X719.848 Y277.951 Z4.000
G1 X721.616 Y278.567 Z4.000
G1 X723.552 Y278.938 Z4.000
G1 X725.379 Y278.989 Z4.000
G1 X727.270 Y278.782 Z4.000
G1 X729.207 Y278.353 Z4.000
G1 X731.829 Y277.522 Z4.000
G1 X735.781 Y275.785 Z4.000
G1 X740.888 Y273.098 Z4.000
G1 X746.415 Y270.060 Z4.000
G1 X748.667 Y269.094 Z4.000
G1 X749.824 Y268.762 Z4.000
G1 X751.607 Y268.627 Z4.000
G1 X754.782 Y268.906 Z4.000
G1 X757.704 Y269.702 Z4.000
G1 X760.339 Y270.986 Z4.000
G1 X762.651 Y272.728 Z4.000
G1 X764.605 Y274.899 Z4.000
G1 X766.167 Y277.470 Z4.000
G1 X767.301 Y280.411 Z4.000
G1 X767.859 Y283.052 Z4.000
G1 X767.949 Y284.424 Z4.000
G1 X767.838 Y286.191 Z4.000
G1 X767.201 Y288.728 Z4.000
G1 X766.238 Y291.205 Z4.000
G1 X765.154 Y293.691 Z4.000
G1 X764.157 Y296.258 Z4.000
G1 X763.452 Y298.973 Z4.000
G1 X763.262 Y301.411 Z4.000
G1 X763.353 Y302.959 Z4.000
G1 X763.702 Y304.916 Z4.000
G1 X764.463 Y307.247 Z4.000
G1 X765.491 Y309.235 Z4.000
G1 X766.752 Y310.906 Z4.000
G1 X768.214 Y312.283 Z4.000
G1 X769.843 Y313.388 Z4.000
G1 X771.607 Y314.246 Z4.000
G1 X773.471 Y314.880 Z4.000
G1 X775.404 Y315.313 Z4.000
G1 X777.371 Y315.568 Z4.000
G1 X779.995 Y315.696 Z4.000
G1 X783.769 Y315.454 Z4.000
G1 X787.109 Y314.910 Z4.000
G1 X789.377 Y314.348 Z4.000
G1 X790.748 Y313.839 Z4.000
G1 X792.092 Y313.160 Z4.000
G1 X793.395 Y312.318 Z4.000
G1 X794.645 Y311.317 Z4.000
G1 X795.825 Y310.163 Z4.000
G1 X796.924 Y308.861 Z4.000
G1 X797.926 Y307.416 Z4.000
G1 X798.817 Y305.833 Z4.000
G1 X799.584 Y304.118 Z4.000
G1 X800.213 Y302.276 Z4.000
G1 X800.689 Y300.311 Z4.000
G1 X800.999 Y298.229 Z4.000
G1 X801.128 Y296.036 Z4.000
G1 X801.063 Y293.737 Z4.000
G1 X800.789 Y291.336 Z4.000
G1 X800.334 Y289.033 Z4.000
G1 X799.449 Y286.401 Z4.000
G1 X797.699 Y282.061 Z4.000
G1 X794.413 Y274.668 Z4.000
G1 X792.074 Y269.246 Z4.000
G1 X791.157 Y266.792 Z4.000
G1 X790.719 Y264.739 Z4.000
G1 X790.512 Y262.028 Z4.000
G1 X790.631 Y259.524 Z4.000
G1 X791.040 Y257.202 Z4.000
G1 X791.707 Y255.036 Z4.000
G1 X792.597 Y253.002 Z4.000
G1 X793.675 Y251.073 Z4.000
G1 X794.909 Y249.224 Z4.000
G1 X796.719 Y246.834 Z4.000
G1 X799.695 Y243.317 Z4.000
G1 X802.699 Y239.681 Z4.000
G1 X805.009 Y236.394 Z4.000
G1 X806.253 Y234.273 Z4.000
G1 X807.255 Y232.196 Z4.000
G1 X807.890 Y230.453 Z4.000
G1 X808.335 Y228.705 Z4.000
G1 X808.590 Y226.977 Z4.000
G1 X808.660 Y225.293 Z4.000
G1 X808.545 Y223.678 Z4.000
G1 X808.247 Y222.156 Z4.000
G1 X807.770 Y220.751 Z4.000
G1 X807.115 Y219.488 Z4.000
G1 X806.284 Y218.392 Z4.000
G1 X805.280 Y217.487 Z4.000
G1 X804.104 Y216.797 Z4.000
G1 X802.758 Y216.347 Z4.000
G1 X801.246 Y216.162 Z4.000
G1 X799.568 Y216.266 Z4.000
G1 X797.727 Y216.682 Z4.000
G1 X796.402 Y217.166 Z4.000
G0 X796.402 Y217.166 Z0.000

(shape postamble)


(shape preamble)

G0 X1293.950 Y233.083 Z0.000
G1 X1293.950 Y233.083 Z4.000
G1 X1293.773 Y234.517 Z4.000
G1 X1292.878 Y238.704 Z4.000
G1 X1291.577 Y242.745 Z4.000
G1 X1289.903 Y246.633 Z4.000
G1 X1287.890 Y250.361 Z4.000
G1 X1285.571 Y253.920 Z4.000
G1 X1282.979 Y257.303 Z4.000
G1 X1280.147 Y260.503 Z4.000
G1 X1276.831 Y263.782 Z4.000
G1 X1272.619 Y267.535 Z4.000
G1 X1268.301 Y271.338 Z4.000
G1 X1264.164 Y275.286 Z4.000
G1 X1261.089 Y278.766 Z4.000
G1 X1259.458 Y280.951 Z4.000
G1 X1258.040 Y283.227 Z4.000
G1 X1256.870 Y285.607 Z4.000
G1 X1255.984 Y288.101 Z4.000
G1 X1255.418 Y290.721 Z4.000
G1 X1255.207 Y293.480 Z4.000
G1 X1255.389 Y296.389 Z4.000
G1 X1256.079 Y299.835 Z4.000
G1 X1256.745 Y303.903 Z4.000
G1 X1257.099 Y307.783 Z4.000
G1 X1257.151 Y311.469 Z4.000
G1 X1256.910 Y314.958 Z4.000
G1 X1256.385 Y318.245 Z4.000
G1 X1255.585 Y321.325 Z4.000
G1 X1254.518 Y324.195 Z4.000
G1 X1253.194 Y326.850 Z4.000
G1 X1251.621 Y329.285 Z4.000
G1 X1249.808 Y331.497 Z4.000
G1 X1247.764 Y333.480 Z4.000
G1 X1245.498 Y335.230 Z4.000
G1 X1243.020 Y336.743 Z4.000
G1 X1240.336 Y338.015 Z4.000
G1 X1237.458 Y339.040 Z4.000
G1 X1234.051 Y339.897 Z4.000
G1 X1229.459 Y340.685 Z4.000
G1 X1225.316 Y341.008 Z4.000
G1 X1222.757 Y341.020 Z4.000
G1 X1220.162 Y340.857 Z4.000
G1 X1217.554 Y340.494 Z4.000
G1 X1214.958 Y339.904 Z4.000
G1 X1212.396 Y339.061 Z4.000
G1 X1209.891 Y337.938 Z4.000
G1 X1207.467 Y336.511 Z4.000
G1 X1205.147 Y334.753 Z4.000
G1 X1202.953 Y332.637 Z4.000
G1 X1200.909 Y330.137 Z4.000
G1 X1199.038 Y327.229 Z4.000
G1 X1197.497 Y324.161 Z4.000
G1 X1196.532 Y321.637 Z4.000
G1 X1195.855 Y319.190 Z4.000
G1 X1195.421 Y316.821 Z4.000
G1 X1195.114 Y313.775 Z4.000
G1 X1195.128 Y309.498 Z4.000
G1 X1195.319 Y305.558 Z4.000
G1 X1195.334 Y302.552 Z4.000
G1 X1195.195 Y300.858 Z4.000
G1 X1194.887 Y299.254 Z4.000
G1 X1194.364 Y297.741 Z4.000
G1 X1193.580 Y296.319 Z4.000
G1 X1192.491 Y294.991 Z4.000
G1 X1191.082 Y293.784 Z4.000
G1 X1189.674 Y292.890 Z4.000
G1 X1188.264 Y292.264 Z4.000
G1 X1186.847 Y291.875 Z4.000
G1 X1185.418 Y291.693 Z4.000
G1 X1183.973 Y291.685 Z4.000
G1 X1182.018 Y291.876 Z4.000
G1 X1177.972 Y292.761 Z4.000
G1 X1172.469 Y294.110 Z4.000
G1 X1169.507 Y294.490 Z4.000
G1 X1167.654 Y294.560 Z4.000
G1 X1165.341 Y294.446 Z4.000
G1 X1162.326 Y293.811 Z4.000
G1 X1159.446 Y292.704 Z4.000
G1 X1156.720 Y291.184 Z4.000
G1 X1154.168 Y289.314 Z4.000
G1 X1151.809 Y287.154 Z4.000
G1 X1149.661 Y284.764 Z4.000
G1 X1147.744 Y282.206 Z4.000
G1 X1146.068 Y279.525 Z4.000
G1 X1144.626 Y276.676 Z4.000
G1 X1143.430 Y273.693 Z4.000
G1 X1142.479 Y270.597 Z4.000
G1 X1141.768 Y267.413 Z4.000
G1 X1141.296 Y264.163 Z4.000
G1 X1141.059 Y260.868 Z4.000
G1 X1141.056 Y257.553 Z4.000
G1 X1141.283 Y254.240 Z4.000
G1 X1141.738 Y250.950 Z4.000
G1 X1142.418 Y247.709 Z4.000
G1 X1143.320 Y244.536 Z4.000
G1 X1144.442 Y241.457 Z4.000
G1 X1145.781 Y238.492 Z4.000
G1 X1147.334 Y235.666 Z4.000
G1 X1149.100 Y233.000 Z4.000
G1 X1151.044 Y230.553 Z4.000
G1 X1153.170 Y228.392 Z4.000
G1 X1155.516 Y226.449 Z4.000
G1 X1158.057 Y224.727 Z4.000
G1 X1160.765 Y223.228 Z4.000
G1 X1163.613 Y221.953 Z4.000
G1 X1166.574 Y220.904 Z4.000
G1 X1169.622 Y220.084 Z4.000
G1 X1172.729 Y219.494 Z4.000
G1 X1175.870 Y219.137 Z4.000
G1 X1179.015 Y219.014 Z4.000
G1 X1182.140 Y219.128 Z4.000
G1 X1185.216 Y219.480 Z4.000
G1 X1188.218 Y220.072 Z4.000
G1 X1191.118 Y220.907 Z4.000
G1 X1193.888 Y221.986 Z4.000
G1 X1196.176 Y223.138 Z4.000
G1 X1197.644 Y224.160 Z4.000
G1 X1199.416 Y225.758 Z4.000
G1 X1201.734 Y228.559 Z4.000
G1 X1203.897 Y231.496 Z4.000
G1 X1205.757 Y233.792 Z4.000
G1 X1206.953 Y235.027 Z4.000
G1 X1208.246 Y236.105 Z4.000
G1 X1209.663 Y236.982 Z4.000
G1 X1211.234 Y237.618 Z4.000
G1 X1212.988 Y237.973 Z4.000
G1 X1214.953 Y238.003 Z4.000
G1 X1217.159 Y237.669 Z4.000
G1 X1219.372 Y237.014 Z4.000
G1 X1220.737 Y236.173 Z4.000
G1 X1221.713 Y235.019 Z4.000
G1 X1222.361 Y233.582 Z4.000
G1 X1222.737 Y231.892 Z4.000
G1 X1222.901 Y229.978 Z4.000
G1 X1222.909 Y227.157 Z4.000
G1 X1222.670 Y222.378 Z4.000
G1 X1222.599 Y218.082 Z4.000
G1 X1222.725 Y215.445 Z4.000
G1 X1223.050 Y212.790 Z4.000
G1 X1223.634 Y210.148 Z4.000
G1 X1224.535 Y207.547 Z4.000
G1 X1225.811 Y205.018 Z4.000
G1 X1227.599 Y202.485 Z4.000
G1 X1229.752 Y200.032 Z4.000
G1 X1232.048 Y197.892 Z4.000
G1 X1234.473 Y196.054 Z4.000
G1 X1237.011 Y194.510 Z4.000
G1 X1239.649 Y193.252 Z4.000
G1 X1242.371 Y192.269 Z4.000
G1 X1245.162 Y191.554 Z4.000
G1 X1248.007 Y191.097 Z4.000
G1 X1250.891 Y190.889 Z4.000
G1 X1253.800 Y190.920 Z4.000
G1 X1256.718 Y191.183 Z4.000
G1 X1259.631 Y191.668 Z4.000
G1 X1262.524 Y192.366 Z4.000
G1 X1265.382 Y193.267 Z4.000
G1 X1268.189 Y194.364 Z4.000
G1 X1270.932 Y195.647 Z4.000
G1 X1273.594 Y197.106 Z4.000
G1 X1276.162 Y198.734 Z4.000
G1 X1278.621 Y200.520 Z4.000
G1 X1280.955 Y202.456 Z4.000
G1 X1283.149 Y204.533 Z4.000
G1 X1285.189 Y206.742 Z4.000
G1 X1287.060 Y209.073 Z4.000
G1 X1288.747 Y211.518 Z4.000
G1 X1290.235 Y214.069 Z4.000
G1 X1291.508 Y216.714 Z4.000
G1 X1292.553 Y219.447 Z4.000
G1 X1293.355 Y222.257 Z4.000
G1 X1293.897 Y225.136 Z4.000
G1 X1294.166 Y228.075 Z4.000
G1 X1294.147 Y231.065 Z4.000
G1 X1293.950 Y233.083 Z4.000
G0 X1293.950 Y233.083 Z0.000

(shape postamble)


(shape preamble)

G0 X1259.261 Y213.954 Z0.000
G1 X1259.261 Y213.954 Z4.000
G1 X1258.336 Y213.735 Z4.000
G1 X1255.846 Y213.402 Z4.000
G1 X1253.676 Y213.430 Z4.000
G1 X1251.800 Y213.787 Z4.000
G1 X1250.195 Y214.444 Z4.000
G1 X1248.835 Y215.370 Z4.000
G1 X1247.698 Y216.534 Z4.000
G1 X1246.757 Y217.908 Z4.000
G1 X1245.989 Y219.459 Z4.000
G1 X1245.370 Y221.159 Z4.000
G1 X1244.716 Y223.587 Z4.000
G1 X1243.849 Y228.809 Z4.000
G1 X1243.031 Y235.439 Z4.000
G1 X1242.059 Y239.620 Z4.000
G1 X1240.648 Y243.660 Z4.000
G1 X1238.793 Y247.485 Z4.000
G1 X1236.490 Y251.020 Z4.000
G1 X1234.207 Y253.674 Z4.000
G1 X1232.696 Y255.135 Z4.000
G1 X1231.071 Y256.480 Z4.000
G1 X1229.331 Y257.700 Z4.000
G1 X1227.475 Y258.786 Z4.000
G1 X1225.504 Y259.727 Z4.000
G1 X1223.384 Y260.526 Z4.000
G1 X1221.241 Y261.137 Z4.000
G1 X1219.162 Y261.537 Z4.000
G1 X1217.145 Y261.736 Z4.000
G1 X1215.187 Y261.744 Z4.000
G1 X1213.284 Y261.572 Z4.000
G1 X1211.434 Y261.229 Z4.000
G1 X1209.632 Y260.726 Z4.000
G1 X1207.293 Y259.848 Z4.000
G1 X1203.933 Y258.044 Z4.000
G1 X1200.714 Y255.777 Z4.000
G1 X1197.609 Y253.128 Z4.000
G1 X1194.598 Y250.181 Z4.000
G1 X1191.198 Y247.300 Z4.000
G1 X1188.067 Y245.162 Z4.000
G1 X1186.109 Y244.039 Z4.000
G1 X1184.104 Y243.077 Z4.000
G1 X1182.069 Y242.303 Z4.000
G1 X1180.020 Y241.748 Z4.000
G1 X1177.975 Y241.440 Z4.000
G1 X1175.951 Y241.408 Z4.000
G1 X1173.963 Y241.680 Z4.000
G1 X1172.029 Y242.287 Z4.000
G1 X1170.165 Y243.255 Z4.000
G1 X1168.388 Y244.615 Z4.000
G1 X1166.715 Y246.396 Z4.000
G1 X1165.217 Y248.544 Z4.000
G1 X1164.113 Y250.741 Z4.000
G1 X1163.320 Y253.059 Z4.000
G1 X1162.830 Y255.458 Z4.000
G1 X1162.635 Y257.899 Z4.000
G1 X1162.726 Y260.339 Z4.000
G1 X1163.097 Y262.740 Z4.000
G1 X1163.740 Y265.060 Z4.000
G1 X1164.645 Y267.260 Z4.000
G1 X1165.807 Y269.299 Z4.000
G1 X1167.216 Y271.136 Z4.000
G1 X1168.866 Y272.732 Z4.000
G1 X1170.747 Y274.046 Z4.000
G1 X1172.853 Y275.038 Z4.000
G1 X1175.176 Y275.666 Z4.000
G1 X1177.707 Y275.892 Z4.000
G1 X1180.997 Y275.614 Z4.000
G1 X1185.261 Y274.813 Z4.000
G1 X1189.328 Y273.899 Z4.000
G1 X1193.215 Y273.168 Z4.000
G1 X1196.320 Y272.938 Z4.000
G1 X1198.136 Y273.020 Z4.000
G1 X1199.916 Y273.321 Z4.000
G1 X1201.662 Y273.877 Z4.000
G1 X1203.376 Y274.724 Z4.000
G1 X1205.059 Y275.901 Z4.000
G1 X1206.714 Y277.444 Z4.000
G1 X1208.342 Y279.390 Z4.000
G1 X1209.610 Y281.259 Z4.000
G1 X1210.125 Y282.403 Z4.000
G1 X1210.694 Y284.261 Z4.000
G1 X1211.281 Y287.707 Z4.000
G1 X1211.629 Y291.583 Z4.000
G1 X1211.851 Y296.897 Z4.000
G1 X1211.861 Y303.662 Z4.000
G1 X1212.012 Y306.893 Z4.000
G1 X1212.770 Y309.642 Z4.000
G1 X1214.037 Y312.212 Z4.000
G1 X1215.738 Y314.518 Z4.000
G1 X1217.799 Y316.474 Z4.000
G1 X1220.144 Y317.995 Z4.000
G1 X1222.269 Y318.845 Z4.000
G1 X1223.590 Y319.174 Z4.000
G1 X1224.938 Y319.344 Z4.000
G1 X1226.304 Y319.345 Z4.000
G1 X1228.381 Y319.060 Z4.000
G1 X1231.343 Y318.208 Z4.000
G1 X1233.733 Y317.015 Z4.000
G1 X1235.602 Y315.528 Z4.000
G1 X1236.999 Y313.792 Z4.000
G1 X1237.976 Y311.857 Z4.000
G1 X1238.584 Y309.768 Z4.000
G1 X1238.874 Y307.573 Z4.000
G1 X1238.895 Y305.319 Z4.000
G1 X1238.700 Y303.052 Z4.000
G1 X1238.210 Y300.080 Z4.000
G1 X1236.773 Y294.655 Z4.000
G1 X1235.205 Y289.622 Z4.000
G1 X1234.641 Y286.022 Z4.000
G1 X1234.519 Y283.905 Z4.000
G1 X1234.577 Y281.808 Z4.000
G1 X1234.821 Y279.717 Z4.000
G1 X1235.254 Y277.618 Z4.000
G1 X1235.882 Y275.497 Z4.000
G1 X1236.775 Y273.172 Z4.000
G1 X1238.024 Y270.675 Z4.000
G1 X1239.474 Y268.365 Z4.000
G1 X1241.101 Y266.218 Z4.000
G1 X1242.880 Y264.210 Z4.000
G1 X1244.786 Y262.319 Z4.000
G1 X1247.470 Y259.925 Z4.000
G1 X1251.738 Y256.547 Z4.000
G1 X1256.088 Y253.225 Z4.000
G1 X1260.321 Y249.771 Z4.000
G1 X1263.601 Y246.638 Z4.000
G1 X1265.423 Y244.613 Z4.000
G1 X1267.042 Y242.523 Z4.000
G1 X1268.352 Y240.477 Z4.000
G1 X1269.458 Y238.351 Z4.000
G1 X1270.351 Y236.169 Z4.000
G1 X1271.020 Y233.955 Z4.000
G1 X1271.457 Y231.733 Z4.000
G1 X1271.653 Y229.528 Z4.000
G1 X1271.599 Y227.363 Z4.000
G1 X1271.285 Y225.264 Z4.000
G1 X1270.702 Y223.255 Z4.000
G1 X1269.842 Y221.359 Z4.000
G1 X1268.695 Y219.601 Z4.000
G1 X1267.251 Y218.006 Z4.000
G1 X1265.503 Y216.597 Z4.000
G1 X1263.440 Y215.400 Z4.000
G1 X1261.054 Y214.438 Z4.000
G1 X1259.261 Y213.954 Z4.000
G0 X1259.261 Y213.954 Z0.000

(shape postamble)


(shape preamble)

G0 X935.798 Y687.797 Z0.000
G1 X935.798 Y687.797 Z4.000
G1 X936.061 Y687.497 Z4.000
G1 X937.210 Y686.305 Z4.000
G1 X938.852 Y684.567 Z4.000
G1 X940.223 Y682.868 Z4.000
G1 X941.335 Y681.209 Z4.000
G1 X942.200 Y679.587 Z4.000
G1 X942.830 Y678.001 Z4.000
G1 X943.239 Y676.451 Z4.000
G1 X943.437 Y674.935 Z4.000
G1 X943.438 Y673.452 Z4.000
G1 X943.254 Y672.001 Z4.000
G1 X942.769 Y670.108 Z4.000
G1 X941.484 Y667.374 Z4.000
G1 X939.672 Y664.747 Z4.000
G1 X937.432 Y662.219 Z4.000
G1 X934.861 Y659.779 Z4.000
G1 X931.116 Y656.638 Z4.000
G1 X925.167 Y652.166 Z4.000
G1 X920.507 Y648.601 Z4.000
G1 X918.026 Y646.504 Z4.000
G1 X915.751 Y644.279 Z4.000
G1 X913.411 Y641.639 Z4.000
G1 X911.298 Y638.868 Z4.000
G1 X909.441 Y635.963 Z4.000
G1 X907.866 Y632.922 Z4.000
G1 X906.599 Y629.743 Z4.000
G1 X905.669 Y626.424 Z4.000
G1 X905.102 Y622.962 Z4.000
G1 X904.924 Y619.315 Z4.000
G1 X905.227 Y615.651 Z4.000
G1 X905.996 Y612.108 Z4.000
G1 X907.195 Y608.704 Z4.000
G1 X908.788 Y605.453 Z4.000
G1 X910.739 Y602.374 Z4.000
G1 X913.013 Y599.482 Z4.000
G1 X915.574 Y596.794 Z4.000
G1 X918.387 Y594.326 Z4.000
G1 X921.414 Y592.094 Z4.000
G1 X924.621 Y590.116 Z4.000
G1 X927.972 Y588.407 Z4.000
G1 X931.431 Y586.984 Z4.000
G1 X934.962 Y585.864 Z4.000
G1 X938.529 Y585.062 Z4.000
G1 X942.097 Y584.596 Z4.000
G1 X945.887 Y584.477 Z4.000
G1 X949.983 Y584.820 Z4.000
G1 X953.852 Y585.636 Z4.000
G1 X957.504 Y586.902 Z4.000
G1 X960.949 Y588.597 Z4.000
G1 X964.200 Y590.702 Z4.000
G1 X967.265 Y593.193 Z4.000
G1 X970.156 Y596.051 Z4.000
G1 X972.592 Y598.903 Z4.000
G1 X974.859 Y602.417 Z4.000
G1 X977.024 Y605.782 Z4.000
G1 X978.378 Y607.681 Z4.000
G1 X979.749 Y609.332 Z4.000
G1 X981.114 Y610.594 Z4.000
G1 X982.488 Y611.346 Z4.000
G1 X983.965 Y611.764 Z4.000
G1 X985.468 Y611.889 Z4.000
G1 X986.992 Y611.754 Z4.000
G1 X988.531 Y611.392 Z4.000
G1 X990.078 Y610.837 Z4.000
G1 X992.145 Y609.874 Z4.000
G1 X996.251 Y607.389 Z4.000
G1 X1001.143 Y603.985 Z4.000
G1 X1003.884 Y602.331 Z4.000
G1 X1006.926 Y601.084 Z4.000
G1 X1010.884 Y600.119 Z4.000
G1 X1014.757 Y599.754 Z4.000
G1 X1018.529 Y599.947 Z4.000
G1 X1022.181 Y600.657 Z4.000
G1 X1025.698 Y601.841 Z4.000
G1 X1029.062 Y603.458 Z4.000
G1 X1032.257 Y605.467 Z4.000
G1 X1035.265 Y607.825 Z4.000
G1 X1038.071 Y610.492 Z4.000
G1 X1040.658 Y613.426 Z4.000
G1 X1043.008 Y616.585 Z4.000
G1 X1045.105 Y619.927 Z4.000
G1 X1046.932 Y623.411 Z4.000
G1 X1048.472 Y626.995 Z4.000
G1 X1049.708 Y630.638 Z4.000
G1 X1050.614 Y634.251 Z4.000
G1 X1051.120 Y637.768 Z4.000
G1 X1051.254 Y641.260 Z4.000
G1 X1051.029 Y644.705 Z4.000
G1 X1050.460 Y648.079 Z4.000
G1 X1049.562 Y651.357 Z4.000
G1 X1048.349 Y654.517 Z4.000
G1 X1046.836 Y657.534 Z4.000
G1 X1045.036 Y660.386 Z4.000
G1 X1042.965 Y663.047 Z4.000
G1 X1040.638 Y665.495 Z4.000
G1 X1038.068 Y667.705 Z4.000
G1 X1035.269 Y669.655 Z4.000
G1 X1032.257 Y671.320 Z4.000
G1 X1029.047 Y672.677 Z4.000
G1 X1025.651 Y673.701 Z4.000
G1 X1022.064 Y674.374 Z4.000
G1 X1018.462 Y674.523 Z4.000
G1 X1015.003 Y674.421 Z4.000
G1 X1011.765 Y674.403 Z4.000
G1 X1009.308 Y674.719 Z4.000
G1 X1007.947 Y675.121 Z4.000
G1 X1006.687 Y675.739 Z4.000
G1 X1005.538 Y676.615 Z4.000
G1 X1004.511 Y677.791 Z4.000
G1 X1003.615 Y679.310 Z4.000
G1 X1002.860 Y681.212 Z4.000
G1 X1002.257 Y683.540 Z4.000
G1 X1001.870 Y685.947 Z4.000
G1 X1001.873 Y687.812 Z4.000
G1 X1002.199 Y690.486 Z4.000
G1 X1003.157 Y694.742 Z4.000
G1 X1003.940 Y698.220 Z4.000
G1 X1004.257 Y700.182 Z4.000
G1 X1004.401 Y702.660 Z4.000
G1 X1004.402 Y706.420 Z4.000
G1 X1004.180 Y710.137 Z4.000
G1 X1003.698 Y713.789 Z4.000
G1 X1002.917 Y717.356 Z4.000
G1 X1001.798 Y720.815 Z4.000
G1 X1000.306 Y724.146 Z4.000
G1 X998.400 Y727.327 Z4.000
G1 X995.892 Y730.521 Z4.000
